;FLAVOR:UltiGCode
;TIME:22385
;MATERIAL:104069
;MATERIAL2:0
;NOZZLE_DIAMETER:0.4
;Generated with Cura_SteamEngine 2.4.0

;LAYER_COUNT:323
;LAYER:0
M107
G10
G0 F3960 X40.224 Y43.425 Z0.2
;TYPE:SKIRT
G11
G1 F1320 X43.539 Y40.116 E0.74942
G1 X43.768 Y39.897 E0.80012
G1 X45.953 Y37.891 E1.27471
G1 X46.152 Y37.714 E1.31732
G1 X48.7 Y35.534 E1.85385
G1 X48.998 Y35.292 E1.91527
G1 X53.656 Y31.698 E2.85661
G1 X53.969 Y31.469 E2.91866
G1 X56.691 Y29.582 E3.4486
G1 X56.902 Y29.441 E3.4892
G1 X59.332 Y27.874 E3.95183
G1 X59.638 Y27.687 E4.00921
G1 X64.502 Y24.866 E4.90887
G1 X64.871 Y24.665 E4.9761
G1 X68.835 Y22.65 E5.68758
G1 X69.168 Y22.491 E5.74662
G1 X73.165 Y20.698 E6.44754
G1 X73.459 Y20.573 E6.49865
G1 X76.476 Y19.369 E7.01839
G1 X76.771 Y19.259 E7.06877
G1 X80.813 Y17.837 E7.75434
G1 X81.148 Y17.727 E7.81076
G1 X85.179 Y16.516 E8.48419
G1 X85.518 Y16.423 E8.54044
G1 X89.543 Y15.414 E9.20436
G1 X89.836 Y15.347 E9.25245
G1 X92.83 Y14.721 E9.74185
G1 X93.12 Y14.666 E9.78908
G1 X97.102 Y13.994 E10.43521
G1 X97.441 Y13.945 E10.49001
G1 X101.507 Y13.446 E11.14545
G1 X101.846 Y13.412 E11.19996
G1 X105.993 Y13.091 E11.86547
G1 X106.347 Y13.072 E11.92219
G1 X110.579 Y12.942 E12.59963
G1 X110.934 Y12.939 E12.65643
G1 X115.222 Y13.008 E13.3426
G1 X115.583 Y13.022 E13.4004
G1 X119.934 Y13.299 E14.09797
G1 X120.3 Y13.332 E14.15677
G1 X124.686 Y13.825 E14.86295
G1 X125.052 Y13.875 E14.92205
G1 X129.462 Y14.589 E15.63684
G1 X129.849 Y14.662 E15.69985
G1 X134.751 Y15.719 E16.5022
G1 X135.195 Y15.829 E16.57539
G1 X140.821 Y17.402 E17.51007
G1 X141.185 Y17.513 E17.57096
G1 X144.338 Y18.567 E18.10288
G1 X144.704 Y18.7 E18.16519
G1 X150.227 Y20.867 E19.11445
G1 X150.579 Y21.015 E19.17555
G1 X153.644 Y22.399 E19.71362
G1 X154 Y22.572 E19.77695
G1 X159.319 Y25.316 E20.73457
G1 X159.664 Y25.505 E20.79751
G1 X162.603 Y27.219 E21.34187
G1 X162.938 Y27.426 E21.40488
G1 X167.967 Y30.72 E22.36676
G1 X168.285 Y30.941 E22.42872
G1 X171.029 Y32.945 E22.97238
G1 X171.345 Y33.188 E23.03616
G1 X176.01 Y36.985 E23.99855
G1 X176.419 Y37.343 E24.08552
G1 X181.534 Y42.154 E25.20905
G1 X181.877 Y42.498 E25.28677
G1 X185.061 Y45.901 E26.03242
G1 X185.286 Y46.152 E26.08635
G1 X187.466 Y48.7 E26.62288
G1 X187.708 Y48.998 E26.6843
G1 X191.302 Y53.656 E27.62564
G1 X191.53 Y53.968 E27.68747
G1 X193.414 Y56.685 E28.21647
G1 X193.556 Y56.898 E28.25743
G1 X195.126 Y59.333 E28.72099
G1 X195.313 Y59.638 E28.77824
G1 X198.134 Y64.502 E29.67789
G1 X198.335 Y64.87 E29.74498
G1 X200.348 Y68.829 E30.4556
G1 X200.507 Y69.164 E30.51494
G1 X202.302 Y73.166 E31.21671
G1 X202.427 Y73.459 E31.26768
G1 X203.631 Y76.476 E31.78742
G1 X203.741 Y76.77 E31.83765
G1 X205.162 Y80.807 E32.52241
G1 X205.272 Y81.144 E32.57913
G1 X206.484 Y85.18 E33.25338
G1 X206.577 Y85.518 E33.30947
G1 X207.585 Y89.538 E33.97258
G1 X207.652 Y89.831 E34.02067
G1 X208.279 Y92.83 E34.51089
G1 X208.335 Y93.126 E34.55909
G1 X209.023 Y97.221 E35.22347
G1 X209.072 Y97.563 E35.27875
G1 X209.566 Y101.628 E35.93393
G1 X209.6 Y101.97 E35.98892
G1 X209.915 Y106.118 E36.65451
G1 X209.934 Y106.468 E36.7106
G1 X210.059 Y110.697 E37.38753
G1 X210.061 Y111.053 E37.44449
G1 X209.987 Y115.346 E38.13148
G1 X209.972 Y115.708 E38.18945
G1 X209.689 Y120.062 E38.88756
G1 X209.656 Y120.427 E38.94619
G1 X209.158 Y124.81 E39.65199
G1 X209.108 Y125.177 E39.71125
G1 X208.387 Y129.591 E40.42685
G1 X208.333 Y129.883 E40.47436
G1 X207.784 Y132.579 E40.91457
G1 X207.716 Y132.883 E40.96441
G1 X206.627 Y137.295 E41.69152
G1 X206.527 Y137.661 E41.75223
G1 X205.208 Y142.051 E42.48565
G1 X205.074 Y142.455 E42.55375
G1 X203.145 Y147.775 E43.45918
G1 X202.984 Y148.182 E43.52921
G1 X201.147 Y152.461 E44.27427
G1 X200.963 Y152.857 E44.34414
G1 X198.297 Y158.199 E45.29939
G1 X198.11 Y158.55 E45.36302
G1 X196.437 Y161.504 E45.9062
G1 X196.236 Y161.839 E45.9687
G1 X193.006 Y166.915 E46.93135
G1 X192.756 Y167.284 E47.00266
G1 X190.002 Y171.098 E47.75536
G1 X189.796 Y171.369 E47.80983
G1 X187.684 Y174.034 E48.35389
G1 X187.433 Y174.336 E48.41672
G1 X183.471 Y178.837 E49.37614
G1 X183.168 Y179.161 E49.44712
G1 X179.871 Y182.492 E50.197
G1 X179.588 Y182.763 E50.25969
G1 X176.151 Y185.895 E51.00369
G1 X175.9 Y186.114 E51.05699
G1 X173.331 Y188.257 E51.59227
G1 X173.028 Y188.497 E51.65411
G1 X168.327 Y192.029 E52.59491
G1 X168.011 Y192.254 E52.65698
G1 X165.284 Y194.093 E53.18324
G1 X164.989 Y194.282 E53.2393
G1 X160.49 Y197.023 E54.08221
G1 X160.136 Y197.226 E54.1475
G1 X156.2 Y199.343 E54.86258
G1 X155.868 Y199.512 E54.92218
G1 X151.889 Y201.407 E55.62734
G1 X151.555 Y201.556 E55.68585
G1 X147.534 Y203.239 E56.38329
G1 X147.238 Y203.355 E56.43416
G1 X144.212 Y204.475 E56.95042
G1 X143.918 Y204.578 E57.00026
G1 X139.88 Y205.887 E57.67944
G1 X139.545 Y205.987 E57.73538
G1 X135.52 Y207.09 E58.40312
G1 X135.184 Y207.174 E58.45854
G1 X131.177 Y208.078 E59.11577
G1 X130.887 Y208.137 E59.16312
G1 X127.904 Y208.689 E59.6485
G1 X127.606 Y208.738 E59.69682
G1 X123.586 Y209.318 E60.34668
G1 X123.25 Y209.359 E60.40084
G1 X119.139 Y209.766 E61.06182
G1 X118.79 Y209.792 E61.11781
G1 X114.598 Y210.013 E61.78946
G1 X114.246 Y210.024 E61.84581
G1 X109.986 Y210.051 E62.52743
G1 X109.625 Y210.045 E62.58519
G1 X105.301 Y209.867 E63.27762
G1 X104.939 Y209.843 E63.33567
G1 X100.565 Y209.453 E64.03828
G1 X100.199 Y209.411 E64.09723
G1 X95.8 Y208.803 E64.80776
G1 X95.344 Y208.726 E64.88175
G1 X88.839 Y207.419 E65.94335
G1 X88.384 Y207.313 E66.0181
G1 X83.978 Y206.142 E66.74753
G1 X83.675 Y206.055 E66.79797
G1 X80.875 Y205.185 E67.2671
G1 X80.538 Y205.071 E67.32402
G1 X75.223 Y203.143 E68.22864
G1 X74.772 Y202.963 E68.30634
G1 X69.326 Y200.583 E69.25727
G1 X68.97 Y200.417 E69.32012
G1 X65.938 Y198.901 E69.8625
G1 X65.594 Y198.717 E69.92492
G1 X60.374 Y195.763 E70.88458
G1 X60.038 Y195.562 E70.94723
G1 X57.167 Y193.736 E71.49162
G1 X56.839 Y193.515 E71.5549
G1 X51.939 Y190.028 E72.51716
G1 X51.626 Y189.792 E72.57988
G1 X48.966 Y187.684 E73.12292
G1 X48.707 Y187.47 E73.17667
G1 X45.152 Y184.387 E73.92957
G1 X44.822 Y184.083 E74.00136
G1 X40.545 Y179.907 E74.95778
G1 X40.273 Y179.627 E75.02024
G1 X37.992 Y177.159 E75.55794
G1 X37.737 Y176.869 E75.61973
G1 X33.944 Y172.322 E76.56714
G1 X33.704 Y172.019 E76.62899
G1 X31.708 Y169.362 E77.1607
G1 X31.486 Y169.051 E77.22183
G1 X28.225 Y164.223 E78.15401
G1 X27.979 Y163.834 E78.22766
G1 X25.372 Y159.42 E79.04788
G1 X25.201 Y159.114 E79.10396
G1 X23.635 Y156.159 E79.63905
G1 X23.508 Y155.909 E79.68392
G1 X22.065 Y152.925 E80.21425
G1 X21.932 Y152.635 E80.2653
G1 X20.197 Y148.626 E80.96423
G1 X20.078 Y148.335 E81.01453
G1 X18.959 Y145.425 E81.51337
G1 X18.855 Y145.137 E81.56236
G1 X17.485 Y141.095 E82.24522
G1 X17.379 Y140.756 E82.30205
G1 X16.219 Y136.723 E82.97349
G1 X16.131 Y136.387 E83.02907
G1 X15.173 Y132.374 E83.68919
G1 X15.109 Y132.081 E83.73717
G1 X14.518 Y129.088 E84.2253
G1 X14.466 Y128.795 E84.27291
G1 X13.839 Y124.801 E84.91978
G1 X13.794 Y124.466 E84.97386
G1 X13.338 Y120.386 E85.63073
G1 X13.307 Y120.038 E85.68663
G1 X13.034 Y115.862 E86.35621
G1 X13.019 Y115.513 E86.4121
G1 X12.937 Y111.273 E87.09063
G1 X12.939 Y110.915 E87.14791
G1 X13.059 Y106.601 E87.83842
G1 X13.078 Y106.237 E87.89674
G1 X13.408 Y101.884 E88.59522
G1 X13.444 Y101.521 E88.65358
G1 X13.99 Y97.129 E89.36171
G1 X14.05 Y96.733 E89.42579
G1 X14.946 Y91.709 E90.24232
G1 X15.027 Y91.316 E90.30652
G1 X16.057 Y86.901 E91.03189
G1 X16.137 Y86.586 E91.08389
G1 X17.024 Y83.406 E91.61211
G1 X17.138 Y83.036 E91.67406
G1 X19.006 Y77.455 E92.61571
G1 X19.136 Y77.096 E92.6768
G1 X20.358 Y73.975 E93.21307
G1 X20.51 Y73.614 E93.27574
G1 X22.966 Y68.184 E94.22928
G1 X23.136 Y67.832 E94.29182
G1 X24.691 Y64.817 E94.8346
G1 X24.881 Y64.471 E94.89776
G1 X27.903 Y59.291 E95.85729
G1 X28.108 Y58.961 E95.91945
G1 X29.969 Y56.116 E96.46339
G1 X30.194 Y55.791 E96.52663
G1 X33.744 Y50.935 E97.48907
G1 X33.983 Y50.624 E97.55183
G1 X36.128 Y47.987 E98.09571
G1 X36.366 Y47.708 E98.15438
G1 X39.935 Y43.729 E99.0096
G1 X40.224 Y43.425 E99.07671
G0 F3960 X40.789 Y43.991
G1 F1320 X44.104 Y40.682 E99.82613
G1 X44.309 Y40.486 E99.87151
G1 X46.494 Y38.48 E100.3461
G1 X46.672 Y38.322 E100.38418
G1 X49.22 Y36.142 E100.92071
G1 X49.487 Y35.925 E100.97576
G1 X54.145 Y32.331 E101.9171
G1 X54.425 Y32.127 E101.97253
G1 X57.147 Y30.24 E102.50247
G1 X57.336 Y30.113 E102.5389
G1 X59.766 Y28.546 E103.00153
G1 X60.039 Y28.379 E103.05273
G1 X64.903 Y25.558 E103.95239
G1 X65.234 Y25.378 E104.01268
G1 X69.198 Y23.363 E104.72415
G1 X69.496 Y23.221 E104.77697
G1 X73.493 Y21.428 E105.47789
G1 X73.756 Y21.316 E105.52363
G1 X76.773 Y20.112 E106.04336
G1 X77.036 Y20.013 E106.08833
G1 X81.078 Y18.591 E106.7739
G1 X81.379 Y18.494 E106.8245
G1 X85.41 Y17.283 E107.49794
G1 X85.713 Y17.199 E107.54824
G1 X89.738 Y16.19 E108.21217
G1 X89.999 Y16.13 E108.25502
G1 X92.993 Y15.504 E108.74442
G1 X93.253 Y15.455 E108.78675
G1 X97.235 Y14.783 E109.43288
G1 X97.539 Y14.739 E109.48203
G1 X101.605 Y14.24 E110.13747
G1 X101.908 Y14.209 E110.1862
G1 X106.055 Y13.888 E110.85171
G1 X106.371 Y13.871 E110.90234
G1 X110.603 Y13.741 E111.57978
G1 X110.921 Y13.739 E111.63066
G1 X115.209 Y13.808 E112.31683
G1 X115.532 Y13.821 E112.36855
G1 X119.883 Y14.098 E113.06612
G1 X120.211 Y14.127 E113.1188
G1 X124.597 Y14.62 E113.82498
G1 X124.924 Y14.664 E113.87778
G1 X129.334 Y15.378 E114.59256
G1 X129.68 Y15.444 E114.64892
G1 X134.582 Y16.501 E115.45127
G1 X134.98 Y16.599 E115.51685
G1 X140.606 Y18.172 E116.45153
G1 X140.931 Y18.272 E116.50594
G1 X144.084 Y19.326 E117.03786
G1 X144.412 Y19.445 E117.09369
G1 X149.935 Y21.612 E118.04295
G1 X150.249 Y21.745 E118.09751
G1 X153.314 Y23.129 E118.63559
G1 X153.634 Y23.283 E118.69241
G1 X158.953 Y26.027 E119.65003
G1 X159.261 Y26.196 E119.70624
G1 X162.2 Y27.91 E120.2506
G1 X162.5 Y28.096 E120.30708
G1 X167.529 Y31.39 E121.26896
G1 X167.814 Y31.587 E121.32439
G1 X170.558 Y33.591 E121.86805
G1 X170.84 Y33.808 E121.92499
G1 X175.505 Y37.605 E122.88738
G1 X175.871 Y37.926 E122.96527
G1 X180.986 Y42.737 E124.08879
G1 X181.292 Y43.044 E124.15815
G1 X184.476 Y46.447 E124.90379
G1 X184.678 Y46.672 E124.95217
G1 X186.858 Y49.22 E125.4887
G1 X187.075 Y49.487 E125.54375
G1 X190.669 Y54.145 E126.48509
G1 X190.873 Y54.424 E126.54039
G1 X192.757 Y57.141 E127.06939
G1 X192.884 Y57.331 E127.10596
G1 X194.454 Y59.766 E127.56952
G1 X194.621 Y60.039 E127.62073
G1 X197.442 Y64.903 E128.52038
G1 X197.621 Y65.233 E128.58045
G1 X199.634 Y69.192 E129.29107
G1 X199.777 Y69.491 E129.3441
G1 X201.572 Y73.493 E130.04588
G1 X201.684 Y73.756 E130.09162
G1 X202.888 Y76.773 E130.61136
G1 X202.986 Y77.035 E130.65611
G1 X204.407 Y81.072 E131.34088
G1 X204.506 Y81.374 E131.39173
G1 X205.718 Y85.41 E132.06598
G1 X205.801 Y85.712 E132.11609
G1 X206.809 Y89.732 E132.7792
G1 X206.869 Y89.994 E132.82221
G1 X207.496 Y92.993 E133.31242
G1 X207.546 Y93.258 E133.35557
G1 X208.234 Y97.353 E134.01995
G1 X208.278 Y97.66 E134.06957
G1 X208.772 Y101.725 E134.72476
G1 X208.802 Y102.03 E134.77379
G1 X209.117 Y106.178 E135.43938
G1 X209.134 Y106.492 E135.4897
G1 X209.259 Y110.721 E136.16663
G1 X209.261 Y111.039 E136.21751
G1 X209.187 Y115.332 E136.9045
G1 X209.174 Y115.656 E136.95638
G1 X208.891 Y120.01 E137.65449
G1 X208.862 Y120.337 E137.70701
G1 X208.364 Y124.72 E138.41281
G1 X208.318 Y125.048 E138.4658
G1 X207.597 Y129.462 E139.1814
G1 X207.549 Y129.723 E139.22386
G1 X207 Y132.419 E139.66407
G1 X206.939 Y132.692 E139.70883
G1 X205.85 Y137.104 E140.43594
G1 X205.76 Y137.431 E140.4902
G1 X204.441 Y141.821 E141.22362
G1 X204.322 Y142.182 E141.28444
G1 X202.393 Y147.502 E142.18987
G1 X202.249 Y147.867 E142.25265
G1 X200.412 Y152.146 E142.99771
G1 X200.247 Y152.499 E143.06006
G1 X197.581 Y157.841 E144.0153
G1 X197.414 Y158.156 E144.07235
G1 X195.741 Y161.11 E144.61553
G1 X195.561 Y161.41 E144.6715
G1 X192.331 Y166.486 E145.63415
G1 X192.107 Y166.816 E145.69796
G1 X189.353 Y170.63 E146.45066
G1 X189.169 Y170.872 E146.4993
G1 X187.057 Y173.537 E147.04337
G1 X186.832 Y173.807 E147.0996
G1 X182.87 Y178.308 E148.05902
G1 X182.599 Y178.599 E148.12265
G1 X179.302 Y181.93 E148.87253
G1 X179.049 Y182.172 E148.92854
G1 X175.612 Y185.304 E149.67254
G1 X175.388 Y185.5 E149.72017
G1 X172.819 Y187.643 E150.25544
G1 X172.548 Y187.858 E150.31079
G1 X167.847 Y191.39 E151.25159
G1 X167.564 Y191.591 E151.30713
G1 X164.837 Y193.43 E151.83339
G1 X164.573 Y193.599 E151.88355
G1 X160.074 Y196.34 E152.72646
G1 X159.757 Y196.522 E152.78494
G1 X155.821 Y198.639 E153.50002
G1 X155.524 Y198.789 E153.55325
G1 X151.545 Y200.684 E154.25841
G1 X151.246 Y200.818 E154.31083
G1 X147.225 Y202.501 E155.00827
G1 X146.96 Y202.605 E155.05382
G1 X143.934 Y203.725 E155.57008
G1 X143.671 Y203.817 E155.61466
G1 X139.633 Y205.126 E156.29384
G1 X139.333 Y205.215 E156.34391
G1 X135.308 Y206.318 E157.01165
G1 X135.008 Y206.393 E157.06113
G1 X131.001 Y207.297 E157.71836
G1 X130.741 Y207.35 E157.76082
G1 X127.758 Y207.902 E158.2462
G1 X127.492 Y207.946 E158.28934
G1 X123.472 Y208.526 E158.9392
G1 X123.171 Y208.563 E158.98772
G1 X119.06 Y208.97 E159.6487
G1 X118.748 Y208.994 E159.69876
G1 X114.556 Y209.215 E160.37041
G1 X114.241 Y209.224 E160.42084
G1 X109.981 Y209.251 E161.10245
G1 X109.658 Y209.245 E161.15414
G1 X105.334 Y209.067 E161.84656
G1 X105.01 Y209.046 E161.89851
G1 X100.636 Y208.656 E162.60113
G1 X100.309 Y208.619 E162.65378
G1 X95.91 Y208.011 E163.36431
G1 X95.501 Y207.942 E163.43068
G1 X88.996 Y206.635 E164.49228
G1 X88.589 Y206.54 E164.55915
G1 X84.183 Y205.369 E165.28858
G1 X83.912 Y205.291 E165.3337
G1 X81.112 Y204.421 E165.80283
G1 X80.811 Y204.319 E165.85368
G1 X75.496 Y202.391 E166.7583
G1 X75.092 Y202.23 E166.82789
G1 X69.646 Y199.85 E167.77882
G1 X69.328 Y199.701 E167.83501
G1 X66.296 Y198.185 E168.37739
G1 X65.988 Y198.021 E168.43322
G1 X60.768 Y195.067 E169.39288
G1 X60.468 Y194.887 E169.44886
G1 X57.597 Y193.061 E169.99326
G1 X57.303 Y192.863 E170.04997
G1 X52.403 Y189.376 E171.01222
G1 X52.123 Y189.165 E171.06832
G1 X49.463 Y187.057 E171.61136
G1 X49.231 Y186.865 E171.65954
G1 X45.676 Y183.782 E172.41244
G1 X45.38 Y183.51 E172.47676
G1 X41.103 Y179.334 E173.43318
G1 X40.86 Y179.084 E173.48896
G1 X38.579 Y176.616 E174.02666
G1 X38.351 Y176.357 E174.08187
G1 X34.558 Y171.81 E175.02928
G1 X34.343 Y171.538 E175.08476
G1 X32.347 Y168.881 E175.61647
G1 X32.149 Y168.603 E175.67108
G1 X28.888 Y163.775 E176.60326
G1 X28.668 Y163.427 E176.66913
G1 X26.061 Y159.013 E177.48935
G1 X25.908 Y158.739 E177.53957
G1 X24.342 Y155.784 E178.07465
G1 X24.228 Y155.56 E178.11487
G1 X22.785 Y152.576 E178.6452
G1 X22.666 Y152.317 E178.69081
G1 X20.931 Y148.308 E179.38974
G1 X20.825 Y148.048 E179.43467
G1 X19.706 Y145.138 E179.9335
G1 X19.613 Y144.88 E179.97738
G1 X18.243 Y140.838 E180.66024
G1 X18.148 Y140.535 E180.71105
G1 X16.988 Y136.502 E181.38249
G1 X16.909 Y136.201 E181.43228
G1 X15.951 Y132.188 E182.0924
G1 X15.894 Y131.926 E182.1353
G1 X15.303 Y128.933 E182.62343
G1 X15.256 Y128.671 E182.66602
G1 X14.629 Y124.677 E183.31289
G1 X14.589 Y124.377 E183.36131
G1 X14.133 Y120.297 E184.01817
G1 X14.105 Y119.986 E184.06814
G1 X13.832 Y115.81 E184.73772
G1 X13.819 Y115.497 E184.78785
G1 X13.737 Y111.257 E185.46637
G1 X13.739 Y110.937 E185.51757
G1 X13.859 Y106.623 E186.20808
G1 X13.875 Y106.298 E186.26014
G1 X14.205 Y101.945 E186.95862
G1 X14.238 Y101.62 E187.01089
G1 X14.784 Y97.228 E187.71902
G1 X14.838 Y96.873 E187.77647
G1 X15.734 Y91.849 E188.593
G1 X15.806 Y91.498 E188.65032
G1 X16.836 Y87.083 E189.37569
G1 X16.908 Y86.801 E189.42226
G1 X17.795 Y83.621 E189.95048
G1 X17.897 Y83.29 E190.0059
G1 X19.765 Y77.709 E190.94755
G1 X19.881 Y77.388 E191.00216
G1 X21.103 Y74.267 E191.53844
G1 X21.239 Y73.944 E191.59451
G1 X23.695 Y68.514 E192.54805
G1 X23.847 Y68.199 E192.60401
G1 X25.402 Y65.184 E193.14679
G1 X25.572 Y64.874 E193.20336
G1 X28.594 Y59.694 E194.16289
G1 X28.777 Y59.399 E194.21843
G1 X30.638 Y56.554 E194.76237
G1 X30.839 Y56.263 E194.81896
G1 X34.389 Y51.407 E195.7814
G1 X34.604 Y51.129 E195.83763
G1 X36.749 Y48.492 E196.3815
G1 X36.962 Y48.243 E196.43393
G1 X40.531 Y44.264 E197.28915
G1 X40.789 Y43.991 E197.34925
G0 F3960 X41.354 Y44.558
