;FLAVOR:UltiGCode
;TIME:6962
;MATERIAL:24311
;MATERIAL2:0
;NOZZLE_DIAMETER:0.4
;Generated with Cura_SteamEngine 2.4.0

;LAYER_COUNT:331
;LAYER:0
M107
G10
G0 F3960 X79.232 Y91.473 Z0.2
;TYPE:SKIRT
G11
G1 F1320 X79.777 Y91.073 E0.10817
G1 X80.116 Y90.847 E0.17335
G1 X80.786 Y90.449 E0.29804
G1 X81.493 Y90.121 E0.42274
G1 X82.23 Y89.867 E0.54747
G1 X82.923 Y89.703 E0.66141
G1 X83.294 Y89.633 E0.72182
G1 X84.066 Y89.528 E0.84648
G1 X84.703 Y89.501 E0.94849
G1 X138.804 Y89.501 E9.60465
G1 X139.582 Y89.541 E9.72929
G1 X140.353 Y89.66 E9.85411
G1 X141.107 Y89.858 E9.97884
G1 X141.836 Y90.132 E10.10345
G1 X142.534 Y90.479 E10.22817
G1 X143.193 Y90.896 E10.35295
G1 X143.805 Y91.379 E10.47769
G1 X144.365 Y91.921 E10.60238
G1 X144.867 Y92.518 E10.72718
G1 X145.304 Y93.163 E10.85184
G1 X145.673 Y93.849 E10.97647
G1 X145.97 Y94.57 E11.10123
G1 X146.192 Y95.318 E11.22607
G1 X146.336 Y96.084 E11.35078
G1 X146.404 Y97.102 E11.51402
G1 X146.402 Y124.929 E15.96634
G1 X146.362 Y125.707 E16.09099
G1 X146.206 Y126.643 E16.24281
G1 X146.118 Y127.023 E16.30522
G1 X145.903 Y127.772 E16.4299
G1 X145.613 Y128.495 E16.55454
G1 X145.251 Y129.185 E16.67921
G1 X144.929 Y129.682 E16.77396
G1 X144.708 Y129.996 E16.8354
G1 X144.227 Y130.61 E16.96019
G1 X143.686 Y131.171 E17.08489
G1 X143.09 Y131.674 E17.20967
G1 X142.577 Y132.031 E17.30967
G1 X142.249 Y132.24 E17.3719
G1 X141.571 Y132.625 E17.49665
G1 X140.857 Y132.938 E17.62139
G1 X140.115 Y133.177 E17.74611
G1 X139.595 Y133.295 E17.83143
G1 X139.24 Y133.363 E17.88926
G1 X138.468 Y133.47 E18.01396
G1 X137.81 Y133.499 E18.11934
G1 X84.703 Y133.499 E26.61646
G1 X83.925 Y133.459 E26.74111
G1 X83.282 Y133.365 E26.84508
G1 X82.909 Y133.294 E26.90583
G1 X82.152 Y133.109 E27.03052
G1 X81.417 Y132.848 E27.15531
G1 X80.714 Y132.512 E27.27998
G1 X80.127 Y132.16 E27.38949
G1 X79.794 Y131.939 E27.45344
G1 X79.168 Y131.476 E27.57802
G1 X78.592 Y130.95 E27.70282
G1 X78.073 Y130.368 E27.82759
G1 X77.673 Y129.823 E27.93575
G1 X77.447 Y129.484 E28.00094
G1 X77.049 Y128.814 E28.12563
G1 X76.721 Y128.107 E28.25033
G1 X76.467 Y127.37 E28.37506
G1 X76.303 Y126.677 E28.489
G1 X76.233 Y126.306 E28.54941
G1 X76.128 Y125.534 E28.67407
G1 X76.101 Y124.897 E28.77608
G1 X76.101 Y98.103 E33.06312
G1 X76.141 Y97.325 E33.18776
G1 X76.235 Y96.682 E33.29173
G1 X76.306 Y96.309 E33.35249
G1 X76.491 Y95.552 E33.47717
G1 X76.752 Y94.817 E33.60197
G1 X77.088 Y94.114 E33.72663
G1 X77.44 Y93.527 E33.83614
G1 X77.661 Y93.194 E33.90009
G1 X78.124 Y92.568 E34.02467
G1 X78.65 Y91.992 E34.14947
G1 X79.232 Y91.473 E34.27424
G0 F3960 X80.221 Y91.739
G1 F1320 X80.56 Y91.513 E34.33943
G1 X81.195 Y91.138 E34.45742
G1 X81.866 Y90.834 E34.57529
G1 X82.567 Y90.604 E34.69333
G1 X83.071 Y90.489 E34.77604
G1 X83.442 Y90.419 E34.83645
G1 X84.173 Y90.322 E34.95444
G1 X84.703 Y90.301 E35.0393
G1 X138.804 Y90.301 E43.69546
G1 X139.54 Y90.341 E43.8134
G1 X140.268 Y90.46 E43.93142
G1 X140.978 Y90.658 E44.04936
G1 X141.663 Y90.931 E44.16734
G1 X142.314 Y91.277 E44.2853
G1 X142.924 Y91.691 E44.40325
G1 X143.485 Y92.169 E44.52118
G1 X143.992 Y92.705 E44.63923
G1 X144.437 Y93.292 E44.75708
G1 X144.817 Y93.925 E44.87521
G1 X145.125 Y94.594 E44.99305
G1 X145.359 Y95.293 E45.11099
G1 X145.517 Y96.014 E45.22909
G1 X145.604 Y97.101 E45.40357
G1 X145.602 Y124.928 E49.85589
G1 X145.562 Y125.665 E49.97398
G1 X145.427 Y126.462 E50.10332
G1 X145.339 Y126.842 E50.16572
G1 X145.134 Y127.55 E50.28366
G1 X144.853 Y128.232 E50.40168
G1 X144.5 Y128.88 E50.51974
G1 X144.275 Y129.222 E50.58524
G1 X144.054 Y129.536 E50.64668
G1 X143.597 Y130.115 E50.7647
G1 X143.081 Y130.641 E50.88259
G1 X142.511 Y131.108 E51.00049
G1 X142.147 Y131.357 E51.07106
G1 X141.819 Y131.566 E51.13328
G1 X141.177 Y131.928 E51.25121
G1 X140.499 Y132.218 E51.3692
G1 X139.444 Y132.51 E51.54434
G1 X139.089 Y132.578 E51.60217
G1 X138.359 Y132.677 E51.72004
G1 X137.81 Y132.699 E51.80795
G1 X84.703 Y132.699 E60.30507
G1 X83.967 Y132.659 E60.42301
G1 X83.431 Y132.579 E60.50972
G1 X83.058 Y132.508 E60.57047
G1 X82.343 Y132.331 E60.68832
G1 X81.65 Y132.078 E60.80636
G1 X80.989 Y131.751 E60.92435
G1 X80.57 Y131.494 E61.003
G1 X80.237 Y131.273 E61.06695
G1 X79.646 Y130.832 E61.18493
G1 X79.105 Y130.331 E61.30291
G1 X78.623 Y129.773 E61.42088
G1 X78.339 Y129.379 E61.49859
G1 X78.113 Y129.04 E61.56378
G1 X77.738 Y128.405 E61.68178
G1 X77.434 Y127.734 E61.79964
G1 X77.204 Y127.033 E61.91768
G1 X77.089 Y126.529 E62.0004
G1 X77.019 Y126.158 E62.0608
G1 X76.922 Y125.427 E62.17879
G1 X76.901 Y124.897 E62.26365
G1 X76.901 Y98.103 E66.55069
G1 X76.941 Y97.367 E66.66863
G1 X77.021 Y96.831 E66.75534
G1 X77.092 Y96.458 E66.81609
G1 X77.269 Y95.743 E66.93394
G1 X77.522 Y95.05 E67.05198
G1 X77.849 Y94.389 E67.16998
G1 X78.106 Y93.97 E67.24862
G1 X78.327 Y93.637 E67.31257
G1 X78.768 Y93.046 E67.43055
G1 X79.269 Y92.505 E67.54853
G1 X79.827 Y92.023 E67.6665
G1 X80.221 Y91.739 E67.74421
G0 F3960 X81.004 Y92.179
G1 F1320 X81.601 Y91.828 E67.85502
G1 X82.235 Y91.549 E67.96585
G1 X83.22 Y91.275 E68.12943
G1 X83.591 Y91.205 E68.18984
G1 X84.277 Y91.116 E68.30052
G1 X84.703 Y91.101 E68.36872
G1 X138.804 Y91.101 E77.02488
G1 X139.495 Y91.141 E77.13563
G1 X140.178 Y91.26 E77.24655
G1 X140.841 Y91.458 E77.35726
G1 X141.478 Y91.73 E77.46808
G1 X142.079 Y92.074 E77.57888
G1 X142.637 Y92.485 E77.68977
G1 X143.143 Y92.957 E77.80048
G1 X143.592 Y93.485 E77.91138
G1 X143.977 Y94.06 E78.0221
G1 X144.292 Y94.677 E78.13294
G1 X144.535 Y95.325 E78.24367
G1 X144.702 Y95.998 E78.35461
G1 X144.79 Y96.684 E78.46527
G1 X144.804 Y97.101 E78.53203
G1 X144.802 Y124.928 E82.98435
G1 X144.762 Y125.62 E83.09525
G1 X144.647 Y126.282 E83.20276
G1 X144.559 Y126.662 E83.26517
G1 X144.364 Y127.326 E83.3759
G1 X144.094 Y127.964 E83.48674
G1 X143.621 Y128.761 E83.63503
G1 X143.4 Y129.075 E83.69646
G1 X142.969 Y129.618 E83.80739
G1 X142.479 Y130.107 E83.91815
G1 X141.717 Y130.682 E84.07088
G1 X141.389 Y130.891 E84.13311
G1 X140.785 Y131.229 E84.24385
G1 X140.145 Y131.495 E84.35475
G1 X139.294 Y131.724 E84.49575
G1 X138.939 Y131.792 E84.55358
G1 X138.252 Y131.883 E84.66446
G1 X137.81 Y131.899 E84.73523
G1 X84.703 Y131.899 E93.23235
G1 X84.012 Y131.859 E93.34309
G1 X83.581 Y131.793 E93.41286
G1 X83.208 Y131.722 E93.47361
G1 X82.536 Y131.554 E93.58444
G1 X81.889 Y131.309 E93.69513
G1 X81.012 Y130.827 E93.85525
G1 X80.679 Y130.606 E93.91919
G1 X80.125 Y130.191 E94.02995
G1 X79.623 Y129.714 E94.14074
G1 X79.005 Y128.935 E94.29984
G1 X78.779 Y128.596 E94.36503
G1 X78.428 Y127.999 E94.47584
G1 X78.149 Y127.365 E94.58666
G1 X77.875 Y126.38 E94.75025
G1 X77.805 Y126.009 E94.81066
G1 X77.716 Y125.323 E94.92134
G1 X77.701 Y124.897 E94.98954
G1 X77.701 Y98.103 E99.27658
G1 X77.741 Y97.412 E99.38732
G1 X77.807 Y96.981 E99.45709
G1 X77.878 Y96.608 E99.51784
G1 X78.046 Y95.936 E99.62867
G1 X78.291 Y95.289 E99.73936
G1 X78.773 Y94.412 E99.89948
G1 X78.994 Y94.079 E99.96342
G1 X79.409 Y93.525 E100.07418
G1 X79.886 Y93.023 E100.18497
G1 X80.665 Y92.405 E100.34407
G1 X81.004 Y92.179 E100.40926
G0 F3960 X81.448 Y92.844
G1 F1320 X82.005 Y92.521 E100.51228
G1 X82.598 Y92.268 E100.61543
G1 X83.368 Y92.061 E100.74301
G1 X83.739 Y91.991 E100.80342
G1 X84.379 Y91.911 E100.90661
G1 X84.703 Y91.901 E100.95848
G1 X138.804 Y91.901 E109.61464
G1 X139.447 Y91.941 E109.71772
G1 X140.081 Y92.06 E109.82093
G1 X140.695 Y92.257 E109.9241
G1 X141.28 Y92.528 E110.02726
G1 X141.827 Y92.87 E110.13047
G1 X142.327 Y93.276 E110.23353
G1 X142.773 Y93.741 E110.33662
G1 X143.158 Y94.258 E110.43975
G1 X143.477 Y94.819 E110.54301
G1 X143.723 Y95.415 E110.64617
G1 X143.894 Y96.036 E110.74923
G1 X143.986 Y96.674 E110.85237
G1 X144.004 Y97.101 E110.92075
G1 X144.002 Y124.928 E115.37307
G1 X143.962 Y125.572 E115.47631
G1 X143.868 Y126.101 E115.56227
G1 X143.78 Y126.481 E115.62468
G1 X143.596 Y127.099 E115.72785
G1 X143.337 Y127.689 E115.83095
G1 X142.966 Y128.301 E115.94545
G1 X142.745 Y128.615 E116.00689
G1 X142.342 Y129.118 E116.11002
G1 X141.88 Y129.568 E116.21321
G1 X141.287 Y130.007 E116.33126
G1 X140.959 Y130.216 E116.39348
G1 X140.395 Y130.528 E116.49661
G1 X139.797 Y130.768 E116.59971
G1 X139.143 Y130.938 E116.70783
G1 X138.788 Y131.006 E116.76566
G1 X138.149 Y131.088 E116.86874
G1 X137.81 Y131.099 E116.92301
G1 X84.703 Y131.099 E125.42013
G1 X84.06 Y131.059 E125.52321
G1 X83.731 Y131.007 E125.5765
G1 X83.358 Y130.936 E125.63725
G1 X82.733 Y130.777 E125.74044
G1 X82.133 Y130.541 E125.84359
G1 X81.455 Y130.161 E125.96795
G1 X81.122 Y129.94 E126.0319
G1 X80.608 Y129.551 E126.13503
G1 X80.146 Y129.101 E126.23822
G1 X79.67 Y128.491 E126.36202
G1 X79.444 Y128.152 E126.42721
G1 X79.121 Y127.595 E126.53023
G1 X78.868 Y127.002 E126.63339
G1 X78.661 Y126.232 E126.76096
G1 X78.591 Y125.861 E126.82137
G1 X78.511 Y125.221 E126.92456
G1 X78.501 Y124.897 E126.97643
G1 X78.501 Y98.103 E131.26347
G1 X78.541 Y97.46 E131.36655
G1 X78.593 Y97.131 E131.41984
G1 X78.664 Y96.758 E131.48059
G1 X78.823 Y96.133 E131.58378
G1 X79.059 Y95.533 E131.68694
G1 X79.439 Y94.855 E131.81129
G1 X79.66 Y94.522 E131.87524
G1 X80.049 Y94.008 E131.97838
G1 X80.499 Y93.546 E132.08157
G1 X81.109 Y93.07 E132.20537
G1 X81.448 Y92.844 E132.27055
G0 F3960 X81.891 Y93.51
G1 F1320 X82.406 Y93.215 E132.36552
G1 X82.955 Y92.992 E132.46033
G1 X83.516 Y92.847 E132.55303
G1 X83.887 Y92.777 E132.61344
G1 X84.703 Y92.701 E132.74457
G1 X138.804 Y92.701 E141.40073
G1 X139.396 Y92.741 E141.49566
G1 X139.976 Y92.86 E141.5904
G1 X140.536 Y93.056 E141.68533
G1 X141.064 Y93.326 E141.78021
G1 X141.551 Y93.664 E141.87506
G1 X141.988 Y94.065 E141.96996
G1 X142.368 Y94.52 E142.0648
G1 X142.682 Y95.023 E142.15968
G1 X142.927 Y95.563 E142.25456
G1 X143.096 Y96.132 E142.34953
G1 X143.187 Y96.717 E142.44425
G1 X143.204 Y97.101 E142.50575
G1 X143.202 Y124.928 E146.95807
G1 X143.162 Y125.52 E147.05301
G1 X143.089 Y125.921 E147.11822
G1 X143.001 Y126.301 E147.18063
G1 X142.828 Y126.868 E147.27548
G1 X142.581 Y127.407 E147.37034
G1 X142.312 Y127.84 E147.45191
G1 X142.091 Y128.154 E147.51334
G1 X141.718 Y128.615 E147.60822
G1 X141.286 Y129.022 E147.70319
G1 X140.857 Y129.333 E147.78796
G1 X140.529 Y129.542 E147.85019
G1 X140.009 Y129.826 E147.94499
G1 X139.455 Y130.038 E148.0399
G1 X138.993 Y130.152 E148.11604
G1 X138.638 Y130.22 E148.17387
G1 X137.81 Y130.299 E148.30695
G1 X84.703 Y130.299 E156.80407
G1 X83.88 Y130.221 E156.93634
G1 X83.507 Y130.15 E156.99709
G1 X82.934 Y130.001 E157.09182
G1 X82.385 Y129.775 E157.18682
G1 X81.897 Y129.494 E157.27691
G1 X81.564 Y129.273 E157.34086
G1 X81.093 Y128.913 E157.43571
G1 X80.675 Y128.492 E157.53064
G1 X80.336 Y128.048 E157.62001
G1 X80.11 Y127.709 E157.6852
G1 X79.815 Y127.194 E157.78016
G1 X79.592 Y126.645 E157.87497
G1 X79.447 Y126.084 E157.96768
G1 X79.377 Y125.713 E158.02809
G1 X79.301 Y124.897 E158.15922
G1 X79.301 Y98.103 E162.44626
G1 X79.379 Y97.28 E162.57853
G1 X79.45 Y96.907 E162.63928
G1 X79.599 Y96.334 E162.73401
G1 X79.825 Y95.785 E162.829
G1 X80.106 Y95.297 E162.9191
G1 X80.327 Y94.964 E162.98304
G1 X80.687 Y94.493 E163.0779
G1 X81.108 Y94.075 E163.17282
G1 X81.552 Y93.736 E163.2622
G1 X81.891 Y93.51 E163.32739
G0 F3960 X81.996 Y94.402
G1 F1320 X82.335 Y94.176 E163.39257
G1 X82.802 Y93.912 E163.47841
G1 X83.303 Y93.721 E163.56419
G1 X83.665 Y93.633 E163.6238
G1 X84.036 Y93.563 E163.68421
G1 X84.703 Y93.501 E163.79139
G1 X138.804 Y93.501 E172.44755
G1 X139.339 Y93.541 E172.53339
G1 X139.862 Y93.66 E172.61921
G1 X140.361 Y93.855 E172.70493
G1 X140.826 Y94.123 E172.7908
G1 X141.246 Y94.456 E172.87656
G1 X141.612 Y94.848 E172.96237
G1 X141.915 Y95.29 E173.04811
G1 X142.15 Y95.773 E173.13405
G1 X142.31 Y96.284 E173.21972
G1 X142.393 Y96.814 E173.30556
G1 X142.404 Y97.101 E173.35151
G1 X142.402 Y124.928 E177.80383
G1 X142.362 Y125.463 E177.88967
G1 X142.309 Y125.74 E177.93479
G1 X142.221 Y126.12 E177.9972
G1 X142.062 Y126.632 E178.08298
G1 X141.828 Y127.115 E178.16885
G1 X141.658 Y127.38 E178.21923
G1 X141.437 Y127.694 E178.28066
G1 X141.096 Y128.108 E178.36648
G1 X140.698 Y128.468 E178.45235
G1 X140.428 Y128.658 E178.50517
G1 X140.1 Y128.867 E178.5674
G1 X139.627 Y129.121 E178.6533
G1 X139.122 Y129.301 E178.73908
G1 X138.842 Y129.367 E178.78511
G1 X138.487 Y129.435 E178.84294
G1 X137.81 Y129.499 E178.95174
G1 X84.703 Y129.499 E187.44886
G1 X84.03 Y129.436 E187.55701
G1 X83.657 Y129.365 E187.61777
G1 X83.139 Y129.225 E187.70362
G1 X82.647 Y129.011 E187.78946
G1 X82.339 Y128.828 E187.84679
G1 X82.006 Y128.607 E187.91073
G1 X81.583 Y128.278 E187.99647
G1 X81.213 Y127.889 E188.08237
G1 X81.002 Y127.604 E188.13911
G1 X80.776 Y127.265 E188.2043
G1 X80.512 Y126.798 E188.29013
G1 X80.321 Y126.297 E188.37592
G1 X80.233 Y125.935 E188.43552
G1 X80.163 Y125.564 E188.49593
G1 X80.101 Y124.897 E188.60311
G1 X80.101 Y98.103 E192.89015
G1 X80.164 Y97.43 E192.9983
G1 X80.235 Y97.057 E193.05905
G1 X80.375 Y96.539 E193.14491
G1 X80.589 Y96.047 E193.23075
G1 X80.772 Y95.739 E193.28807
G1 X80.993 Y95.406 E193.35202
G1 X81.322 Y94.983 E193.43776
G1 X81.711 Y94.613 E193.52366
G1 X81.996 Y94.402 E193.5804
G0 F3960 X82.779 Y94.841
G1 F1320 X83.193 Y94.613 E193.65602
G1 X83.813 Y94.42 E193.75991
G1 X84.184 Y94.35 E193.82032
G1 X84.703 Y94.301 E193.90373
G1 X138.804 Y94.301 E202.55989
G1 X139.275 Y94.341 E202.63552
G1 X139.733 Y94.46 E202.71123
G1 X140.164 Y94.654 E202.78686
G1 X140.557 Y94.917 E202.86252
G1 X140.899 Y95.243 E202.93812
G1 X141.182 Y95.622 E203.0138
G1 X141.397 Y96.044 E203.08957
G1 X141.538 Y96.495 E203.16518
G1 X141.604 Y97.101 E203.26271
G1 X141.602 Y124.928 E207.71503
G1 X141.53 Y125.56 E207.81681
G1 X141.442 Y125.94 E207.87921
G1 X141.297 Y126.39 E207.95486
G1 X141.004 Y126.92 E208.05176
G1 X140.783 Y127.234 E208.11319
G1 X140.479 Y127.596 E208.18883
G1 X139.998 Y127.983 E208.2876
G1 X139.67 Y128.192 E208.34983
G1 X139.251 Y128.412 E208.42555
G1 X138.692 Y128.581 E208.51899
G1 X138.337 Y128.649 E208.57682
G1 X137.81 Y128.699 E208.66152
G1 X84.703 Y128.699 E217.15864
G1 X84.179 Y128.65 E217.24285
G1 X83.806 Y128.579 E217.3036
G1 X83.351 Y128.451 E217.37922
G1 X82.782 Y128.161 E217.48141
G1 X82.449 Y127.94 E217.54535
G1 X82.078 Y127.646 E217.62109
G1 X81.667 Y127.16 E217.72293
G1 X81.441 Y126.821 E217.78812
G1 X81.213 Y126.407 E217.86374
G1 X81.02 Y125.787 E217.96763
G1 X80.95 Y125.416 E218.02804
G1 X80.901 Y124.897 E218.11145
G1 X80.901 Y98.103 E222.39849
G1 X80.95 Y97.579 E222.4827
G1 X81.021 Y97.206 E222.54345
G1 X81.149 Y96.751 E222.61907
G1 X81.439 Y96.182 E222.72126
G1 X81.66 Y95.849 E222.7852
G1 X81.954 Y95.478 E222.86094
G1 X82.44 Y95.067 E222.96278
G1 X82.779 Y94.841 E223.02797
G0 F3960 X83.223 Y95.507
G1 F1320 X83.575 Y95.32 E223.09174
G1 X83.961 Y95.206 E223.15614
G1 X84.332 Y95.136 E223.21655
G1 X84.703 Y95.101 E223.27617
G1 X138.804 Y95.101 E231.93233
G1 X139.202 Y95.141 E231.99633
G1 X139.583 Y95.259 E232.06015
G1 X139.934 Y95.451 E232.12416
G1 X140.239 Y95.708 E232.18797
G1 X140.487 Y96.021 E232.25187
G1 X140.668 Y96.377 E232.31577
G1 X140.775 Y96.762 E232.3797
G1 X140.804 Y97.101 E232.43414
G1 X140.802 Y124.928 E236.88646
G1 X140.75 Y125.379 E236.9591
G1 X140.662 Y125.759 E237.02151
G1 X140.534 Y126.137 E237.08536
G1 X140.35 Y126.459 E237.1447
G1 X140.129 Y126.773 E237.20614
G1 X139.867 Y127.075 E237.27011
G1 X139.568 Y127.309 E237.33085
G1 X139.24 Y127.518 E237.39308
G1 X138.883 Y127.698 E237.45705
G1 X138.541 Y127.795 E237.51393
G1 X138.186 Y127.863 E237.57176
G1 X137.81 Y127.899 E237.6322
G1 X84.703 Y127.899 E246.12932
G1 X84.329 Y127.864 E246.18942
G1 X83.956 Y127.793 E246.25017
G1 X83.573 Y127.679 E246.31411
G1 X83.224 Y127.494 E246.37731
G1 X82.891 Y127.273 E246.44125
G1 X82.582 Y127.02 E246.50515
G1 X82.333 Y126.716 E246.56803
G1 X82.107 Y126.377 E246.63321
G1 X81.92 Y126.025 E246.69699
G1 X81.806 Y125.639 E246.76139
G1 X81.736 Y125.268 E246.82179
G1 X81.701 Y124.897 E246.88142
G1 X81.701 Y98.103 E251.16846
G1 X81.736 Y97.729 E251.22856
G1 X81.807 Y97.356 E251.28931
G1 X81.921 Y96.973 E251.35325
G1 X82.106 Y96.624 E251.41645
G1 X82.327 Y96.291 E251.48039
G1 X82.58 Y95.982 E251.54429
G1 X82.884 Y95.733 E251.60716
G1 X83.223 Y95.507 E251.67235
G0 F3960 X83.327 Y96.399
