;FLAVOR:UltiGCode
;TIME:5128
;MATERIAL:17346
;MATERIAL2:0
;NOZZLE_DIAMETER:0.4
;Generated with Cura_SteamEngine 2.4.0

;LAYER_COUNT:215
;LAYER:0
M107
G10
G0 F3960 X99.271 Y76.021 Z0.2
;TYPE:SKIRT
G11
G1 F1320 X99.754 Y75.409 E0.12474
G1 X100.296 Y74.849 E0.24944
G1 X100.893 Y74.347 E0.37424
G1 X101.538 Y73.91 E0.49889
G1 X102.224 Y73.541 E0.62352
G1 X102.945 Y73.244 E0.74829
G1 X103.693 Y73.022 E0.87313
G1 X104.459 Y72.878 E0.99783
G1 X105.476 Y72.81 E1.16092
G1 X125.675 Y72.81 E4.39276
G1 X126.453 Y72.85 E4.5174
G1 X127.224 Y72.969 E4.64222
G1 X127.978 Y73.167 E4.76695
G1 X128.707 Y73.441 E4.89156
G1 X129.405 Y73.788 E5.01628
G1 X130.064 Y74.205 E5.14106
G1 X130.676 Y74.688 E5.2658
G1 X131.236 Y75.23 E5.39049
G1 X131.738 Y75.827 E5.51529
G1 X132.175 Y76.472 E5.63995
G1 X132.544 Y77.158 E5.76458
G1 X132.841 Y77.879 E5.88934
G1 X133.063 Y78.627 E6.01418
G1 X133.207 Y79.393 E6.13889
G1 X133.275 Y80.41 E6.30197
G1 X133.275 Y125.609 E13.53381
G1 X133.235 Y126.387 E13.65846
G1 X133.116 Y127.158 E13.78328
G1 X132.918 Y127.912 E13.90801
G1 X132.644 Y128.641 E14.03262
G1 X132.297 Y129.339 E14.15734
G1 X131.88 Y129.998 E14.28211
G1 X131.397 Y130.61 E14.40685
G1 X130.855 Y131.17 E14.53155
G1 X130.258 Y131.672 E14.65635
G1 X129.613 Y132.109 E14.781
G1 X128.927 Y132.478 E14.90564
G1 X128.206 Y132.775 E15.0304
G1 X127.458 Y132.997 E15.15524
G1 X126.692 Y133.141 E15.27995
G1 X125.675 Y133.209 E15.44303
G1 X105.476 Y133.209 E18.67487
G1 X104.698 Y133.169 E18.79951
G1 X103.927 Y133.05 E18.92433
G1 X103.173 Y132.852 E19.04906
G1 X102.444 Y132.578 E19.17367
G1 X101.746 Y132.231 E19.29839
G1 X101.087 Y131.814 E19.42317
G1 X100.475 Y131.331 E19.54791
G1 X99.915 Y130.789 E19.6726
G1 X99.413 Y130.192 E19.7974
G1 X98.976 Y129.547 E19.92206
G1 X98.607 Y128.861 E20.04669
G1 X98.31 Y128.14 E20.17146
G1 X98.088 Y127.392 E20.2963
G1 X97.944 Y126.626 E20.421
G1 X97.876 Y125.609 E20.58409
G1 X97.876 Y80.41 E27.81593
G1 X97.916 Y79.632 E27.94057
G1 X98.035 Y78.861 E28.06539
G1 X98.233 Y78.107 E28.19012
G1 X98.507 Y77.378 E28.31473
G1 X98.854 Y76.68 E28.43945
G1 X99.271 Y76.021 E28.56422
G0 F3960 X100.066 Y76.29
G1 F1320 X100.544 Y75.729 E28.68215
G1 X101.08 Y75.222 E28.80019
G1 X101.667 Y74.777 E28.91805
G1 X102.3 Y74.397 E29.03618
G1 X102.969 Y74.089 E29.15402
G1 X103.668 Y73.855 E29.27196
G1 X104.389 Y73.697 E29.39006
G1 X105.476 Y73.61 E29.56453
G1 X125.675 Y73.61 E32.79637
G1 X126.411 Y73.65 E32.91431
G1 X127.139 Y73.769 E33.03233
G1 X127.849 Y73.967 E33.15027
G1 X128.534 Y74.24 E33.26825
G1 X129.185 Y74.586 E33.38621
G1 X129.795 Y75 E33.50416
G1 X130.356 Y75.478 E33.62209
G1 X130.863 Y76.014 E33.74014
G1 X131.308 Y76.601 E33.85799
G1 X131.688 Y77.234 E33.97612
G1 X131.996 Y77.903 E34.09396
G1 X132.23 Y78.602 E34.2119
G1 X132.388 Y79.323 E34.33
G1 X132.475 Y80.41 E34.50448
G1 X132.475 Y125.609 E41.73632
G1 X132.435 Y126.345 E41.85425
G1 X132.316 Y127.073 E41.97227
G1 X132.118 Y127.783 E42.09021
G1 X131.845 Y128.468 E42.20819
G1 X131.499 Y129.119 E42.32615
G1 X131.085 Y129.729 E42.44411
G1 X130.607 Y130.29 E42.56203
G1 X130.071 Y130.797 E42.68008
G1 X129.484 Y131.242 E42.79794
G1 X128.851 Y131.622 E42.91606
G1 X128.182 Y131.93 E43.0339
G1 X127.483 Y132.164 E43.15184
G1 X126.762 Y132.322 E43.26994
G1 X125.675 Y132.409 E43.44442
G1 X105.476 Y132.409 E46.67626
G1 X104.74 Y132.369 E46.79419
G1 X104.012 Y132.25 E46.91222
G1 X103.302 Y132.052 E47.03015
G1 X102.617 Y131.779 E47.14813
G1 X101.966 Y131.433 E47.26609
G1 X101.356 Y131.019 E47.38405
G1 X100.795 Y130.541 E47.50197
G1 X100.288 Y130.005 E47.62002
G1 X99.843 Y129.418 E47.73788
G1 X99.463 Y128.785 E47.85601
G1 X99.155 Y128.116 E47.97384
G1 X98.921 Y127.417 E48.09178
G1 X98.763 Y126.696 E48.20988
G1 X98.676 Y125.609 E48.38436
G1 X98.676 Y80.41 E55.6162
G1 X98.716 Y79.674 E55.73413
G1 X98.835 Y78.946 E55.85216
G1 X99.033 Y78.236 E55.97009
G1 X99.306 Y77.551 E56.08808
G1 X99.652 Y76.9 E56.20603
G1 X100.066 Y76.29 E56.32399
G0 F3960 X100.86 Y76.577
G1 F1320 X101.332 Y76.071 E56.4347
G1 X101.86 Y75.622 E56.5456
G1 X102.435 Y75.237 E56.65632
G1 X103.052 Y74.922 E56.76716
G1 X103.7 Y74.679 E56.87789
G1 X104.373 Y74.512 E56.98884
G1 X105.059 Y74.424 E57.0995
G1 X105.476 Y74.41 E57.16625
G1 X125.675 Y74.41 E60.39809
G1 X126.366 Y74.45 E60.50884
G1 X127.049 Y74.569 E60.61976
G1 X127.712 Y74.767 E60.73047
G1 X128.349 Y75.039 E60.8413
G1 X128.95 Y75.383 E60.95209
G1 X129.508 Y75.794 E61.06298
G1 X130.014 Y76.266 E61.17369
G1 X130.463 Y76.794 E61.28459
G1 X130.848 Y77.369 E61.39531
G1 X131.163 Y77.986 E61.50615
G1 X131.406 Y78.634 E61.61688
G1 X131.573 Y79.307 E61.72782
G1 X131.661 Y79.993 E61.83848
G1 X131.675 Y80.41 E61.90524
G1 X131.675 Y125.609 E69.13708
G1 X131.635 Y126.3 E69.24783
G1 X131.516 Y126.983 E69.35875
G1 X131.318 Y127.646 E69.46946
G1 X131.046 Y128.283 E69.58029
G1 X130.702 Y128.884 E69.69108
G1 X130.291 Y129.442 E69.80197
G1 X129.819 Y129.948 E69.91268
G1 X129.291 Y130.397 E70.02358
G1 X128.716 Y130.782 E70.1343
G1 X128.099 Y131.097 E70.24514
G1 X127.451 Y131.34 E70.35587
G1 X126.778 Y131.507 E70.46681
G1 X126.092 Y131.595 E70.57747
G1 X125.675 Y131.609 E70.64423
G1 X105.476 Y131.609 E73.87607
G1 X104.785 Y131.569 E73.98682
G1 X104.102 Y131.45 E74.09774
G1 X103.439 Y131.252 E74.20845
G1 X102.802 Y130.98 E74.31927
G1 X102.201 Y130.636 E74.43007
G1 X101.643 Y130.225 E74.54096
G1 X101.137 Y129.753 E74.65167
G1 X100.688 Y129.225 E74.76257
G1 X100.303 Y128.65 E74.87328
G1 X99.988 Y128.033 E74.98413
G1 X99.745 Y127.385 E75.09486
G1 X99.578 Y126.712 E75.2058
G1 X99.49 Y126.026 E75.31646
G1 X99.476 Y125.609 E75.38322
G1 X99.476 Y80.41 E82.61506
G1 X99.516 Y79.719 E82.7258
G1 X99.635 Y79.036 E82.83673
G1 X99.833 Y78.373 E82.94744
G1 X100.105 Y77.736 E83.05826
G1 X100.449 Y77.135 E83.16906
G1 X100.86 Y76.577 E83.27994
G0 F3960 X101.651 Y76.887
G1 F1320 X102.116 Y76.441 E83.38303
G1 X102.633 Y76.056 E83.48617
G1 X103.194 Y75.737 E83.58943
G1 X103.79 Y75.491 E83.69259
G1 X104.411 Y75.32 E83.79565
G1 X105.049 Y75.228 E83.89879
G1 X105.476 Y75.21 E83.96717
G1 X125.675 Y75.21 E87.19901
G1 X126.318 Y75.25 E87.30209
G1 X126.952 Y75.369 E87.4053
G1 X127.566 Y75.566 E87.50847
G1 X128.151 Y75.837 E87.61162
G1 X128.698 Y76.179 E87.71484
G1 X129.198 Y76.585 E87.8179
G1 X129.644 Y77.05 E87.92099
G1 X130.029 Y77.567 E88.02412
G1 X130.348 Y78.128 E88.12738
G1 X130.594 Y78.724 E88.23054
G1 X130.765 Y79.345 E88.3336
G1 X130.857 Y79.983 E88.43674
G1 X130.875 Y80.41 E88.50512
G1 X130.875 Y125.609 E95.73696
G1 X130.835 Y126.252 E95.84004
G1 X130.716 Y126.886 E95.94325
G1 X130.519 Y127.5 E96.04642
G1 X130.248 Y128.085 E96.14958
G1 X129.906 Y128.632 E96.25279
G1 X129.5 Y129.132 E96.35585
G1 X129.035 Y129.578 E96.45894
G1 X128.518 Y129.963 E96.56207
G1 X127.957 Y130.282 E96.66533
G1 X127.361 Y130.528 E96.76849
G1 X126.74 Y130.699 E96.87155
G1 X126.102 Y130.791 E96.97469
G1 X125.675 Y130.809 E97.04307
G1 X105.476 Y130.809 E100.27491
G1 X104.833 Y130.769 E100.37799
G1 X104.199 Y130.65 E100.4812
G1 X103.585 Y130.453 E100.58437
G1 X103 Y130.182 E100.68753
G1 X102.453 Y129.84 E100.79075
G1 X101.953 Y129.434 E100.8938
G1 X101.507 Y128.969 E100.99689
G1 X101.122 Y128.452 E101.10002
G1 X100.803 Y127.891 E101.20328
G1 X100.557 Y127.295 E101.30645
G1 X100.386 Y126.674 E101.4095
G1 X100.294 Y126.036 E101.51264
G1 X100.276 Y125.609 E101.58102
G1 X100.276 Y80.41 E108.81286
G1 X100.316 Y79.767 E108.91594
G1 X100.435 Y79.133 E109.01915
G1 X100.632 Y78.519 E109.12232
G1 X100.903 Y77.934 E109.22548
G1 X101.245 Y77.387 E109.3287
G1 X101.651 Y76.887 E109.43175
G0 F3960 X102.44 Y77.226
G1 F1320 X102.895 Y76.846 E109.5266
G1 X103.398 Y76.532 E109.62147
G1 X103.938 Y76.287 E109.71635
G1 X104.507 Y76.118 E109.81132
G1 X105.092 Y76.027 E109.90605
G1 X105.476 Y76.01 E109.96755
G1 X125.675 Y76.01 E113.19939
G1 X126.267 Y76.05 E113.29432
G1 X126.847 Y76.169 E113.38906
G1 X127.407 Y76.365 E113.48398
G1 X127.935 Y76.635 E113.57887
G1 X128.422 Y76.973 E113.67372
G1 X128.859 Y77.374 E113.76861
G1 X129.239 Y77.829 E113.86346
G1 X129.553 Y78.332 E113.95834
G1 X129.798 Y78.872 E114.05321
G1 X129.967 Y79.441 E114.14819
G1 X130.058 Y80.026 E114.24291
G1 X130.075 Y80.41 E114.30441
G1 X130.075 Y125.609 E121.53625
G1 X130.035 Y126.201 E121.63119
G1 X129.916 Y126.781 E121.72592
G1 X129.72 Y127.341 E121.82085
G1 X129.45 Y127.869 E121.91573
G1 X129.112 Y128.356 E122.01058
G1 X128.711 Y128.793 E122.10548
G1 X128.256 Y129.173 E122.20033
G1 X127.753 Y129.487 E122.2952
G1 X127.213 Y129.732 E122.39008
G1 X126.644 Y129.901 E122.48505
G1 X126.059 Y129.992 E122.57978
G1 X125.675 Y130.009 E122.64128
G1 X105.476 Y130.009 E125.87312
G1 X104.884 Y129.969 E125.96805
G1 X104.304 Y129.85 E126.06279
G1 X103.744 Y129.654 E126.15771
G1 X103.216 Y129.384 E126.2526
G1 X102.729 Y129.046 E126.34745
G1 X102.292 Y128.645 E126.44234
G1 X101.912 Y128.19 E126.53719
G1 X101.598 Y127.687 E126.63207
G1 X101.353 Y127.147 E126.72694
G1 X101.184 Y126.578 E126.82192
G1 X101.093 Y125.993 E126.91664
G1 X101.076 Y125.609 E126.97814
G1 X101.076 Y80.41 E134.20998
G1 X101.116 Y79.818 E134.30492
G1 X101.235 Y79.238 E134.39965
G1 X101.431 Y78.678 E134.49458
G1 X101.701 Y78.15 E134.58946
G1 X102.039 Y77.663 E134.68431
G1 X102.44 Y77.226 E134.77921
G0 F3960 X102.831 Y77.968
G1 F1320 X103.223 Y77.602 E134.86502
G1 X103.665 Y77.299 E134.95076
G1 X104.148 Y77.064 E135.0367
G1 X104.659 Y76.904 E135.12237
G1 X105.189 Y76.821 E135.20821
G1 X105.476 Y76.81 E135.25416
G1 X125.675 Y76.81 E138.486
G1 X126.21 Y76.85 E138.57184
G1 X126.733 Y76.969 E138.65766
G1 X127.232 Y77.164 E138.74338
G1 X127.697 Y77.432 E138.82925
G1 X128.117 Y77.765 E138.91501
G1 X128.483 Y78.157 E139.00082
G1 X128.786 Y78.599 E139.08656
G1 X129.021 Y79.082 E139.1725
G1 X129.181 Y79.593 E139.25818
G1 X129.264 Y80.123 E139.34401
G1 X129.275 Y80.41 E139.38996
G1 X129.275 Y125.609 E146.6218
G1 X129.235 Y126.144 E146.70764
G1 X129.116 Y126.667 E146.79346
G1 X128.921 Y127.166 E146.87918
G1 X128.653 Y127.631 E146.96505
G1 X128.32 Y128.051 E147.05081
G1 X127.928 Y128.417 E147.13662
G1 X127.486 Y128.72 E147.22236
G1 X127.003 Y128.955 E147.3083
G1 X126.492 Y129.115 E147.39398
G1 X125.962 Y129.198 E147.47981
G1 X125.675 Y129.209 E147.52577
G1 X105.476 Y129.209 E150.75761
G1 X104.941 Y129.169 E150.84344
G1 X104.418 Y129.05 E150.92926
G1 X103.919 Y128.855 E151.01498
G1 X103.454 Y128.587 E151.10085
G1 X103.034 Y128.254 E151.18661
G1 X102.668 Y127.862 E151.27242
G1 X102.365 Y127.42 E151.35816
G1 X102.13 Y126.937 E151.44411
G1 X101.97 Y126.426 E151.52978
G1 X101.887 Y125.896 E151.61561
G1 X101.876 Y125.609 E151.66157
G1 X101.876 Y80.41 E158.89341
G1 X101.916 Y79.875 E158.97925
G1 X102.035 Y79.352 E159.06506
G1 X102.23 Y78.853 E159.15078
G1 X102.498 Y78.388 E159.23666
G1 X102.831 Y77.968 E159.32242
G0 F3960 X103.292 Y78.657
G1 F1320 X103.618 Y78.315 E159.39801
G1 X103.997 Y78.032 E159.47369
G1 X104.419 Y77.817 E159.54947
G1 X104.87 Y77.676 E159.62508
G1 X105.476 Y77.61 E159.72261
G1 X125.675 Y77.61 E162.95445
G1 X126.146 Y77.65 E163.03008
G1 X126.604 Y77.769 E163.10579
G1 X127.035 Y77.963 E163.18142
G1 X127.428 Y78.226 E163.25708
G1 X127.77 Y78.552 E163.33268
G1 X128.053 Y78.931 E163.40836
G1 X128.268 Y79.353 E163.48413
G1 X128.409 Y79.804 E163.55974
G1 X128.475 Y80.41 E163.65727
G1 X128.475 Y125.609 E170.88911
G1 X128.435 Y126.08 E170.96474
G1 X128.316 Y126.538 E171.04046
G1 X128.122 Y126.969 E171.11608
G1 X127.859 Y127.362 E171.19174
G1 X127.533 Y127.704 E171.26734
G1 X127.154 Y127.987 E171.34302
G1 X126.732 Y128.202 E171.4188
G1 X126.281 Y128.343 E171.4944
G1 X125.675 Y128.409 E171.59193
G1 X105.476 Y128.409 E174.82377
G1 X105.005 Y128.369 E174.89941
G1 X104.547 Y128.25 E174.97512
G1 X104.116 Y128.056 E175.05074
G1 X103.723 Y127.793 E175.1264
G1 X103.381 Y127.467 E175.202
G1 X103.098 Y127.088 E175.27768
G1 X102.883 Y126.666 E175.35346
G1 X102.742 Y126.215 E175.42906
G1 X102.676 Y125.609 E175.5266
G1 X102.676 Y80.41 E182.75844
G1 X102.716 Y79.939 E182.83407
G1 X102.835 Y79.481 E182.90978
G1 X103.029 Y79.05 E182.9854
G1 X103.292 Y78.657 E183.06107
G0 F3960 X103.826 Y79.28
G1 F1320 X104.083 Y78.975 E183.12488
G1 X104.396 Y78.727 E183.18878
G1 X104.752 Y78.546 E183.25267
G1 X105.137 Y78.439 E183.31661
G1 X105.476 Y78.41 E183.37105
G1 X125.675 Y78.41 E186.60289
G1 X126.073 Y78.45 E186.66689
G1 X126.454 Y78.568 E186.7307
G1 X126.805 Y78.76 E186.79472
G1 X127.11 Y79.017 E186.85853
G1 X127.358 Y79.33 E186.92243
G1 X127.539 Y79.686 E186.98633
G1 X127.646 Y80.071 E187.05026
G1 X127.675 Y80.41 E187.1047
G1 X127.675 Y125.609 E194.33654
G1 X127.635 Y126.007 E194.40054
G1 X127.517 Y126.388 E194.46436
G1 X127.325 Y126.739 E194.52837
G1 X127.068 Y127.044 E194.59218
G1 X126.755 Y127.292 E194.65608
G1 X126.399 Y127.473 E194.71998
G1 X126.014 Y127.58 E194.78391
G1 X125.675 Y127.609 E194.83835
G1 X105.476 Y127.609 E198.07019
G1 X105.078 Y127.569 E198.13419
G1 X104.697 Y127.451 E198.19801
G1 X104.346 Y127.259 E198.26202
G1 X104.041 Y127.002 E198.32584
G1 X103.793 Y126.689 E198.38973
G1 X103.612 Y126.333 E198.45363
G1 X103.505 Y125.948 E198.51756
G1 X103.476 Y125.609 E198.572
G1 X103.476 Y80.41 E205.80384
G1 X103.516 Y80.012 E205.86784
G1 X103.634 Y79.631 E205.93166
G1 X103.826 Y79.28 E205.99567
G0 F3960 X104.276 Y80.41
G1 F1320 X104.316 Y80.103 E206.04521
G1 X104.433 Y79.817 E206.09465
G1 X104.619 Y79.57 E206.14412
G1 X104.862 Y79.379 E206.19357
G1 X105.146 Y79.256 E206.24309
G1 X105.476 Y79.21 E206.2964
G1 X125.675 Y79.21 E209.52824
G1 X125.982 Y79.25 E209.57778
G1 X126.268 Y79.367 E209.62722
G1 X126.515 Y79.553 E209.67669
G1 X126.706 Y79.796 E209.72614
G1 X126.829 Y80.08 E209.77566
G1 X126.875 Y80.41 E209.82897
G1 X126.875 Y125.609 E217.06081
G1 X126.835 Y125.916 E217.11035
G1 X126.718 Y126.202 E217.15979
G1 X126.532 Y126.449 E217.20926
G1 X126.289 Y126.64 E217.25871
G1 X126.005 Y126.763 E217.30823
G1 X125.675 Y126.809 E217.36154
G1 X105.476 Y126.809 E220.59338
G1 X105.169 Y126.769 E220.64292
G1 X104.883 Y126.652 E220.69236
G1 X104.636 Y126.466 E220.74183
G1 X104.445 Y126.223 E220.79128
G1 X104.322 Y125.939 E220.8408
G1 X104.276 Y125.609 E220.89411
G1 X104.276 Y80.41 E228.12595
G0 F3960 X105.076 Y80.41
G1 F1320 X105.116 Y80.237 E228.15436
G1 X105.226 Y80.098 E228.18273
G1 X105.386 Y80.02 E228.21121
G1 X105.476 Y80.01 E228.22569
G1 X125.675 Y80.01 E231.45753
G1 X125.848 Y80.05 E231.48594
G1 X125.987 Y80.16 E231.51431
G1 X126.065 Y80.32 E231.54279
G1 X126.075 Y80.41 E231.55727
G1 X126.075 Y125.609 E238.78911
G1 X126.036 Y125.782 E238.81749
G1 X125.925 Y125.921 E238.84595
G1 X125.765 Y125.999 E238.87443
G1 X125.675 Y126.009 E238.88892
G1 X105.476 Y126.009 E242.12076
G1 X105.303 Y125.97 E242.14913
G1 X105.164 Y125.859 E242.17759
G1 X105.086 Y125.699 E242.20607
G1 X105.076 Y125.609 E242.22056
G1 X105.076 Y80.41 E249.4524
G10
G0 F3960 X104.78 Y80.41
G0 X94.163 Y81.083
G11
G1 F1320 X94.231 Y82.1 E249.61549
G1 X94.231 Y127.299 E256.84733
G1 X94.191 Y128.077 E256.97197
G1 X94.072 Y128.848 E257.09679
G1 X93.874 Y129.602 E257.22152
G1 X93.6 Y130.331 E257.34613
G1 X93.253 Y131.029 E257.47085
G1 X92.836 Y131.688 E257.59562
G1 X92.353 Y132.3 E257.72037
G1 X91.811 Y132.86 E257.84506
G1 X91.214 Y133.362 E257.96986
G1 X90.569 Y133.799 E258.09452
G1 X89.883 Y134.168 E258.21915
G1 X89.162 Y134.465 E258.34391
G1 X88.414 Y134.687 E258.46875
G1 X87.648 Y134.831 E258.59346
G1 X86.631 Y134.899 E258.75654
G1 X66.43 Y134.899 E261.9887
G1 X65.652 Y134.859 E262.11335
G1 X64.881 Y134.74 E262.23817
G1 X64.127 Y134.542 E262.3629
G1 X63.398 Y134.268 E262.4875
G1 X62.7 Y133.921 E262.61222
G1 X62.041 Y133.504 E262.737
G1 X61.429 Y133.021 E262.86174
G1 X60.869 Y132.479 E262.98644
G1 X60.367 Y131.882 E263.11124
G1 X59.93 Y131.237 E263.23589
G1 X59.561 Y130.551 E263.36052
G1 X59.264 Y129.83 E263.48529
G1 X59.042 Y129.082 E263.61013
G1 X58.898 Y128.316 E263.73483
G1 X58.83 Y127.299 E263.89792
G1 X58.83 Y82.1 E271.12976
G1 X58.87 Y81.322 E271.2544
G1 X58.989 Y80.551 E271.37922
G1 X59.187 Y79.797 E271.50395
G1 X59.461 Y79.068 E271.62856
G1 X59.808 Y78.37 E271.75328
G1 X60.225 Y77.711 E271.87806
G1 X60.708 Y77.099 E272.0028
G1 X61.25 Y76.539 E272.12749
G1 X61.847 Y76.037 E272.25229
