;FLAVOR:UltiGCode
;TIME:2612
;MATERIAL:8667
;MATERIAL2:0
;NOZZLE_DIAMETER:0.4
;Generated with Cura_SteamEngine 2.4.0

;LAYER_COUNT:215
;LAYER:0
M107
G10
G0 F3960 X95.647 Y83.879 Z0.2
;TYPE:SKIRT
G11
G1 F1320 X96.189 Y83.319 E0.12469
G1 X96.786 Y82.817 E0.2495
G1 X97.431 Y82.38 E0.37415
G1 X98.117 Y82.011 E0.49878
G1 X98.838 Y81.714 E0.62355
G1 X99.586 Y81.492 E0.74839
G1 X100.352 Y81.348 E0.87309
G1 X101.369 Y81.28 E1.03618
G1 X121.568 Y81.28 E4.26802
G1 X122.346 Y81.32 E4.39266
G1 X123.117 Y81.439 E4.51748
G1 X123.871 Y81.637 E4.64221
G1 X124.6 Y81.911 E4.76682
G1 X125.298 Y82.258 E4.89154
G1 X125.957 Y82.675 E5.01631
G1 X126.569 Y83.158 E5.14106
G1 X127.129 Y83.7 E5.26575
G1 X127.631 Y84.297 E5.39055
G1 X128.068 Y84.942 E5.51521
G1 X128.437 Y85.628 E5.63984
G1 X128.734 Y86.349 E5.7646
G1 X128.956 Y87.097 E5.88944
G1 X129.1 Y87.863 E6.01415
G1 X129.168 Y88.88 E6.17723
G1 X129.168 Y134.079 E13.40907
G1 X129.128 Y134.857 E13.53372
G1 X129.009 Y135.628 E13.65854
G1 X128.811 Y136.382 E13.78327
G1 X128.537 Y137.111 E13.90787
G1 X128.19 Y137.809 E14.03259
G1 X127.773 Y138.468 E14.15737
G1 X127.29 Y139.08 E14.28211
G1 X126.748 Y139.64 E14.40681
G1 X126.151 Y140.142 E14.53161
G1 X125.506 Y140.579 E14.65626
G1 X124.82 Y140.948 E14.78089
G1 X124.099 Y141.245 E14.90566
G1 X123.351 Y141.467 E15.0305
G1 X122.585 Y141.611 E15.1552
G1 X121.568 Y141.679 E15.31829
G1 X101.369 Y141.679 E18.55013
G1 X100.591 Y141.639 E18.67477
G1 X99.82 Y141.52 E18.79959
G1 X99.066 Y141.322 E18.92432
G1 X98.337 Y141.048 E19.04893
G1 X97.639 Y140.701 E19.17365
G1 X96.98 Y140.284 E19.29843
G1 X96.368 Y139.801 E19.42317
G1 X95.808 Y139.259 E19.54786
G1 X95.306 Y138.662 E19.67266
G1 X94.869 Y138.017 E19.79732
G1 X94.5 Y137.331 E19.92195
G1 X94.203 Y136.61 E20.04671
G1 X93.981 Y135.862 E20.17155
G1 X93.837 Y135.096 E20.29626
G1 X93.769 Y134.079 E20.45934
G1 X93.769 Y88.88 E27.69118
G1 X93.809 Y88.102 E27.81583
G1 X93.928 Y87.331 E27.94065
G1 X94.126 Y86.577 E28.06538
G1 X94.4 Y85.848 E28.18999
G1 X94.747 Y85.15 E28.3147
G1 X95.164 Y84.491 E28.43948
G1 X95.647 Y83.879 E28.56422
G0 F3960 X96.437 Y84.199
G1 F1320 X96.973 Y83.692 E28.68227
G1 X97.56 Y83.247 E28.80013
G1 X98.193 Y82.867 E28.91826
G1 X98.862 Y82.559 E29.0361
G1 X99.561 Y82.325 E29.15404
G1 X100.282 Y82.167 E29.27213
G1 X101.369 Y82.08 E29.44661
G1 X121.568 Y82.08 E32.67845
G1 X122.304 Y82.12 E32.79638
G1 X123.032 Y82.239 E32.91441
G1 X123.742 Y82.437 E33.03234
G1 X124.427 Y82.71 E33.15033
G1 X125.078 Y83.056 E33.26829
G1 X125.688 Y83.47 E33.38624
G1 X126.249 Y83.948 E33.50416
G1 X126.756 Y84.484 E33.62221
G1 X127.201 Y85.071 E33.74007
G1 X127.581 Y85.704 E33.8582
G1 X127.889 Y86.373 E33.97604
G1 X128.123 Y87.072 E34.09398
G1 X128.281 Y87.793 E34.21208
G1 X128.368 Y88.88 E34.38655
G1 X128.368 Y134.079 E41.61839
G1 X128.328 Y134.815 E41.73633
G1 X128.209 Y135.543 E41.85435
G1 X128.011 Y136.253 E41.97229
G1 X127.738 Y136.938 E42.09027
G1 X127.392 Y137.589 E42.20823
G1 X126.978 Y138.199 E42.32618
G1 X126.5 Y138.76 E42.44411
G1 X125.964 Y139.267 E42.56215
G1 X125.377 Y139.712 E42.68001
G1 X124.744 Y140.092 E42.79814
G1 X124.075 Y140.4 E42.91598
G1 X123.376 Y140.634 E43.03392
G1 X122.655 Y140.792 E43.15202
G1 X121.568 Y140.879 E43.32649
G1 X101.369 Y140.879 E46.55833
G1 X100.633 Y140.839 E46.67627
G1 X99.905 Y140.72 E46.79429
G1 X99.195 Y140.522 E46.91223
G1 X98.51 Y140.249 E47.03021
G1 X97.859 Y139.903 E47.14817
G1 X97.249 Y139.489 E47.26612
G1 X96.688 Y139.011 E47.38405
G1 X96.181 Y138.475 E47.5021
G1 X95.736 Y137.888 E47.61995
G1 X95.356 Y137.255 E47.73808
G1 X95.048 Y136.586 E47.85592
G1 X94.814 Y135.887 E47.97386
G1 X94.656 Y135.166 E48.09196
G1 X94.569 Y134.079 E48.26643
G1 X94.569 Y88.88 E55.49827
G1 X94.609 Y88.144 E55.61621
G1 X94.728 Y87.416 E55.73423
G1 X94.926 Y86.706 E55.85217
G1 X95.199 Y86.021 E55.97015
G1 X95.545 Y85.37 E56.08811
G1 X95.959 Y84.76 E56.20607
G1 X96.437 Y84.199 E56.32399
G0 F3960 X97.225 Y84.541
G1 F1320 X97.753 Y84.092 E56.43489
G1 X98.328 Y83.707 E56.5456
G1 X98.945 Y83.392 E56.65644
G1 X99.593 Y83.149 E56.76718
G1 X100.266 Y82.982 E56.87812
G1 X100.952 Y82.894 E56.98878
G1 X101.369 Y82.88 E57.05554
G1 X121.568 Y82.88 E60.28738
G1 X122.259 Y82.92 E60.39812
G1 X122.942 Y83.039 E60.50905
G1 X123.605 Y83.237 E60.61976
G1 X124.242 Y83.509 E60.73058
G1 X124.843 Y83.853 E60.84138
G1 X125.401 Y84.264 E60.95226
G1 X125.907 Y84.736 E61.06298
G1 X126.356 Y85.264 E61.17387
G1 X126.741 Y85.839 E61.28459
G1 X127.056 Y86.456 E61.39543
G1 X127.299 Y87.104 E61.50616
G1 X127.466 Y87.777 E61.61711
G1 X127.554 Y88.463 E61.72777
G1 X127.568 Y88.88 E61.79453
G1 X127.568 Y134.079 E69.02637
G1 X127.528 Y134.77 E69.13711
G1 X127.409 Y135.453 E69.24804
G1 X127.211 Y136.116 E69.35875
G1 X126.939 Y136.753 E69.46957
G1 X126.595 Y137.354 E69.58037
G1 X126.184 Y137.912 E69.69125
G1 X125.712 Y138.418 E69.80197
G1 X125.184 Y138.867 E69.91286
G1 X124.609 Y139.252 E70.02358
G1 X123.992 Y139.567 E70.13442
G1 X123.344 Y139.81 E70.24515
G1 X122.671 Y139.977 E70.3561
G1 X121.985 Y140.065 E70.46676
G1 X121.568 Y140.079 E70.53352
G1 X101.369 Y140.079 E73.76536
G1 X100.678 Y140.039 E73.8761
G1 X99.995 Y139.92 E73.98703
G1 X99.332 Y139.722 E74.09774
G1 X98.695 Y139.45 E74.20856
G1 X98.094 Y139.106 E74.31936
G1 X97.536 Y138.695 E74.43024
G1 X97.03 Y138.223 E74.54096
G1 X96.581 Y137.695 E74.65185
G1 X96.196 Y137.12 E74.76257
G1 X95.881 Y136.503 E74.87341
G1 X95.638 Y135.855 E74.98414
G1 X95.471 Y135.182 E75.09509
G1 X95.383 Y134.496 E75.20575
G1 X95.369 Y134.079 E75.2725
G1 X95.369 Y88.88 E82.50434
G1 X95.409 Y88.189 E82.61509
G1 X95.528 Y87.506 E82.72602
G1 X95.726 Y86.843 E82.83672
G1 X95.998 Y86.206 E82.94755
G1 X96.342 Y85.605 E83.05835
G1 X96.753 Y85.047 E83.16923
G1 X97.225 Y84.541 E83.27994
G0 F3960 X98.009 Y84.911
G1 F1320 X98.526 Y84.526 E83.38308
G1 X99.087 Y84.207 E83.48634
G1 X99.683 Y83.961 E83.5895
G1 X100.304 Y83.79 E83.69256
G1 X100.942 Y83.698 E83.7957
G1 X101.369 Y83.68 E83.86408
G1 X121.568 Y83.68 E87.09592
G1 X122.211 Y83.72 E87.19899
G1 X122.845 Y83.839 E87.30221
G1 X123.459 Y84.036 E87.40538
G1 X124.044 Y84.307 E87.50853
G1 X124.591 Y84.649 E87.61175
G1 X125.091 Y85.055 E87.71481
G1 X125.537 Y85.52 E87.8179
G1 X125.922 Y86.037 E87.92103
G1 X126.241 Y86.598 E88.02429
G1 X126.487 Y87.194 E88.12745
G1 X126.658 Y87.815 E88.23051
G1 X126.75 Y88.453 E88.33365
G1 X126.768 Y88.88 E88.40203
G1 X126.768 Y134.079 E95.63387
G1 X126.728 Y134.722 E95.73695
G1 X126.609 Y135.356 E95.84016
G1 X126.412 Y135.97 E95.94333
G1 X126.141 Y136.555 E96.04649
G1 X125.799 Y137.102 E96.1497
G1 X125.393 Y137.602 E96.25276
G1 X124.928 Y138.048 E96.35585
G1 X124.411 Y138.433 E96.45898
G1 X123.85 Y138.752 E96.56224
G1 X123.254 Y138.998 E96.6654
G1 X122.633 Y139.169 E96.76846
G1 X121.995 Y139.261 E96.8716
G1 X121.568 Y139.279 E96.93998
G1 X101.369 Y139.279 E100.17182
G1 X100.726 Y139.239 E100.2749
G1 X100.092 Y139.12 E100.37811
G1 X99.478 Y138.923 E100.48128
G1 X98.893 Y138.652 E100.58444
G1 X98.346 Y138.31 E100.68766
G1 X97.846 Y137.904 E100.79071
G1 X97.4 Y137.439 E100.8938
G1 X97.015 Y136.922 E100.99693
G1 X96.696 Y136.361 E101.10019
G1 X96.45 Y135.765 E101.20335
G1 X96.279 Y135.144 E101.30641
G1 X96.187 Y134.506 E101.40955
G1 X96.169 Y134.079 E101.47793
G1 X96.169 Y88.88 E108.70977
G1 X96.209 Y88.237 E108.81285
G1 X96.328 Y87.603 E108.91606
G1 X96.525 Y86.989 E109.01923
G1 X96.796 Y86.404 E109.12239
G1 X97.138 Y85.857 E109.22561
G1 X97.544 Y85.357 E109.32866
G1 X98.009 Y84.911 E109.43175
G0 F3960 X98.333 Y85.696
G1 F1320 X98.788 Y85.316 E109.5266
G1 X99.291 Y85.002 E109.62147
G1 X99.831 Y84.757 E109.71635
G1 X100.4 Y84.588 E109.81132
G1 X100.985 Y84.497 E109.90605
G1 X101.369 Y84.48 E109.96755
G1 X121.568 Y84.48 E113.19939
G1 X122.16 Y84.52 E113.29432
G1 X122.74 Y84.639 E113.38906
G1 X123.3 Y84.835 E113.48398
G1 X123.828 Y85.105 E113.57887
G1 X124.315 Y85.443 E113.67372
G1 X124.752 Y85.844 E113.76861
G1 X125.132 Y86.299 E113.86346
G1 X125.446 Y86.802 E113.95834
G1 X125.691 Y87.342 E114.05321
G1 X125.86 Y87.911 E114.14819
G1 X125.951 Y88.496 E114.24291
G1 X125.968 Y88.88 E114.30441
G1 X125.968 Y134.079 E121.53625
G1 X125.928 Y134.671 E121.63119
G1 X125.809 Y135.251 E121.72592
G1 X125.613 Y135.811 E121.82085
G1 X125.343 Y136.339 E121.91573
G1 X125.005 Y136.826 E122.01058
G1 X124.604 Y137.263 E122.10548
G1 X124.149 Y137.643 E122.20033
G1 X123.646 Y137.957 E122.2952
G1 X123.106 Y138.202 E122.39008
G1 X122.537 Y138.371 E122.48505
G1 X121.952 Y138.462 E122.57978
G1 X121.568 Y138.479 E122.64128
G1 X101.369 Y138.479 E125.87312
G1 X100.777 Y138.439 E125.96805
G1 X100.197 Y138.32 E126.06279
G1 X99.637 Y138.124 E126.15771
G1 X99.109 Y137.854 E126.2526
G1 X98.622 Y137.516 E126.34745
G1 X98.185 Y137.115 E126.44234
G1 X97.805 Y136.66 E126.53719
G1 X97.491 Y136.157 E126.63207
G1 X97.246 Y135.617 E126.72694
G1 X97.077 Y135.048 E126.82192
G1 X96.986 Y134.463 E126.91664
G1 X96.969 Y134.079 E126.97814
G1 X96.969 Y88.88 E134.20998
G1 X97.009 Y88.288 E134.30492
G1 X97.128 Y87.708 E134.39965
G1 X97.324 Y87.148 E134.49458
G1 X97.594 Y86.62 E134.58946
G1 X97.932 Y86.133 E134.68431
G1 X98.333 Y85.696 E134.77921
G0 F3960 X98.724 Y86.438
G1 F1320 X99.116 Y86.072 E134.86502
G1 X99.558 Y85.769 E134.95076
G1 X100.041 Y85.534 E135.0367
G1 X100.552 Y85.374 E135.12237
G1 X101.082 Y85.291 E135.20821
G1 X101.369 Y85.28 E135.25416
G1 X121.568 Y85.28 E138.486
G1 X122.103 Y85.32 E138.57184
G1 X122.626 Y85.439 E138.65766
G1 X123.125 Y85.634 E138.74338
G1 X123.59 Y85.902 E138.82925
G1 X124.01 Y86.235 E138.91501
G1 X124.376 Y86.627 E139.00082
G1 X124.679 Y87.069 E139.08656
G1 X124.914 Y87.552 E139.1725
G1 X125.074 Y88.063 E139.25818
G1 X125.157 Y88.593 E139.34401
G1 X125.168 Y88.88 E139.38996
G1 X125.168 Y134.079 E146.6218
G1 X125.128 Y134.614 E146.70764
G1 X125.009 Y135.137 E146.79346
G1 X124.814 Y135.636 E146.87918
G1 X124.546 Y136.101 E146.96505
G1 X124.213 Y136.521 E147.05081
G1 X123.821 Y136.887 E147.13662
G1 X123.379 Y137.19 E147.22236
G1 X122.896 Y137.425 E147.3083
G1 X122.385 Y137.585 E147.39398
G1 X121.855 Y137.668 E147.47981
G1 X121.568 Y137.679 E147.52577
G1 X101.369 Y137.679 E150.75761
G1 X100.834 Y137.639 E150.84344
G1 X100.311 Y137.52 E150.92926
G1 X99.812 Y137.325 E151.01498
G1 X99.347 Y137.057 E151.10085
G1 X98.927 Y136.724 E151.18661
G1 X98.561 Y136.332 E151.27242
G1 X98.258 Y135.89 E151.35816
G1 X98.023 Y135.407 E151.44411
G1 X97.863 Y134.896 E151.52978
G1 X97.78 Y134.366 E151.61561
G1 X97.769 Y134.079 E151.66157
G1 X97.769 Y88.88 E158.89341
G1 X97.809 Y88.345 E158.97925
G1 X97.928 Y87.822 E159.06506
G1 X98.123 Y87.323 E159.15078
G1 X98.391 Y86.858 E159.23666
G1 X98.724 Y86.438 E159.32242
G0 F3960 X99.185 Y87.127
G1 F1320 X99.511 Y86.785 E159.39801
G1 X99.89 Y86.502 E159.47369
G1 X100.312 Y86.287 E159.54947
G1 X100.763 Y86.146 E159.62508
G1 X101.369 Y86.08 E159.72261
G1 X121.568 Y86.08 E162.95445
G1 X122.039 Y86.12 E163.03008
G1 X122.497 Y86.239 E163.10579
G1 X122.928 Y86.433 E163.18142
G1 X123.321 Y86.696 E163.25708
G1 X123.663 Y87.022 E163.33268
G1 X123.946 Y87.401 E163.40836
G1 X124.161 Y87.823 E163.48413
G1 X124.302 Y88.274 E163.55974
G1 X124.368 Y88.88 E163.65727
G1 X124.368 Y134.079 E170.88911
G1 X124.328 Y134.55 E170.96474
G1 X124.209 Y135.008 E171.04046
G1 X124.015 Y135.439 E171.11608
G1 X123.752 Y135.832 E171.19174
G1 X123.426 Y136.174 E171.26734
G1 X123.047 Y136.457 E171.34302
G1 X122.625 Y136.672 E171.4188
G1 X122.174 Y136.813 E171.4944
G1 X121.568 Y136.879 E171.59193
G1 X101.369 Y136.879 E174.82377
G1 X100.898 Y136.839 E174.89941
G1 X100.44 Y136.72 E174.97512
G1 X100.009 Y136.526 E175.05074
G1 X99.616 Y136.263 E175.1264
G1 X99.274 Y135.937 E175.202
G1 X98.991 Y135.558 E175.27768
G1 X98.776 Y135.136 E175.35346
G1 X98.635 Y134.685 E175.42906
G1 X98.569 Y134.079 E175.5266
G1 X98.569 Y88.88 E182.75844
G1 X98.609 Y88.409 E182.83407
G1 X98.728 Y87.951 E182.90978
G1 X98.922 Y87.52 E182.9854
G1 X99.185 Y87.127 E183.06107
G0 F3960 X99.719 Y87.75
G1 F1320 X99.976 Y87.445 E183.12488
G1 X100.289 Y87.197 E183.18878
G1 X100.645 Y87.016 E183.25267
G1 X101.03 Y86.909 E183.31661
G1 X101.369 Y86.88 E183.37105
G1 X121.568 Y86.88 E186.60289
G1 X121.966 Y86.92 E186.66689
G1 X122.347 Y87.038 E186.7307
G1 X122.698 Y87.23 E186.79472
G1 X123.003 Y87.487 E186.85853
G1 X123.251 Y87.8 E186.92243
G1 X123.432 Y88.156 E186.98633
G1 X123.539 Y88.541 E187.05026
G1 X123.568 Y88.88 E187.1047
G1 X123.568 Y134.079 E194.33654
G1 X123.528 Y134.477 E194.40054
G1 X123.41 Y134.858 E194.46436
G1 X123.218 Y135.209 E194.52837
G1 X122.961 Y135.514 E194.59218
G1 X122.648 Y135.762 E194.65608
G1 X122.292 Y135.943 E194.71998
G1 X121.907 Y136.05 E194.78391
G1 X121.568 Y136.079 E194.83835
G1 X101.369 Y136.079 E198.07019
G1 X100.971 Y136.039 E198.13419
G1 X100.59 Y135.921 E198.19801
G1 X100.239 Y135.729 E198.26202
G1 X99.934 Y135.472 E198.32584
G1 X99.686 Y135.159 E198.38973
G1 X99.505 Y134.803 E198.45363
G1 X99.398 Y134.418 E198.51756
G1 X99.369 Y134.079 E198.572
G1 X99.369 Y88.88 E205.80384
G1 X99.409 Y88.482 E205.86784
G1 X99.527 Y88.101 E205.93166
G1 X99.719 Y87.75 E205.99567
G0 F3960 X100.169 Y88.88
G1 F1320 X100.209 Y88.573 E206.04521
G1 X100.326 Y88.287 E206.09465
G1 X100.512 Y88.04 E206.14412
G1 X100.755 Y87.849 E206.19357
G1 X101.039 Y87.726 E206.24309
G1 X101.369 Y87.68 E206.2964
G1 X121.568 Y87.68 E209.52824
G1 X121.875 Y87.72 E209.57778
G1 X122.161 Y87.837 E209.62722
G1 X122.408 Y88.023 E209.67669
G1 X122.599 Y88.266 E209.72614
G1 X122.722 Y88.55 E209.77566
G1 X122.768 Y88.88 E209.82897
G1 X122.768 Y134.079 E217.06081
G1 X122.728 Y134.386 E217.11035
G1 X122.611 Y134.672 E217.15979
G1 X122.425 Y134.919 E217.20926
G1 X122.182 Y135.11 E217.25871
G1 X121.898 Y135.233 E217.30823
G1 X121.568 Y135.279 E217.36154
G1 X101.369 Y135.279 E220.59338
G1 X101.062 Y135.239 E220.64292
G1 X100.776 Y135.122 E220.69236
G1 X100.529 Y134.936 E220.74183
G1 X100.338 Y134.693 E220.79128
G1 X100.215 Y134.409 E220.8408
G1 X100.169 Y134.079 E220.89411
G1 X100.169 Y88.88 E228.12595
G0 F3960 X100.969 Y88.88
G1 F1320 X101.009 Y88.707 E228.15436
G1 X101.119 Y88.568 E228.18273
G1 X101.279 Y88.49 E228.21121
G1 X101.369 Y88.48 E228.22569
G1 X121.568 Y88.48 E231.45753
G1 X121.741 Y88.52 E231.48594
G1 X121.88 Y88.63 E231.51431
G1 X121.958 Y88.79 E231.54279
G1 X121.968 Y88.88 E231.55727
G1 X121.968 Y134.079 E238.78911
G1 X121.929 Y134.252 E238.81749
G1 X121.818 Y134.391 E238.84595
G1 X121.658 Y134.469 E238.87443
G1 X121.568 Y134.479 E238.88892
G1 X101.369 Y134.479 E242.12076
G1 X101.196 Y134.44 E242.14913
G1 X101.057 Y134.329 E242.17759
G1 X100.979 Y134.169 E242.20607
G1 X100.969 Y134.079 E242.22056
G1 X100.969 Y88.88 E249.4524
G0 F3960 X101.769 Y89.28
;TYPE:WALL-OUTER
G1 F1320 X121.168 Y89.28 E252.55624
G1 X121.168 Y133.679 E259.66008
G1 X101.769 Y133.679 E262.76392
G1 X101.769 Y89.28 E269.86776
G0 F3960 X101.969 Y89.28
G0 X101.969 Y89.38
G0 X116.148 Y98.761
G0 X116.218 Y98.831
G1 F1320 X115.795 Y99.475 E269.99104
G1 X115.661 Y100.18 E270.10586
G1 X115.795 Y100.886 E270.22084
G1 X116.218 Y101.53 E270.34412
G1 X116.863 Y101.953 E270.46753
G1 X117.568 Y102.087 E270.58235
G1 X118.273 Y101.953 E270.69717
G1 X118.918 Y101.53 E270.82058
G1 X119.341 Y100.886 E270.94386
G1 X119.475 Y100.18 E271.05884
G1 X119.341 Y99.475 E271.17366
G1 X118.918 Y98.831 E271.29694
G1 X118.273 Y98.408 E271.42035
G1 X117.568 Y98.273 E271.5352
G1 X116.863 Y98.408 E271.65005
G1 X116.218 Y98.831 E271.77346
G0 F3960 X116.109 Y98.998
G0 X116.026 Y98.943
G0 X115.758 Y99.46
G0 X115.621 Y100.18
G0 X117.568 Y109.473
G0 X117.568 Y109.573
G1 F1320 X116.863 Y109.708 E271.88831
G1 X116.218 Y110.131 E272.01173
G1 X115.795 Y110.775 E272.13501
G1 X115.661 Y111.48 E272.24983
G1 X115.795 Y112.185 E272.36465
G1 X116.218 Y112.829 E272.48792
G1 X116.863 Y113.252 E272.61134
G1 X117.568 Y113.386 E272.72616
G1 X118.273 Y113.252 E272.84098
G1 X118.918 Y112.829 E272.96439
G1 X119.341 Y112.185 E273.08767
G1 X119.475 Y111.48 E273.20249
G1 X119.341 Y110.775 E273.31731
G1 X118.918 Y110.131 E273.44059
G1 X118.273 Y109.708 E273.564
G1 X117.568 Y109.573 E273.67885
G0 F3960 X117.372 Y109.61
G0 X117.355 Y109.512
G0 X116.848 Y109.671
