;FLAVOR:UltiGCode
;TIME:3624
;MATERIAL:12377
;MATERIAL2:0
;NOZZLE_DIAMETER:0.4
;Generated with Cura_SteamEngine 2.4.0

;LAYER_COUNT:265
;LAYER:0
M107
G10
G0 F3960 X85.33 Y86.19 Z0.2
;TYPE:SKIRT
G11
G1 F1320 X85.882 Y85.64 E0.12468
G1 X86.488 Y85.15 E0.24937
G1 X87.141 Y84.724 E0.37412
G1 X87.835 Y84.368 E0.49891
G1 X88.561 Y84.084 E0.62364
G1 X89.312 Y83.877 E0.74828
G1 X90.081 Y83.747 E0.87307
G1 X90.961 Y83.696 E1.01411
G1 X133.77 Y83.706 E7.86355
G1 X134.548 Y83.746 E7.98819
G1 X135.318 Y83.866 E8.11288
G1 X136.072 Y84.064 E8.23761
G1 X136.802 Y84.338 E8.36237
G1 X137.5 Y84.685 E8.48708
G1 X138.158 Y85.102 E8.61173
G1 X138.771 Y85.585 E8.73659
G1 X139.33 Y86.127 E8.86117
G1 X139.832 Y86.724 E8.98597
G1 X140.269 Y87.369 E9.11063
G1 X140.638 Y88.056 E9.2354
G1 X140.935 Y88.777 E9.36017
G1 X141.156 Y89.524 E9.48481
G1 X141.3 Y90.29 E9.60951
G1 X141.368 Y91.306 E9.77244
G1 X141.367 Y120.446 E14.43484
G1 X141.327 Y121.225 E14.55964
G1 X141.207 Y121.995 E14.68433
G1 X141.01 Y122.749 E14.80902
G1 X140.736 Y123.479 E14.93377
G1 X140.388 Y124.177 E15.05856
G1 X139.971 Y124.835 E15.18321
G1 X139.489 Y125.448 E15.30797
G1 X138.947 Y126.007 E15.43255
G1 X138.35 Y126.509 E15.55735
G1 X137.705 Y126.946 E15.68201
G1 X137.018 Y127.315 E15.80678
G1 X136.298 Y127.612 E15.9314
G1 X135.55 Y127.834 E16.05624
G1 X134.784 Y127.978 E16.18095
G1 X133.768 Y128.046 E16.34387
G1 X128.735 Y128.047 E17.14915
G1 X128.763 Y128.471 E17.21714
G1 X128.753 Y133.493 E18.02066
G1 X128.711 Y134.272 E18.14548
G1 X128.59 Y135.042 E18.27019
G1 X128.391 Y135.795 E18.39481
G1 X128.116 Y136.524 E18.51947
G1 X127.767 Y137.222 E18.64433
G1 X127.349 Y137.879 E18.76892
G1 X126.865 Y138.491 E18.89377
G1 X126.322 Y139.05 E19.01846
G1 X125.724 Y139.55 E19.14317
G1 X125.078 Y139.986 E19.26787
G1 X124.391 Y140.354 E19.39257
G1 X123.67 Y140.649 E19.51721
G1 X122.922 Y140.869 E19.64196
G1 X122.155 Y141.012 E19.7668
G1 X121.153 Y141.078 E19.92746
G1 X117.364 Y141.078 E20.5337
G1 X116.586 Y141.038 E20.65835
G1 X115.815 Y140.919 E20.78317
G1 X115.061 Y140.721 E20.9079
G1 X114.332 Y140.447 E21.03251
G1 X113.634 Y140.1 E21.15722
G1 X112.975 Y139.683 E21.282
G1 X112.363 Y139.2 E21.40674
G1 X111.803 Y138.658 E21.53144
G1 X111.301 Y138.061 E21.65624
G1 X110.864 Y137.416 E21.78089
G1 X110.495 Y136.73 E21.90553
G1 X110.198 Y136.009 E22.03029
G1 X109.976 Y135.261 E22.15513
G1 X109.832 Y134.495 E22.27984
G1 X109.764 Y133.495 E22.44021
G1 X109.753 Y128.473 E23.24373
G1 X109.774 Y128.05 E23.31149
G1 X90.955 Y128.053 E26.32253
G1 X90.177 Y128.013 E26.44718
G1 X89.406 Y127.894 E26.572
G1 X88.652 Y127.696 E26.69673
G1 X87.923 Y127.422 E26.82133
G1 X87.225 Y127.075 E26.94605
G1 X86.566 Y126.658 E27.07083
G1 X85.954 Y126.176 E27.19547
G1 X85.394 Y125.634 E27.32017
G1 X84.892 Y125.037 E27.44497
G1 X84.455 Y124.392 E27.56962
G1 X84.085 Y123.706 E27.69433
G1 X83.788 Y122.985 E27.81909
G1 X83.567 Y122.238 E27.94373
G1 X83.423 Y121.472 E28.06844
G1 X83.358 Y120.695 E28.1932
G1 X83.386 Y119.752 E28.34414
G1 X83.42 Y119.385 E28.40311
G1 X83.419 Y92.326 E32.73255
G1 X83.386 Y91.935 E32.79534
G1 X83.36 Y91.156 E32.92005
G1 X83.415 Y90.378 E33.04484
G1 X83.548 Y89.61 E33.16954
G1 X83.76 Y88.86 E33.29425
G1 X84.047 Y88.136 E33.41886
G1 X84.407 Y87.444 E33.54366
G1 X84.836 Y86.794 E33.66827
G1 X85.33 Y86.19 E33.79312
G0 F3960 X86.142 Y86.496
G1 F1320 X86.69 Y86.003 E33.91106
G1 X87.288 Y85.572 E34.029
G1 X87.93 Y85.208 E34.14708
G1 X88.607 Y84.916 E34.26505
G1 X89.311 Y84.699 E34.38292
G1 X90.035 Y84.559 E34.5009
G1 X90.961 Y84.496 E34.64941
G1 X133.77 Y84.506 E41.49885
G1 X134.506 Y84.546 E41.61678
G1 X135.233 Y84.666 E41.73467
G1 X135.944 Y84.863 E41.85272
G1 X136.628 Y85.137 E41.97061
G1 X137.279 Y85.483 E42.08857
G1 X137.889 Y85.897 E42.20653
G1 X138.451 Y86.375 E42.32457
G1 X138.957 Y86.911 E42.44251
G1 X139.402 Y87.499 E42.5605
G1 X139.781 Y88.131 E42.6784
G1 X140.09 Y88.801 E42.79646
G1 X140.324 Y89.5 E42.9144
G1 X140.481 Y90.22 E43.0323
G1 X140.568 Y91.306 E43.20662
G1 X140.567 Y120.446 E47.86902
G1 X140.527 Y121.182 E47.98695
G1 X140.408 Y121.91 E48.10498
G1 X140.21 Y122.62 E48.22291
G1 X139.937 Y123.305 E48.3409
G1 X139.591 Y123.956 E48.45886
G1 X139.177 Y124.566 E48.57681
G1 X138.699 Y125.128 E48.69486
G1 X138.163 Y125.634 E48.81279
G1 X137.575 Y126.079 E48.93078
G1 X136.943 Y126.459 E49.04877
G1 X136.273 Y126.767 E49.16675
G1 X135.574 Y127.001 E49.2847
G1 X134.854 Y127.159 E49.40264
G1 X133.768 Y127.246 E49.57695
G1 X127.849 Y127.247 E50.52399
G1 X127.876 Y127.369 E50.54399
G1 X127.963 Y128.47 E50.72069
G1 X127.953 Y133.492 E51.52422
G1 X127.912 Y134.228 E51.64216
G1 X127.791 Y134.955 E51.76008
G1 X127.592 Y135.665 E51.87806
G1 X127.317 Y136.349 E51.99601
G1 X126.97 Y137 E52.11404
G1 X126.555 Y137.609 E52.23196
G1 X126.076 Y138.169 E52.34986
G1 X125.539 Y138.675 E52.46792
G1 X124.95 Y139.119 E52.58593
G1 X124.317 Y139.497 E52.7039
G1 X123.647 Y139.804 E52.82181
G1 X122.948 Y140.037 E52.9397
G1 X122.227 Y140.193 E53.05773
G1 X121.153 Y140.278 E53.23011
G1 X117.364 Y140.278 E53.83635
G1 X116.628 Y140.238 E53.95429
G1 X115.9 Y140.119 E54.07231
G1 X115.19 Y139.921 E54.19025
G1 X114.505 Y139.648 E54.30823
G1 X113.854 Y139.302 E54.42619
G1 X113.244 Y138.888 E54.54414
G1 X112.683 Y138.41 E54.66207
G1 X112.176 Y137.874 E54.78011
G1 X111.731 Y137.287 E54.89797
G1 X111.351 Y136.654 E55.0161
G1 X111.043 Y135.985 E55.13394
G1 X110.809 Y135.286 E55.25188
G1 X110.651 Y134.565 E55.36998
G1 X110.564 Y133.493 E55.54206
G1 X110.553 Y128.471 E56.34558
G1 X110.591 Y127.735 E56.4635
G1 X110.67 Y127.25 E56.54212
G1 X90.955 Y127.253 E59.69652
G1 X90.219 Y127.213 E59.81446
G1 X89.491 Y127.094 E59.93248
G1 X88.781 Y126.896 E60.05042
G1 X88.096 Y126.623 E60.1684
G1 X87.445 Y126.278 E60.28628
G1 X86.835 Y125.863 E60.40433
G1 X86.273 Y125.386 E60.52227
G1 X85.767 Y124.85 E60.64021
G1 X85.321 Y124.263 E60.75816
G1 X84.942 Y123.63 E60.87621
G1 X84.633 Y122.961 E60.99411
G1 X84.399 Y122.262 E61.11205
G1 X84.242 Y121.541 E61.23012
G1 X84.163 Y120.808 E61.34808
G1 X84.183 Y119.825 E61.50539
G1 X84.22 Y119.426 E61.5695
G1 X84.219 Y92.295 E65.91046
G1 X84.183 Y91.868 E65.97903
G1 X84.161 Y91.131 E66.097
G1 X84.219 Y90.396 E66.21496
G1 X84.356 Y89.671 E66.33302
G1 X84.571 Y88.966 E66.45095
G1 X84.86 Y88.288 E66.56887
G1 X85.222 Y87.646 E66.68679
G1 X85.651 Y87.046 E66.80481
G1 X86.142 Y86.496 E66.92277
G0 F3960 X86.953 Y86.829
G1 F1320 X87.494 Y86.397 E67.03354
G1 X88.082 Y86.031 E67.14436
G1 X88.708 Y85.734 E67.25522
G1 X89.364 Y85.512 E67.36603
G1 X90.041 Y85.367 E67.47681
G1 X90.96 Y85.296 E67.62428
G1 X133.769 Y85.306 E74.47372
G1 X134.461 Y85.346 E74.58463
G1 X135.143 Y85.466 E74.69543
G1 X135.807 Y85.663 E74.80624
G1 X136.443 Y85.935 E74.91692
G1 X137.044 Y86.28 E75.0278
G1 X137.602 Y86.691 E75.13868
G1 X138.108 Y87.163 E75.24939
G1 X138.557 Y87.691 E75.36029
G1 X138.941 Y88.267 E75.47105
G1 X139.257 Y88.883 E75.58182
G1 X139.5 Y89.532 E75.6927
G1 X139.666 Y90.204 E75.80346
G1 X139.754 Y90.891 E75.91427
G1 X139.768 Y91.306 E75.98071
G1 X139.767 Y120.446 E80.64311
G1 X139.727 Y121.138 E80.75402
G1 X139.608 Y121.82 E80.86479
G1 X139.41 Y122.484 E80.97565
G1 X139.138 Y123.12 E81.08632
G1 X138.794 Y123.721 E81.19712
G1 X138.383 Y124.279 E81.30801
G1 X137.911 Y124.785 E81.41872
G1 X137.383 Y125.234 E81.52962
G1 X136.807 Y125.619 E81.64047
G1 X136.191 Y125.935 E81.75124
G1 X135.542 Y126.177 E81.86206
G1 X134.87 Y126.344 E81.97285
G1 X134.183 Y126.432 E82.08367
G1 X133.768 Y126.446 E82.15011
G1 X126.807 Y126.447 E83.26387
G1 X126.894 Y126.68 E83.30366
G1 X127.061 Y127.353 E83.41461
G1 X127.149 Y128.039 E83.52527
G1 X127.163 Y128.468 E83.59395
G1 X127.153 Y133.49 E84.39747
G1 X127.112 Y134.181 E84.50822
G1 X126.991 Y134.863 E84.61905
G1 X126.792 Y135.527 E84.72995
G1 X126.519 Y136.163 E84.84069
G1 X126.174 Y136.763 E84.95143
G1 X125.762 Y137.32 E85.06228
G1 X125.288 Y137.825 E85.1731
G1 X124.76 Y138.273 E85.28389
G1 X124.183 Y138.657 E85.39479
G1 X123.566 Y138.971 E85.50556
G1 X122.917 Y139.213 E85.61638
G1 X122.245 Y139.378 E85.72709
G1 X121.558 Y139.464 E85.83787
G1 X121.153 Y139.478 E85.90271
G1 X117.364 Y139.478 E86.50895
G1 X116.673 Y139.438 E86.6197
G1 X115.99 Y139.319 E86.73062
G1 X115.327 Y139.121 E86.84133
G1 X114.69 Y138.849 E86.95215
G1 X114.089 Y138.505 E87.06295
G1 X113.531 Y138.094 E87.17384
G1 X113.025 Y137.622 E87.28455
G1 X112.576 Y137.094 E87.39545
G1 X112.191 Y136.519 E87.50616
G1 X111.876 Y135.902 E87.61701
G1 X111.633 Y135.254 E87.72774
G1 X111.466 Y134.581 E87.83868
G1 X111.378 Y133.895 E87.94934
G1 X111.364 Y133.491 E88.01402
G1 X111.353 Y128.469 E88.81754
G1 X111.391 Y127.778 E88.92827
G1 X111.509 Y127.095 E89.03917
G1 X111.7 Y126.45 E89.1468
G1 X90.955 Y126.453 E92.466
G1 X90.264 Y126.413 E92.57674
G1 X89.581 Y126.294 E92.68767
G1 X88.918 Y126.097 E92.79833
G1 X88.281 Y125.825 E92.90916
G1 X87.68 Y125.481 E93.01995
G1 X87.122 Y125.07 E93.13084
G1 X86.616 Y124.598 E93.24155
G1 X86.167 Y124.07 E93.35245
G1 X85.782 Y123.494 E93.4633
G1 X85.466 Y122.878 E93.57407
G1 X85.223 Y122.23 E93.6848
G1 X85.057 Y121.557 E93.79571
G1 X84.969 Y120.871 E93.90637
G1 X84.98 Y119.899 E94.0619
G1 X85.02 Y119.468 E94.13115
G1 X85.019 Y92.263 E98.48395
G1 X84.98 Y91.801 E98.55814
G1 X84.962 Y91.108 E98.66905
G1 X85.024 Y90.418 E98.7799
G1 X85.164 Y89.74 E98.89067
G1 X85.382 Y89.083 E99.00142
G1 X85.674 Y88.455 E99.11223
G1 X86.037 Y87.865 E99.22307
G1 X86.465 Y87.321 E99.33382
G1 X86.953 Y86.829 E99.4447
G0 F3960 X87.278 Y87.623
G1 F1320 X87.76 Y87.196 E99.54773
G1 X88.292 Y86.832 E99.65086
G1 X88.865 Y86.536 E99.75405
G1 X89.47 Y86.314 E99.85716
G1 X90.098 Y86.168 E99.96032
G1 X90.96 Y86.096 E100.09872
G1 X133.769 Y86.106 E106.94816
G1 X134.413 Y86.146 E107.0514
G1 X135.046 Y86.266 E107.15449
G1 X135.66 Y86.462 E107.25761
G1 X136.245 Y86.734 E107.36083
G1 X136.792 Y87.075 E107.46397
G1 X137.292 Y87.482 E107.56712
G1 X137.738 Y87.947 E107.67021
G1 X138.123 Y88.464 E107.77335
G1 X138.441 Y89.025 E107.87652
G1 X138.687 Y89.621 E107.97969
G1 X138.858 Y90.243 E108.0829
G1 X138.951 Y90.881 E108.18606
G1 X138.968 Y91.306 E108.25411
G1 X138.967 Y120.446 E112.91651
G1 X138.927 Y121.09 E113.01975
G1 X138.808 Y121.723 E113.12281
G1 X138.611 Y122.337 E113.22598
G1 X138.34 Y122.922 E113.32913
G1 X137.998 Y123.469 E113.43235
G1 X137.592 Y123.969 E113.53541
G1 X137.126 Y124.415 E113.63861
G1 X136.609 Y124.8 E113.74175
G1 X136.049 Y125.119 E113.84487
G1 X135.453 Y125.365 E113.94803
G1 X134.831 Y125.536 E114.05124
G1 X134.193 Y125.628 E114.15438
G1 X133.768 Y125.646 E114.22244
G1 X125.537 Y125.647 E115.5394
G1 X125.836 Y126.174 E115.63634
G1 X126.082 Y126.77 E115.73951
G1 X126.253 Y127.391 E115.84257
G1 X126.345 Y128.029 E115.9457
G1 X126.363 Y128.466 E116.01568
G1 X126.353 Y133.488 E116.8192
G1 X126.312 Y134.132 E116.92245
G1 X126.191 Y134.765 E117.02557
G1 X125.993 Y135.379 E117.12879
G1 X125.721 Y135.963 E117.23186
G1 X125.378 Y136.509 E117.33503
G1 X124.971 Y137.008 E117.43806
G1 X124.505 Y137.454 E117.54127
G1 X123.987 Y137.838 E117.64444
G1 X123.426 Y138.155 E117.74754
G1 X122.829 Y138.4 E117.85079
G1 X122.207 Y138.57 E117.95396
G1 X121.569 Y138.661 E118.05707
G1 X121.153 Y138.678 E118.12369
G1 X117.364 Y138.678 E118.72993
G1 X116.721 Y138.638 E118.833
G1 X116.087 Y138.519 E118.93622
G1 X115.473 Y138.322 E119.03939
G1 X114.888 Y138.051 E119.14254
G1 X114.341 Y137.709 E119.24576
G1 X113.841 Y137.303 E119.34882
G1 X113.395 Y136.838 E119.45191
G1 X113.01 Y136.321 E119.55504
G1 X112.691 Y135.76 E119.6583
G1 X112.445 Y135.164 E119.76146
G1 X112.274 Y134.543 E119.86452
G1 X112.182 Y133.905 E119.96766
G1 X112.164 Y133.489 E120.03428
G1 X112.153 Y128.467 E120.8378
G1 X112.192 Y127.824 E120.94087
G1 X112.309 Y127.19 E121.04402
G1 X112.505 Y126.576 E121.14715
G1 X112.775 Y125.99 E121.25038
G1 X112.987 Y125.649 E121.31462
G1 X90.955 Y125.653 E124.83974
G1 X90.311 Y125.613 E124.94298
G1 X89.678 Y125.494 E125.04604
G1 X89.064 Y125.297 E125.14921
G1 X88.479 Y125.026 E125.25237
G1 X87.932 Y124.685 E125.3555
G1 X87.432 Y124.278 E125.45865
G1 X86.985 Y123.813 E125.56185
G1 X86.6 Y123.296 E125.66499
G1 X86.282 Y122.736 E125.76803
G1 X86.035 Y122.14 E125.87125
G1 X85.864 Y121.518 E125.97447
G1 X85.772 Y120.88 E126.0776
G1 X85.776 Y119.973 E126.22272
G1 X85.82 Y119.498 E126.29905
G1 X85.819 Y92.231 E130.66177
G1 X85.777 Y91.733 E130.74173
G1 X85.763 Y91.089 E130.8448
G1 X85.829 Y90.447 E130.94806
G1 X85.973 Y89.819 E131.05114
G1 X86.194 Y89.214 E131.1542
G1 X86.488 Y88.64 E131.25739
G1 X86.851 Y88.107 E131.36057
G1 X87.278 Y87.623 E131.46384
G0 F3960 X87.666 Y88.378
G1 F1320 X88.088 Y87.962 E131.55865
G1 X88.562 Y87.606 E131.65349
G1 X89.08 Y87.317 E131.7484
G1 X89.632 Y87.101 E131.84324
G1 X90.208 Y86.961 E131.93809
G1 X90.96 Y86.896 E132.05885
G1 X133.769 Y86.906 E138.90829
G1 X134.361 Y86.946 E139.00323
G1 X134.941 Y87.065 E139.09796
G1 X135.501 Y87.262 E139.19295
G1 X136.029 Y87.531 E139.28776
G1 X136.516 Y87.87 E139.3827
G1 X136.953 Y88.27 E139.47749
G1 X137.332 Y88.726 E139.57236
G1 X137.647 Y89.229 E139.66731
G1 X137.891 Y89.769 E139.76213
G1 X138.06 Y90.338 E139.8571
G1 X138.151 Y90.923 E139.95182
G1 X138.168 Y91.306 E140.01316
G1 X138.167 Y120.446 E144.67556
G1 X138.127 Y121.038 E144.7705
G1 X138.008 Y121.619 E144.86539
G1 X137.812 Y122.178 E144.96017
G1 X137.542 Y122.706 E145.05505
G1 X137.204 Y123.193 E145.1499
G1 X136.803 Y123.631 E145.24491
G1 X136.348 Y124.01 E145.33966
G1 X135.845 Y124.324 E145.43454
G1 X135.305 Y124.569 E145.52941
G1 X134.736 Y124.738 E145.62438
G1 X134.15 Y124.829 E145.71927
G1 X133.768 Y124.846 E145.78045
G1 X123.663 Y124.848 E147.39725
G1 X123.91 Y125.019 E147.44531
G1 X124.347 Y125.42 E147.54021
G1 X124.727 Y125.875 E147.63506
G1 X125.041 Y126.378 E147.72993
G1 X125.286 Y126.918 E147.82481
G1 X125.455 Y127.487 E147.91978
G1 X125.546 Y128.072 E148.01451
G1 X125.563 Y128.465 E148.07745
G1 X125.553 Y133.487 E148.88097
G1 X125.512 Y134.078 E148.97575
G1 X125.392 Y134.659 E149.07068
G1 X125.194 Y135.218 E149.16556
G1 X124.924 Y135.746 E149.26045
G1 X124.584 Y136.232 E149.35535
G1 X124.183 Y136.668 E149.45012
G1 X123.727 Y137.047 E149.54499
G1 X123.223 Y137.361 E149.64
G1 X122.682 Y137.604 E149.7349
G1 X122.114 Y137.772 E149.82967
G1 X121.528 Y137.862 E149.92453
G1 X121.153 Y137.878 E149.98458
G1 X117.364 Y137.878 E150.59082
G1 X116.772 Y137.838 E150.68576
G1 X116.192 Y137.719 E150.78049
G1 X115.632 Y137.523 E150.87542
G1 X115.104 Y137.253 E150.9703
G1 X114.617 Y136.915 E151.06515
G1 X114.18 Y136.514 E151.16005
G1 X113.8 Y136.059 E151.2549
G1 X113.486 Y135.556 E151.34977
G1 X113.241 Y135.016 E151.44465
G1 X113.072 Y134.447 E151.53962
G1 X112.981 Y133.862 E151.63435
G1 X112.964 Y133.488 E151.69425
G1 X112.953 Y128.466 E152.49777
G1 X112.992 Y127.874 E152.5927
G1 X113.11 Y127.293 E152.68755
G1 X113.304 Y126.733 E152.78238
G1 X113.573 Y126.204 E152.87733
G1 X113.91 Y125.716 E152.97222
G1 X114.31 Y125.278 E153.06713
G1 X114.765 Y124.898 E153.16198
G1 X114.843 Y124.849 E153.17671
G1 X90.955 Y124.853 E156.99879
G1 X90.363 Y124.813 E157.09373
G1 X89.782 Y124.694 E157.18862
G1 X89.223 Y124.498 E157.2834
G1 X88.694 Y124.229 E157.37835
G1 X88.207 Y123.89 E157.47329
G1 X87.77 Y123.49 E157.56808
G1 X87.391 Y123.034 E157.66295
G1 X87.076 Y122.532 E157.75778
G1 X86.832 Y121.991 E157.85273
G1 X86.662 Y121.423 E157.94759
G1 X86.571 Y120.837 E158.04248
G1 X86.573 Y120.047 E158.16888
G1 X86.62 Y119.54 E158.25035
G1 X86.619 Y92.187 E162.62683
G1 X86.575 Y91.666 E162.71048
G1 X86.565 Y91.073 E162.80538
G1 X86.635 Y90.484 E162.90028
G1 X86.783 Y89.91 E162.99512
G1 X87.007 Y89.361 E163.08999
G1 X87.303 Y88.848 E163.18476
G1 X87.666 Y88.378 E163.27978
G0 F3960 X88.118 Y89.085
G1 F1320 X88.478 Y88.687 E163.36564
G1 X88.893 Y88.348 E163.45138
G1 X89.354 Y88.074 E163.53718
G1 X89.85 Y87.871 E163.62293
G1 X90.371 Y87.744 E163.70873
G1 X90.96 Y87.696 E163.80329
G1 X133.769 Y87.706 E170.65273
G1 X134.304 Y87.746 E170.73857
G1 X134.827 Y87.865 E170.82438
G1 X135.326 Y88.061 E170.91016
G1 X135.791 Y88.328 E170.99595
G1 X136.211 Y88.662 E171.08181
G1 X136.576 Y89.054 E171.16751
G1 X136.88 Y89.496 E171.25334
