;FLAVOR:UltiGCode
;TIME:2588
;MATERIAL:8626
;MATERIAL2:0
;NOZZLE_DIAMETER:0.4
;Generated with Cura_SteamEngine 2.4.0

;LAYER_COUNT:215
;LAYER:0
M107
G10
G0 F3960 X95.674 Y83.907 Z0.2
;TYPE:SKIRT
G11
G1 F1320 X96.216 Y83.347 E0.12469
G1 X96.813 Y82.845 E0.2495
G1 X97.458 Y82.408 E0.37415
G1 X98.144 Y82.039 E0.49878
G1 X98.865 Y81.742 E0.62355
G1 X99.613 Y81.52 E0.74839
G1 X100.379 Y81.376 E0.87309
G1 X101.396 Y81.308 E1.03618
G1 X121.595 Y81.308 E4.26802
G1 X122.373 Y81.348 E4.39266
G1 X123.144 Y81.467 E4.51748
G1 X123.898 Y81.665 E4.64221
G1 X124.627 Y81.939 E4.76682
G1 X125.325 Y82.286 E4.89154
G1 X125.984 Y82.703 E5.01631
G1 X126.596 Y83.186 E5.14106
G1 X127.156 Y83.728 E5.26575
G1 X127.658 Y84.325 E5.39055
G1 X128.095 Y84.97 E5.51521
G1 X128.464 Y85.656 E5.63984
G1 X128.761 Y86.377 E5.7646
G1 X128.983 Y87.125 E5.88944
G1 X129.127 Y87.891 E6.01415
G1 X129.195 Y88.908 E6.17723
G1 X129.195 Y134.107 E13.40907
G1 X129.155 Y134.885 E13.53372
G1 X129.036 Y135.656 E13.65854
G1 X128.838 Y136.41 E13.78327
G1 X128.564 Y137.139 E13.90787
G1 X128.217 Y137.837 E14.03259
G1 X127.8 Y138.496 E14.15737
G1 X127.317 Y139.108 E14.28211
G1 X126.775 Y139.668 E14.40681
G1 X126.178 Y140.17 E14.53161
G1 X125.533 Y140.607 E14.65626
G1 X124.847 Y140.976 E14.78089
G1 X124.126 Y141.273 E14.90566
G1 X123.378 Y141.495 E15.0305
G1 X122.612 Y141.639 E15.1552
G1 X121.595 Y141.707 E15.31829
G1 X101.396 Y141.707 E18.55013
G1 X100.618 Y141.667 E18.67477
G1 X99.847 Y141.548 E18.79959
G1 X99.093 Y141.35 E18.92432
G1 X98.364 Y141.076 E19.04893
G1 X97.666 Y140.729 E19.17365
G1 X97.007 Y140.312 E19.29843
G1 X96.395 Y139.829 E19.42317
G1 X95.835 Y139.287 E19.54786
G1 X95.333 Y138.69 E19.67266
G1 X94.896 Y138.045 E19.79732
G1 X94.527 Y137.359 E19.92195
G1 X94.23 Y136.638 E20.04671
G1 X94.008 Y135.89 E20.17155
G1 X93.864 Y135.124 E20.29626
G1 X93.796 Y134.107 E20.45934
G1 X93.796 Y88.908 E27.69118
G1 X93.836 Y88.13 E27.81583
G1 X93.955 Y87.359 E27.94065
G1 X94.153 Y86.605 E28.06538
G1 X94.427 Y85.876 E28.18999
G1 X94.774 Y85.178 E28.3147
G1 X95.191 Y84.519 E28.43948
G1 X95.674 Y83.907 E28.56422
G0 F3960 X96.464 Y84.227
G1 F1320 X97 Y83.72 E28.68227
G1 X97.587 Y83.275 E28.80013
G1 X98.22 Y82.895 E28.91826
G1 X98.889 Y82.587 E29.0361
G1 X99.588 Y82.353 E29.15404
G1 X100.309 Y82.195 E29.27213
G1 X101.396 Y82.108 E29.44661
G1 X121.595 Y82.108 E32.67845
G1 X122.331 Y82.148 E32.79638
G1 X123.059 Y82.267 E32.91441
G1 X123.769 Y82.465 E33.03234
G1 X124.454 Y82.738 E33.15033
G1 X125.105 Y83.084 E33.26829
G1 X125.715 Y83.498 E33.38624
G1 X126.276 Y83.976 E33.50416
G1 X126.783 Y84.512 E33.62221
G1 X127.228 Y85.099 E33.74007
G1 X127.608 Y85.732 E33.8582
G1 X127.916 Y86.401 E33.97604
G1 X128.15 Y87.1 E34.09398
G1 X128.308 Y87.821 E34.21208
G1 X128.395 Y88.908 E34.38655
G1 X128.395 Y134.107 E41.61839
G1 X128.355 Y134.843 E41.73633
G1 X128.236 Y135.571 E41.85435
G1 X128.038 Y136.281 E41.97229
G1 X127.765 Y136.966 E42.09027
G1 X127.419 Y137.617 E42.20823
G1 X127.005 Y138.227 E42.32618
G1 X126.527 Y138.788 E42.44411
G1 X125.991 Y139.295 E42.56215
G1 X125.404 Y139.74 E42.68001
G1 X124.771 Y140.12 E42.79814
G1 X124.102 Y140.428 E42.91598
G1 X123.403 Y140.662 E43.03392
G1 X122.682 Y140.82 E43.15202
G1 X121.595 Y140.907 E43.32649
G1 X101.396 Y140.907 E46.55833
G1 X100.66 Y140.867 E46.67627
G1 X99.932 Y140.748 E46.79429
G1 X99.222 Y140.55 E46.91223
G1 X98.537 Y140.277 E47.03021
G1 X97.886 Y139.931 E47.14817
G1 X97.276 Y139.517 E47.26612
G1 X96.715 Y139.039 E47.38405
G1 X96.208 Y138.503 E47.5021
G1 X95.763 Y137.916 E47.61995
G1 X95.383 Y137.283 E47.73808
G1 X95.075 Y136.614 E47.85592
G1 X94.841 Y135.915 E47.97386
G1 X94.683 Y135.194 E48.09196
G1 X94.596 Y134.107 E48.26643
G1 X94.596 Y88.908 E55.49827
G1 X94.636 Y88.172 E55.61621
G1 X94.755 Y87.444 E55.73423
G1 X94.953 Y86.734 E55.85217
G1 X95.226 Y86.049 E55.97015
G1 X95.572 Y85.398 E56.08811
G1 X95.986 Y84.788 E56.20607
G1 X96.464 Y84.227 E56.32399
G0 F3960 X97.252 Y84.569
G1 F1320 X97.78 Y84.12 E56.43489
G1 X98.355 Y83.735 E56.5456
G1 X98.972 Y83.42 E56.65644
G1 X99.62 Y83.177 E56.76718
G1 X100.293 Y83.01 E56.87812
G1 X100.979 Y82.922 E56.98878
G1 X101.396 Y82.908 E57.05554
G1 X121.595 Y82.908 E60.28738
G1 X122.286 Y82.948 E60.39812
G1 X122.969 Y83.067 E60.50905
G1 X123.632 Y83.265 E60.61976
G1 X124.269 Y83.537 E60.73058
G1 X124.87 Y83.881 E60.84138
G1 X125.428 Y84.292 E60.95226
G1 X125.934 Y84.764 E61.06298
G1 X126.383 Y85.292 E61.17387
G1 X126.768 Y85.867 E61.28459
G1 X127.083 Y86.484 E61.39543
G1 X127.326 Y87.132 E61.50616
G1 X127.493 Y87.805 E61.61711
G1 X127.581 Y88.491 E61.72777
G1 X127.595 Y88.908 E61.79453
G1 X127.595 Y134.107 E69.02637
G1 X127.555 Y134.798 E69.13711
G1 X127.436 Y135.481 E69.24804
G1 X127.238 Y136.144 E69.35875
G1 X126.966 Y136.781 E69.46957
G1 X126.622 Y137.382 E69.58037
G1 X126.211 Y137.94 E69.69125
G1 X125.739 Y138.446 E69.80197
G1 X125.211 Y138.895 E69.91286
G1 X124.636 Y139.28 E70.02358
G1 X124.019 Y139.595 E70.13442
G1 X123.371 Y139.838 E70.24515
G1 X122.698 Y140.005 E70.3561
G1 X122.012 Y140.093 E70.46676
G1 X121.595 Y140.107 E70.53352
G1 X101.396 Y140.107 E73.76536
G1 X100.705 Y140.067 E73.8761
G1 X100.022 Y139.948 E73.98703
G1 X99.359 Y139.75 E74.09774
G1 X98.722 Y139.478 E74.20856
G1 X98.121 Y139.134 E74.31936
G1 X97.563 Y138.723 E74.43024
G1 X97.057 Y138.251 E74.54096
G1 X96.608 Y137.723 E74.65185
G1 X96.223 Y137.148 E74.76257
G1 X95.908 Y136.531 E74.87341
G1 X95.665 Y135.883 E74.98414
G1 X95.498 Y135.21 E75.09509
G1 X95.41 Y134.524 E75.20575
G1 X95.396 Y134.107 E75.2725
G1 X95.396 Y88.908 E82.50434
G1 X95.436 Y88.217 E82.61509
G1 X95.555 Y87.534 E82.72602
G1 X95.753 Y86.871 E82.83672
G1 X96.025 Y86.234 E82.94755
G1 X96.369 Y85.633 E83.05835
G1 X96.78 Y85.075 E83.16923
G1 X97.252 Y84.569 E83.27994
G0 F3960 X98.036 Y84.939
G1 F1320 X98.553 Y84.554 E83.38308
G1 X99.114 Y84.235 E83.48634
G1 X99.71 Y83.989 E83.5895
G1 X100.331 Y83.818 E83.69256
G1 X100.969 Y83.726 E83.7957
G1 X101.396 Y83.708 E83.86408
G1 X121.595 Y83.708 E87.09592
G1 X122.238 Y83.748 E87.19899
G1 X122.872 Y83.867 E87.30221
G1 X123.486 Y84.064 E87.40538
G1 X124.071 Y84.335 E87.50853
G1 X124.618 Y84.677 E87.61175
G1 X125.118 Y85.083 E87.71481
G1 X125.564 Y85.548 E87.8179
G1 X125.949 Y86.065 E87.92103
G1 X126.268 Y86.626 E88.02429
G1 X126.514 Y87.222 E88.12745
G1 X126.685 Y87.843 E88.23051
G1 X126.777 Y88.481 E88.33365
G1 X126.795 Y88.908 E88.40203
G1 X126.795 Y134.107 E95.63387
G1 X126.755 Y134.75 E95.73695
G1 X126.636 Y135.384 E95.84016
G1 X126.439 Y135.998 E95.94333
G1 X126.168 Y136.583 E96.04649
G1 X125.826 Y137.13 E96.1497
G1 X125.42 Y137.63 E96.25276
G1 X124.955 Y138.076 E96.35585
G1 X124.438 Y138.461 E96.45898
G1 X123.877 Y138.78 E96.56224
G1 X123.281 Y139.026 E96.6654
G1 X122.66 Y139.197 E96.76846
G1 X122.022 Y139.289 E96.8716
G1 X121.595 Y139.307 E96.93998
G1 X101.396 Y139.307 E100.17182
G1 X100.753 Y139.267 E100.2749
G1 X100.119 Y139.148 E100.37811
G1 X99.505 Y138.951 E100.48128
G1 X98.92 Y138.68 E100.58444
G1 X98.373 Y138.338 E100.68766
G1 X97.873 Y137.932 E100.79071
G1 X97.427 Y137.467 E100.8938
G1 X97.042 Y136.95 E100.99693
G1 X96.723 Y136.389 E101.10019
G1 X96.477 Y135.793 E101.20335
G1 X96.306 Y135.172 E101.30641
G1 X96.214 Y134.534 E101.40955
G1 X96.196 Y134.107 E101.47793
G1 X96.196 Y88.908 E108.70977
G1 X96.236 Y88.265 E108.81285
G1 X96.355 Y87.631 E108.91606
G1 X96.552 Y87.017 E109.01923
G1 X96.823 Y86.432 E109.12239
G1 X97.165 Y85.885 E109.22561
G1 X97.571 Y85.385 E109.32866
G1 X98.036 Y84.939 E109.43175
G0 F3960 X98.36 Y85.724
G1 F1320 X98.815 Y85.344 E109.5266
G1 X99.318 Y85.03 E109.62147
G1 X99.858 Y84.785 E109.71635
G1 X100.427 Y84.616 E109.81132
G1 X101.012 Y84.525 E109.90605
G1 X101.396 Y84.508 E109.96755
G1 X121.595 Y84.508 E113.19939
G1 X122.187 Y84.548 E113.29432
G1 X122.767 Y84.667 E113.38906
G1 X123.327 Y84.863 E113.48398
G1 X123.855 Y85.133 E113.57887
G1 X124.342 Y85.471 E113.67372
G1 X124.779 Y85.872 E113.76861
G1 X125.159 Y86.327 E113.86346
G1 X125.473 Y86.83 E113.95834
G1 X125.718 Y87.37 E114.05321
G1 X125.887 Y87.939 E114.14819
G1 X125.978 Y88.524 E114.24291
G1 X125.995 Y88.908 E114.30441
G1 X125.995 Y134.107 E121.53625
G1 X125.955 Y134.699 E121.63119
G1 X125.836 Y135.279 E121.72592
G1 X125.64 Y135.839 E121.82085
G1 X125.37 Y136.367 E121.91573
G1 X125.032 Y136.854 E122.01058
G1 X124.631 Y137.291 E122.10548
G1 X124.176 Y137.671 E122.20033
G1 X123.673 Y137.985 E122.2952
G1 X123.133 Y138.23 E122.39008
G1 X122.564 Y138.399 E122.48505
G1 X121.979 Y138.49 E122.57978
G1 X121.595 Y138.507 E122.64128
G1 X101.396 Y138.507 E125.87312
G1 X100.804 Y138.467 E125.96805
G1 X100.224 Y138.348 E126.06279
G1 X99.664 Y138.152 E126.15771
G1 X99.136 Y137.882 E126.2526
G1 X98.649 Y137.544 E126.34745
G1 X98.212 Y137.143 E126.44234
G1 X97.832 Y136.688 E126.53719
G1 X97.518 Y136.185 E126.63207
G1 X97.273 Y135.645 E126.72694
G1 X97.104 Y135.076 E126.82192
G1 X97.013 Y134.491 E126.91664
G1 X96.996 Y134.107 E126.97814
G1 X96.996 Y88.908 E134.20998
G1 X97.036 Y88.316 E134.30492
G1 X97.155 Y87.736 E134.39965
G1 X97.351 Y87.176 E134.49458
G1 X97.621 Y86.648 E134.58946
G1 X97.959 Y86.161 E134.68431
G1 X98.36 Y85.724 E134.77921
G0 F3960 X98.751 Y86.466
G1 F1320 X99.143 Y86.1 E134.86502
G1 X99.585 Y85.797 E134.95076
G1 X100.068 Y85.562 E135.0367
G1 X100.579 Y85.402 E135.12237
G1 X101.109 Y85.319 E135.20821
G1 X101.396 Y85.308 E135.25416
G1 X121.595 Y85.308 E138.486
G1 X122.13 Y85.348 E138.57184
G1 X122.653 Y85.467 E138.65766
G1 X123.152 Y85.662 E138.74338
G1 X123.617 Y85.93 E138.82925
G1 X124.037 Y86.263 E138.91501
G1 X124.403 Y86.655 E139.00082
G1 X124.706 Y87.097 E139.08656
G1 X124.941 Y87.58 E139.1725
G1 X125.101 Y88.091 E139.25818
G1 X125.184 Y88.621 E139.34401
G1 X125.195 Y88.908 E139.38996
G1 X125.195 Y134.107 E146.6218
G1 X125.155 Y134.642 E146.70764
G1 X125.036 Y135.165 E146.79346
G1 X124.841 Y135.664 E146.87918
G1 X124.573 Y136.129 E146.96505
G1 X124.24 Y136.549 E147.05081
G1 X123.848 Y136.915 E147.13662
G1 X123.406 Y137.218 E147.22236
G1 X122.923 Y137.453 E147.3083
G1 X122.412 Y137.613 E147.39398
G1 X121.882 Y137.696 E147.47981
G1 X121.595 Y137.707 E147.52577
G1 X101.396 Y137.707 E150.75761
G1 X100.861 Y137.667 E150.84344
G1 X100.338 Y137.548 E150.92926
G1 X99.839 Y137.353 E151.01498
G1 X99.374 Y137.085 E151.10085
G1 X98.954 Y136.752 E151.18661
G1 X98.588 Y136.36 E151.27242
G1 X98.285 Y135.918 E151.35816
G1 X98.05 Y135.435 E151.44411
G1 X97.89 Y134.924 E151.52978
G1 X97.807 Y134.394 E151.61561
G1 X97.796 Y134.107 E151.66157
G1 X97.796 Y88.908 E158.89341
G1 X97.836 Y88.373 E158.97925
G1 X97.955 Y87.85 E159.06506
G1 X98.15 Y87.351 E159.15078
G1 X98.418 Y86.886 E159.23666
G1 X98.751 Y86.466 E159.32242
G0 F3960 X99.212 Y87.155
G1 F1320 X99.538 Y86.813 E159.39801
G1 X99.917 Y86.53 E159.47369
G1 X100.339 Y86.315 E159.54947
G1 X100.79 Y86.174 E159.62508
G1 X101.396 Y86.108 E159.72261
G1 X121.595 Y86.108 E162.95445
G1 X122.066 Y86.148 E163.03008
G1 X122.524 Y86.267 E163.10579
G1 X122.955 Y86.461 E163.18142
G1 X123.348 Y86.724 E163.25708
G1 X123.69 Y87.05 E163.33268
G1 X123.973 Y87.429 E163.40836
G1 X124.188 Y87.851 E163.48413
G1 X124.329 Y88.302 E163.55974
G1 X124.395 Y88.908 E163.65727
G1 X124.395 Y134.107 E170.88911
G1 X124.355 Y134.578 E170.96474
G1 X124.236 Y135.036 E171.04046
G1 X124.042 Y135.467 E171.11608
G1 X123.779 Y135.86 E171.19174
G1 X123.453 Y136.202 E171.26734
G1 X123.074 Y136.485 E171.34302
G1 X122.652 Y136.7 E171.4188
G1 X122.201 Y136.841 E171.4944
G1 X121.595 Y136.907 E171.59193
G1 X101.396 Y136.907 E174.82377
G1 X100.925 Y136.867 E174.89941
G1 X100.467 Y136.748 E174.97512
G1 X100.036 Y136.554 E175.05074
G1 X99.643 Y136.291 E175.1264
G1 X99.301 Y135.965 E175.202
G1 X99.018 Y135.586 E175.27768
G1 X98.803 Y135.164 E175.35346
G1 X98.662 Y134.713 E175.42906
G1 X98.596 Y134.107 E175.5266
G1 X98.596 Y88.908 E182.75844
G1 X98.636 Y88.437 E182.83407
G1 X98.755 Y87.979 E182.90978
G1 X98.949 Y87.548 E182.9854
G1 X99.212 Y87.155 E183.06107
G0 F3960 X99.746 Y87.778
G1 F1320 X100.003 Y87.473 E183.12488
G1 X100.316 Y87.225 E183.18878
G1 X100.672 Y87.044 E183.25267
G1 X101.057 Y86.937 E183.31661
G1 X101.396 Y86.908 E183.37105
G1 X121.595 Y86.908 E186.60289
G1 X121.993 Y86.948 E186.66689
G1 X122.374 Y87.066 E186.7307
G1 X122.725 Y87.258 E186.79472
G1 X123.03 Y87.515 E186.85853
G1 X123.278 Y87.828 E186.92243
G1 X123.459 Y88.184 E186.98633
G1 X123.566 Y88.569 E187.05026
G1 X123.595 Y88.908 E187.1047
G1 X123.595 Y134.107 E194.33654
G1 X123.555 Y134.505 E194.40054
G1 X123.437 Y134.886 E194.46436
G1 X123.245 Y135.237 E194.52837
G1 X122.988 Y135.542 E194.59218
G1 X122.675 Y135.79 E194.65608
G1 X122.319 Y135.971 E194.71998
G1 X121.934 Y136.078 E194.78391
G1 X121.595 Y136.107 E194.83835
G1 X101.396 Y136.107 E198.07019
G1 X100.998 Y136.067 E198.13419
G1 X100.617 Y135.949 E198.19801
G1 X100.266 Y135.757 E198.26202
G1 X99.961 Y135.5 E198.32584
G1 X99.713 Y135.187 E198.38973
G1 X99.532 Y134.831 E198.45363
G1 X99.425 Y134.446 E198.51756
G1 X99.396 Y134.107 E198.572
G1 X99.396 Y88.908 E205.80384
G1 X99.436 Y88.51 E205.86784
G1 X99.554 Y88.129 E205.93166
G1 X99.746 Y87.778 E205.99567
G0 F3960 X100.196 Y88.908
G1 F1320 X100.236 Y88.601 E206.04521
G1 X100.353 Y88.315 E206.09465
G1 X100.539 Y88.068 E206.14412
G1 X100.782 Y87.877 E206.19357
G1 X101.066 Y87.754 E206.24309
G1 X101.396 Y87.708 E206.2964
G1 X121.595 Y87.708 E209.52824
G1 X121.902 Y87.748 E209.57778
G1 X122.188 Y87.865 E209.62722
G1 X122.435 Y88.051 E209.67669
G1 X122.626 Y88.294 E209.72614
G1 X122.749 Y88.578 E209.77566
G1 X122.795 Y88.908 E209.82897
G1 X122.795 Y134.107 E217.06081
G1 X122.755 Y134.414 E217.11035
G1 X122.638 Y134.7 E217.15979
G1 X122.452 Y134.947 E217.20926
G1 X122.209 Y135.138 E217.25871
G1 X121.925 Y135.261 E217.30823
G1 X121.595 Y135.307 E217.36154
G1 X101.396 Y135.307 E220.59338
G1 X101.089 Y135.267 E220.64292
G1 X100.803 Y135.15 E220.69236
G1 X100.556 Y134.964 E220.74183
G1 X100.365 Y134.721 E220.79128
G1 X100.242 Y134.437 E220.8408
G1 X100.196 Y134.107 E220.89411
G1 X100.196 Y88.908 E228.12595
G0 F3960 X100.996 Y88.908
G1 F1320 X101.036 Y88.735 E228.15436
G1 X101.146 Y88.596 E228.18273
G1 X101.306 Y88.518 E228.21121
G1 X101.396 Y88.508 E228.22569
G1 X121.595 Y88.508 E231.45753
G1 X121.768 Y88.548 E231.48594
G1 X121.907 Y88.658 E231.51431
G1 X121.985 Y88.818 E231.54279
G1 X121.995 Y88.908 E231.55727
G1 X121.995 Y134.107 E238.78911
G1 X121.956 Y134.28 E238.81749
G1 X121.845 Y134.419 E238.84595
G1 X121.685 Y134.497 E238.87443
G1 X121.595 Y134.507 E238.88892
G1 X101.396 Y134.507 E242.12076
G1 X101.223 Y134.468 E242.14913
G1 X101.084 Y134.357 E242.17759
G1 X101.006 Y134.197 E242.20607
G1 X100.996 Y134.107 E242.22056
G1 X100.996 Y88.908 E249.4524
G0 F3960 X101.796 Y89.308
;TYPE:WALL-OUTER
G1 F1320 X121.195 Y89.308 E252.55624
G1 X121.195 Y133.707 E259.66008
G1 X101.796 Y133.707 E262.76392
G1 X101.796 Y89.308 E269.86776
G0 F3960 X101.996 Y89.308
G0 X101.996 Y89.408
G0 X104.654 Y98.343
G0 X104.691 Y98.435
G1 F1320 X104.047 Y98.858 E269.99104
G1 X103.624 Y99.502 E270.11432
G1 X103.489 Y100.208 E270.22933
G1 X103.624 Y100.913 E270.34418
G1 X104.047 Y101.557 E270.46746
G1 X104.691 Y101.98 E270.59074
G1 X105.396 Y102.115 E270.70559
G1 X106.101 Y101.98 E270.82044
G1 X106.746 Y101.557 E270.94385
G1 X107.169 Y100.913 E271.06713
G1 X107.303 Y100.208 E271.18195
G1 X107.169 Y99.502 E271.29692
G1 X106.746 Y98.858 E271.4202
G1 X106.101 Y98.435 E271.54362
G1 X105.396 Y98.301 E271.65844
G1 X104.691 Y98.435 E271.77326
G0 F3960 X104.524 Y98.544
G0 X104.471 Y98.461
G0 X104.019 Y98.83
G0 X103.587 Y99.487
G0 X103.449 Y100.208
G0 X105.396 Y109.501
G0 X105.396 Y109.601
G1 F1320 X104.691 Y109.735 E271.88808
G1 X104.047 Y110.158 E272.01136
G1 X103.624 Y110.802 E272.13463
G1 X103.489 Y111.507 E272.24948
G1 X103.624 Y112.212 E272.36433
G1 X104.047 Y112.856 E272.48761
G1 X104.691 Y113.279 E272.61089
G1 X105.396 Y113.414 E272.72574
G1 X106.101 Y113.279 E272.84059
G1 X106.746 Y112.856 E272.964
G1 X107.169 Y112.212 E273.08728
G1 X107.303 Y111.507 E273.2021
G1 X107.169 Y110.802 E273.31692
G1 X106.746 Y110.158 E273.4402
G1 X106.101 Y109.735 E273.56362
