;FLAVOR:UltiGCode
;TIME:3756
;MATERIAL:13755
;MATERIAL2:0
;NOZZLE_DIAMETER:0.4
;Generated with Cura_SteamEngine 2.4.0

;LAYER_COUNT:293
;LAYER:0
M107
G10
G0 F3960 X79.995 Y88.399 Z0.2
;TYPE:SKIRT
G11
G1 F1320 X80.592 Y87.897 E0.1248
G1 X81.237 Y87.46 E0.24946
G1 X81.923 Y87.091 E0.37409
G1 X82.644 Y86.794 E0.49885
G1 X83.392 Y86.572 E0.62369
G1 X84.158 Y86.428 E0.7484
G1 X85.175 Y86.36 E0.91148
G1 X137.825 Y86.36 E9.33548
G1 X138.603 Y86.4 E9.46013
G1 X139.374 Y86.519 E9.58495
G1 X140.128 Y86.717 E9.70968
G1 X140.857 Y86.991 E9.83428
G1 X141.555 Y87.338 E9.959
G1 X142.214 Y87.755 E10.08378
G1 X142.826 Y88.238 E10.20852
G1 X143.386 Y88.78 E10.33322
G1 X143.888 Y89.377 E10.45802
G1 X144.325 Y90.022 E10.58267
G1 X144.694 Y90.708 E10.7073
G1 X144.991 Y91.429 E10.83207
G1 X145.213 Y92.177 E10.95691
G1 X145.357 Y92.943 E11.08161
G1 X145.425 Y93.96 E11.2447
G1 X145.425 Y129.029 E16.85574
G1 X145.385 Y129.807 E16.98038
G1 X145.266 Y130.578 E17.1052
G1 X145.068 Y131.332 E17.22993
G1 X144.794 Y132.061 E17.35454
G1 X144.447 Y132.759 E17.47926
G1 X144.03 Y133.418 E17.60404
G1 X143.547 Y134.03 E17.72878
G1 X143.005 Y134.59 E17.85347
G1 X142.408 Y135.092 E17.97827
G1 X141.763 Y135.529 E18.10293
G1 X141.077 Y135.898 E18.22756
G1 X140.356 Y136.195 E18.35232
G1 X139.608 Y136.417 E18.47716
G1 X138.842 Y136.561 E18.60187
G1 X137.825 Y136.629 E18.76495
G1 X85.175 Y136.629 E27.18895
G1 X84.397 Y136.589 E27.3136
G1 X83.626 Y136.47 E27.43842
G1 X82.872 Y136.272 E27.56315
G1 X82.143 Y135.998 E27.68776
G1 X81.445 Y135.651 E27.81248
G1 X80.786 Y135.234 E27.93725
G1 X80.174 Y134.751 E28.06199
G1 X79.614 Y134.209 E28.18669
G1 X79.112 Y133.612 E28.31149
G1 X78.675 Y132.967 E28.43614
G1 X78.306 Y132.281 E28.56078
G1 X78.009 Y131.56 E28.68554
G1 X77.787 Y130.812 E28.81038
G1 X77.643 Y130.046 E28.93509
G1 X77.575 Y129.029 E29.09817
G1 X77.575 Y93.96 E34.70921
G1 X77.615 Y93.182 E34.83385
G1 X77.734 Y92.411 E34.95867
G1 X77.932 Y91.657 E35.08341
G1 X78.206 Y90.928 E35.20801
G1 X78.553 Y90.23 E35.33273
G1 X78.97 Y89.571 E35.45751
G1 X79.453 Y88.959 E35.58225
G1 X79.995 Y88.399 E35.70694
G0 F3960 X80.779 Y88.772
G1 F1320 X81.366 Y88.327 E35.8248
G1 X81.999 Y87.947 E35.94293
G1 X82.668 Y87.639 E36.06077
G1 X83.367 Y87.405 E36.17871
G1 X84.088 Y87.247 E36.29681
G1 X85.175 Y87.16 E36.47128
G1 X137.825 Y87.16 E44.89528
G1 X138.561 Y87.2 E45.01322
G1 X139.289 Y87.319 E45.13124
G1 X139.999 Y87.517 E45.24918
G1 X140.684 Y87.79 E45.36716
G1 X141.335 Y88.136 E45.48512
G1 X141.945 Y88.55 E45.60307
G1 X142.506 Y89.028 E45.721
G1 X143.013 Y89.564 E45.83904
G1 X143.458 Y90.151 E45.9569
G1 X143.838 Y90.784 E46.07503
G1 X144.146 Y91.453 E46.19287
G1 X144.38 Y92.152 E46.31081
G1 X144.538 Y92.873 E46.42891
G1 X144.625 Y93.96 E46.60338
G1 X144.625 Y129.029 E52.21442
G1 X144.585 Y129.765 E52.33236
G1 X144.466 Y130.493 E52.45038
G1 X144.268 Y131.203 E52.56832
G1 X143.995 Y131.888 E52.6863
G1 X143.649 Y132.539 E52.80426
G1 X143.235 Y133.149 E52.92221
G1 X142.757 Y133.71 E53.04014
G1 X142.221 Y134.217 E53.15819
G1 X141.634 Y134.662 E53.27604
G1 X141.001 Y135.042 E53.39417
G1 X140.332 Y135.35 E53.51201
G1 X139.633 Y135.584 E53.62995
G1 X138.912 Y135.742 E53.74805
G1 X137.825 Y135.829 E53.92253
G1 X85.175 Y135.829 E62.34653
G1 X84.439 Y135.789 E62.46446
G1 X83.711 Y135.67 E62.58248
G1 X83.001 Y135.472 E62.70042
G1 X82.316 Y135.199 E62.8184
G1 X81.665 Y134.853 E62.93636
G1 X81.055 Y134.439 E63.05432
G1 X80.494 Y133.961 E63.17224
G1 X79.987 Y133.425 E63.29029
G1 X79.542 Y132.838 E63.40815
G1 X79.162 Y132.205 E63.52627
G1 X78.854 Y131.536 E63.64411
G1 X78.62 Y130.837 E63.76205
G1 X78.462 Y130.116 E63.88015
G1 X78.375 Y129.029 E64.05463
G1 X78.375 Y93.96 E69.66567
G1 X78.415 Y93.224 E69.7836
G1 X78.534 Y92.496 E69.90163
G1 X78.732 Y91.786 E70.01956
G1 X79.005 Y91.101 E70.13754
G1 X79.351 Y90.45 E70.2555
G1 X79.765 Y89.84 E70.37346
G1 X80.243 Y89.279 E70.49138
G1 X80.779 Y88.772 E70.60943
G0 F3960 X81.559 Y89.172
G1 F1320 X82.134 Y88.787 E70.72015
G1 X82.751 Y88.472 E70.83099
G1 X83.399 Y88.229 E70.94172
G1 X84.072 Y88.062 E71.05267
G1 X84.758 Y87.974 E71.16332
G1 X85.175 Y87.96 E71.23008
G1 X137.825 Y87.96 E79.65408
G1 X138.516 Y88 E79.76483
G1 X139.199 Y88.119 E79.87575
G1 X139.862 Y88.317 E79.98646
G1 X140.499 Y88.589 E80.09729
G1 X141.1 Y88.933 E80.20808
G1 X141.658 Y89.344 E80.31897
G1 X142.164 Y89.816 E80.42968
G1 X142.613 Y90.344 E80.54058
G1 X142.998 Y90.919 E80.6513
G1 X143.313 Y91.536 E80.76214
G1 X143.556 Y92.184 E80.87287
G1 X143.723 Y92.857 E80.98381
G1 X143.811 Y93.543 E81.09447
G1 X143.825 Y93.96 E81.16123
G1 X143.825 Y129.029 E86.77227
G1 X143.785 Y129.72 E86.88302
G1 X143.666 Y130.403 E86.99394
G1 X143.468 Y131.066 E87.10465
G1 X143.196 Y131.703 E87.21547
G1 X142.852 Y132.304 E87.32627
G1 X142.441 Y132.862 E87.43716
G1 X141.969 Y133.368 E87.54787
G1 X141.441 Y133.817 E87.65877
G1 X140.866 Y134.202 E87.76949
G1 X140.249 Y134.517 E87.88033
G1 X139.601 Y134.76 E87.99106
G1 X138.928 Y134.927 E88.102
G1 X138.242 Y135.015 E88.21266
G1 X137.825 Y135.029 E88.27942
G1 X85.175 Y135.029 E96.70342
G1 X84.484 Y134.989 E96.81416
G1 X83.801 Y134.87 E96.92509
G1 X83.138 Y134.672 E97.0358
G1 X82.501 Y134.4 E97.14662
G1 X81.9 Y134.056 E97.25742
G1 X81.342 Y133.645 E97.36831
G1 X80.836 Y133.173 E97.47902
G1 X80.387 Y132.645 E97.58992
G1 X80.002 Y132.07 E97.70063
G1 X79.687 Y131.453 E97.81148
G1 X79.444 Y130.805 E97.92221
G1 X79.277 Y130.132 E98.03315
G1 X79.189 Y129.446 E98.14381
G1 X79.175 Y129.029 E98.21057
G1 X79.175 Y93.96 E103.82161
G1 X79.215 Y93.269 E103.93235
G1 X79.334 Y92.586 E104.04328
G1 X79.532 Y91.923 E104.15399
G1 X79.804 Y91.286 E104.26481
G1 X80.148 Y90.685 E104.37561
G1 X80.559 Y90.127 E104.48649
G1 X81.031 Y89.621 E104.59721
G1 X81.559 Y89.172 E104.7081
G0 F3960 X81.815 Y89.991
G1 F1320 X82.332 Y89.606 E104.81124
G1 X82.893 Y89.287 E104.9145
G1 X83.489 Y89.041 E105.01766
G1 X84.11 Y88.87 E105.12072
G1 X84.748 Y88.778 E105.22386
G1 X85.175 Y88.76 E105.29224
G1 X137.825 Y88.76 E113.71624
G1 X138.468 Y88.8 E113.81931
G1 X139.102 Y88.919 E113.92253
G1 X139.716 Y89.116 E114.0257
G1 X140.301 Y89.387 E114.12885
G1 X140.848 Y89.729 E114.23207
G1 X141.348 Y90.135 E114.33513
G1 X141.794 Y90.6 E114.43822
G1 X142.179 Y91.117 E114.54135
G1 X142.498 Y91.678 E114.64461
G1 X142.744 Y92.274 E114.74777
G1 X142.915 Y92.895 E114.85083
G1 X143.007 Y93.533 E114.95397
G1 X143.025 Y93.96 E115.02235
G1 X143.025 Y129.029 E120.63339
G1 X142.985 Y129.672 E120.73647
G1 X142.866 Y130.306 E120.83968
G1 X142.669 Y130.92 E120.94285
G1 X142.398 Y131.505 E121.04601
G1 X142.056 Y132.052 E121.14922
G1 X141.65 Y132.552 E121.25228
G1 X141.185 Y132.998 E121.35537
G1 X140.668 Y133.383 E121.4585
G1 X140.107 Y133.702 E121.56176
G1 X139.511 Y133.948 E121.66492
G1 X138.89 Y134.119 E121.76798
G1 X138.252 Y134.211 E121.87112
G1 X137.825 Y134.229 E121.9395
G1 X85.175 Y134.229 E130.3635
G1 X84.532 Y134.189 E130.46658
G1 X83.898 Y134.07 E130.56979
G1 X83.284 Y133.873 E130.67296
G1 X82.699 Y133.602 E130.77612
G1 X82.152 Y133.26 E130.87934
G1 X81.652 Y132.854 E130.98239
G1 X81.206 Y132.389 E131.08548
G1 X80.821 Y131.872 E131.18861
G1 X80.502 Y131.311 E131.29187
G1 X80.256 Y130.715 E131.39503
G1 X80.085 Y130.094 E131.49809
G1 X79.993 Y129.456 E131.60123
G1 X79.975 Y129.029 E131.66961
G1 X79.975 Y93.96 E137.28065
G1 X80.015 Y93.317 E137.38373
G1 X80.134 Y92.683 E137.48694
G1 X80.331 Y92.069 E137.59011
G1 X80.602 Y91.484 E137.69327
G1 X80.944 Y90.937 E137.79649
G1 X81.35 Y90.437 E137.89954
G1 X81.815 Y89.991 E138.00263
G0 F3960 X82.139 Y90.776
G1 F1320 X82.594 Y90.396 E138.09748
G1 X83.097 Y90.082 E138.19235
G1 X83.637 Y89.837 E138.28723
G1 X84.206 Y89.668 E138.3822
G1 X84.791 Y89.577 E138.47693
G1 X85.175 Y89.56 E138.53843
G1 X137.825 Y89.56 E146.96243
G1 X138.417 Y89.6 E147.05736
G1 X138.997 Y89.719 E147.1521
G1 X139.557 Y89.915 E147.24702
G1 X140.085 Y90.185 E147.34191
G1 X140.572 Y90.523 E147.43676
G1 X141.009 Y90.924 E147.53165
G1 X141.389 Y91.379 E147.6265
G1 X141.703 Y91.882 E147.72138
G1 X141.948 Y92.422 E147.81625
G1 X142.117 Y92.991 E147.91123
G1 X142.208 Y93.576 E148.00595
G1 X142.225 Y93.96 E148.06745
G1 X142.225 Y129.029 E153.67849
G1 X142.185 Y129.621 E153.77343
G1 X142.066 Y130.201 E153.86816
G1 X141.87 Y130.761 E153.96309
G1 X141.6 Y131.289 E154.05797
G1 X141.262 Y131.776 E154.15282
G1 X140.861 Y132.213 E154.24772
G1 X140.406 Y132.593 E154.34257
G1 X139.903 Y132.907 E154.43744
G1 X139.363 Y133.152 E154.53232
G1 X138.794 Y133.321 E154.62729
G1 X138.209 Y133.412 E154.72202
G1 X137.825 Y133.429 E154.78352
G1 X85.175 Y133.429 E163.20752
G1 X84.583 Y133.389 E163.30245
G1 X84.003 Y133.27 E163.39719
G1 X83.443 Y133.074 E163.49211
G1 X82.915 Y132.804 E163.587
G1 X82.428 Y132.466 E163.68185
G1 X81.991 Y132.065 E163.77674
G1 X81.611 Y131.61 E163.87159
G1 X81.297 Y131.107 E163.96647
G1 X81.052 Y130.567 E164.06134
G1 X80.883 Y129.998 E164.15632
G1 X80.792 Y129.413 E164.25104
G1 X80.775 Y129.029 E164.31254
G1 X80.775 Y93.96 E169.92358
G1 X80.815 Y93.368 E170.01852
G1 X80.934 Y92.788 E170.11325
G1 X81.13 Y92.228 E170.20818
G1 X81.4 Y91.7 E170.30306
G1 X81.738 Y91.213 E170.39791
G1 X82.139 Y90.776 E170.49281
G0 F3960 X82.53 Y91.518
G1 F1320 X82.922 Y91.152 E170.57862
G1 X83.364 Y90.849 E170.66436
G1 X83.847 Y90.614 E170.7503
G1 X84.358 Y90.454 E170.83597
G1 X84.888 Y90.371 E170.92181
G1 X85.175 Y90.36 E170.96776
G1 X137.825 Y90.36 E179.39176
G1 X138.36 Y90.4 E179.4776
G1 X138.883 Y90.519 E179.56342
G1 X139.382 Y90.714 E179.64914
G1 X139.847 Y90.982 E179.73501
G1 X140.267 Y91.315 E179.82077
G1 X140.633 Y91.707 E179.90658
G1 X140.936 Y92.149 E179.99232
G1 X141.171 Y92.632 E180.07826
G1 X141.331 Y93.143 E180.16394
G1 X141.414 Y93.673 E180.24977
G1 X141.425 Y93.96 E180.29572
G1 X141.425 Y129.029 E185.90676
G1 X141.385 Y129.564 E185.9926
G1 X141.266 Y130.087 E186.07842
G1 X141.071 Y130.586 E186.16414
G1 X140.803 Y131.051 E186.25001
G1 X140.47 Y131.471 E186.33577
G1 X140.078 Y131.837 E186.42158
G1 X139.636 Y132.14 E186.50732
G1 X139.153 Y132.375 E186.59326
G1 X138.642 Y132.535 E186.67894
G1 X138.112 Y132.618 E186.76477
G1 X137.825 Y132.629 E186.81073
G1 X85.175 Y132.629 E195.23473
G1 X84.64 Y132.589 E195.32056
G1 X84.117 Y132.47 E195.40638
G1 X83.618 Y132.275 E195.4921
G1 X83.153 Y132.007 E195.57797
G1 X82.733 Y131.674 E195.66373
G1 X82.367 Y131.282 E195.74954
G1 X82.064 Y130.84 E195.83528
G1 X81.829 Y130.357 E195.92123
G1 X81.669 Y129.846 E196.0069
G1 X81.586 Y129.316 E196.09273
G1 X81.575 Y129.029 E196.13869
G1 X81.575 Y93.96 E201.74973
G1 X81.615 Y93.425 E201.83557
G1 X81.734 Y92.902 E201.92138
G1 X81.929 Y92.403 E202.0071
G1 X82.197 Y91.938 E202.09298
G1 X82.53 Y91.518 E202.17874
G0 F3960 X82.991 Y92.207
G1 F1320 X83.317 Y91.865 E202.25433
G1 X83.696 Y91.582 E202.33001
G1 X84.118 Y91.367 E202.40579
G1 X84.569 Y91.226 E202.4814
G1 X85.175 Y91.16 E202.57893
G1 X137.825 Y91.16 E211.00293
G1 X138.296 Y91.2 E211.07856
G1 X138.754 Y91.319 E211.15427
G1 X139.185 Y91.513 E211.2299
G1 X139.578 Y91.776 E211.30556
G1 X139.92 Y92.102 E211.38116
G1 X140.203 Y92.481 E211.45684
G1 X140.418 Y92.903 E211.53261
G1 X140.559 Y93.354 E211.60822
G1 X140.625 Y93.96 E211.70575
G1 X140.625 Y129.029 E217.31679
G1 X140.585 Y129.5 E217.39242
G1 X140.466 Y129.958 E217.46814
G1 X140.272 Y130.389 E217.54376
G1 X140.009 Y130.782 E217.61942
G1 X139.683 Y131.124 E217.69502
G1 X139.304 Y131.407 E217.7707
G1 X138.882 Y131.622 E217.84648
G1 X138.431 Y131.763 E217.92208
G1 X137.825 Y131.829 E218.01961
G1 X85.175 Y131.829 E226.44361
G1 X84.704 Y131.789 E226.51925
G1 X84.246 Y131.67 E226.59496
G1 X83.815 Y131.476 E226.67058
G1 X83.422 Y131.213 E226.74624
G1 X83.08 Y130.887 E226.82184
G1 X82.797 Y130.508 E226.89752
G1 X82.582 Y130.086 E226.9733
G1 X82.441 Y129.635 E227.0489
G1 X82.375 Y129.029 E227.14644
G1 X82.375 Y93.96 E232.75748
G1 X82.415 Y93.489 E232.83311
G1 X82.534 Y93.031 E232.90882
G1 X82.728 Y92.6 E232.98444
G1 X82.991 Y92.207 E233.06011
G0 F3960 X83.525 Y92.83
G1 F1320 X83.782 Y92.525 E233.12392
G1 X84.095 Y92.277 E233.18782
G1 X84.451 Y92.096 E233.25171
G1 X84.836 Y91.989 E233.31565
G1 X85.175 Y91.96 E233.37009
G1 X137.825 Y91.96 E241.79409
G1 X138.223 Y92 E241.85809
G1 X138.604 Y92.118 E241.9219
G1 X138.955 Y92.31 E241.98592
G1 X139.26 Y92.567 E242.04973
G1 X139.508 Y92.88 E242.11363
G1 X139.689 Y93.236 E242.17753
G1 X139.796 Y93.621 E242.24146
G1 X139.825 Y93.96 E242.2959
G1 X139.825 Y129.029 E247.90694
G1 X139.785 Y129.427 E247.97094
G1 X139.667 Y129.808 E248.03476
G1 X139.475 Y130.159 E248.09877
G1 X139.218 Y130.464 E248.16258
G1 X138.905 Y130.712 E248.22648
G1 X138.549 Y130.893 E248.29038
G1 X138.164 Y131 E248.35431
G1 X137.825 Y131.029 E248.40875
G1 X85.175 Y131.029 E256.83275
G1 X84.777 Y130.989 E256.89675
G1 X84.396 Y130.871 E256.96057
G1 X84.045 Y130.679 E257.02458
G1 X83.74 Y130.422 E257.0884
G1 X83.492 Y130.109 E257.15229
G1 X83.311 Y129.753 E257.21619
G1 X83.204 Y129.368 E257.28012
G1 X83.175 Y129.029 E257.33456
G1 X83.175 Y93.96 E262.9456
G1 X83.215 Y93.562 E263.0096
G1 X83.333 Y93.181 E263.07342
G1 X83.525 Y92.83 E263.13743
G0 F3960 X83.975 Y93.96
G1 F1320 X84.015 Y93.653 E263.18697
G1 X84.132 Y93.367 E263.23641
G1 X84.318 Y93.12 E263.28588
G1 X84.561 Y92.929 E263.33533
G1 X84.845 Y92.806 E263.38485
G1 X85.175 Y92.76 E263.43816
G1 X137.825 Y92.76 E271.86216
G1 X138.132 Y92.8 E271.9117
G1 X138.418 Y92.917 E271.96114
G1 X138.665 Y93.103 E272.01061
G1 X138.856 Y93.346 E272.06006
G1 X138.979 Y93.63 E272.10958
G1 X139.025 Y93.96 E272.16289
G1 X139.025 Y129.029 E277.77393
G1 X138.985 Y129.336 E277.82347
G1 X138.868 Y129.622 E277.87291
G1 X138.682 Y129.869 E277.92238
G1 X138.439 Y130.06 E277.97183
G1 X138.155 Y130.183 E278.02135
G1 X137.825 Y130.229 E278.07466
G1 X85.175 Y130.229 E286.49866
G1 X84.868 Y130.189 E286.5482
G1 X84.582 Y130.072 E286.59764
G1 X84.335 Y129.886 E286.64711
G1 X84.144 Y129.643 E286.69656
G1 X84.021 Y129.359 E286.74608
G1 X83.975 Y129.029 E286.79939
G1 X83.975 Y93.96 E292.41043
G0 F3960 X84.775 Y93.96
G1 F1320 X84.815 Y93.787 E292.43884
G1 X84.925 Y93.648 E292.46721
G1 X85.085 Y93.57 E292.49569
G1 X85.175 Y93.56 E292.51017
G1 X137.825 Y93.56 E300.93417
G1 X137.998 Y93.6 E300.96258
G1 X138.137 Y93.71 E300.99095
G1 X138.215 Y93.87 E301.01943
G1 X138.225 Y93.96 E301.03391
G1 X138.225 Y129.029 E306.64495
G1 X138.186 Y129.202 E306.67333
G1 X138.075 Y129.341 E306.70179
G1 X137.915 Y129.419 E306.73027
G1 X137.825 Y129.429 E306.74476
G1 X85.175 Y129.429 E315.16876
G1 X85.002 Y129.39 E315.19713
G1 X84.863 Y129.279 E315.22559
G1 X84.785 Y129.119 E315.25407
G1 X84.775 Y129.029 E315.26856
G1 X84.775 Y93.96 E320.8796
G0 F3960 X85.575 Y94.36
;TYPE:WALL-OUTER
G1 F1320 X101.934 Y94.36 E323.49704
G1 X102.094 Y94.36 E323.52264
G1 X102.725 Y94.36 E323.6236
G1 X103.357 Y94.36 E323.72472
G1 X103.517 Y94.36 E323.75032
G1 X119.483 Y94.36 E326.30488
G1 X119.643 Y94.36 E326.33048
G1 X120.275 Y94.36 E326.4316
G1 X120.906 Y94.36 E326.53256
G1 X121.066 Y94.36 E326.55816
G1 X137.425 Y94.36 E329.1756
G1 X137.425 Y110.385 E331.7396
G1 X137.425 Y110.863 E331.81608
G1 X137.425 Y111.495 E331.9172
G1 X137.425 Y112.126 E332.01816
G1 X137.425 Y112.604 E332.09464
G1 X137.425 Y128.629 E334.65864
G1 X121.066 Y128.629 E337.27608
G1 X120.906 Y128.629 E337.30168
G1 X120.275 Y128.629 E337.40264
G1 X119.643 Y128.629 E337.50376
G1 X119.483 Y128.629 E337.52936
G1 X103.517 Y128.629 E340.08392
G1 X103.357 Y128.629 E340.10952
G1 X102.725 Y128.629 E340.21064
G1 X102.094 Y128.629 E340.3116
G1 X101.934 Y128.629 E340.3372
G1 X85.575 Y128.629 E342.95464
G1 X85.575 Y94.36 E348.43768
G0 F3960 X85.775 Y94.36
G0 X85.775 Y94.46
G0 X100.918 Y96.651
G0 X101.018 Y96.651
G1 F1320 X101.139 Y97.282 E348.54048
G1 X101.517 Y97.859 E348.65085
G1 X102.094 Y98.238 E348.7613
G1 X102.725 Y98.358 E348.86407
G1 X103.357 Y98.238 E348.967
G1 X103.934 Y97.859 E349.07745
G1 X104.312 Y97.282 E349.18782
G1 X104.432 Y96.651 E349.29059
G1 X104.312 Y96.019 E349.39352
G1 X103.934 Y95.443 E349.50375
G1 X103.49 Y95.151 E349.58878
G1 X103.357 Y95.064 E349.61273
G1 X102.725 Y94.944 E349.69585
G1 X102.094 Y95.064 E349.77885
G1 X101.961 Y95.151 E349.8028
