;FLAVOR:UltiGCode
;TIME:16061
;MATERIAL:12556
;MATERIAL2:0
;NOZZLE_DIAMETER:0.4
;Generated with Cura_SteamEngine 2.4.0

;LAYER_COUNT:529
;LAYER:0
M107
G10
G0 F4800 X86.507 Y86.763 Z0.27
;TYPE:SKIRT
G11
G1 F1800 X87.036 Y86.305 E0.06612
G1 X87.613 Y85.91 E0.1322
G1 X88.232 Y85.584 E0.19831
G1 X88.885 Y85.331 E0.26449
G1 X89.561 Y85.153 E0.33055
G1 X90.254 Y85.054 E0.39671
G1 X90.775 Y85.032 E0.44598
G1 X133.843 Y85.037 E4.51591
G1 X134.541 Y85.077 E4.58198
G1 X135.231 Y85.197 E4.64816
G1 X135.902 Y85.394 E4.71425
G1 X136.546 Y85.666 E4.78031
G1 X137.156 Y86.011 E4.84654
G1 X137.722 Y86.422 E4.91264
G1 X138.237 Y86.896 E4.97878
G1 X138.695 Y87.425 E5.04491
G1 X139.089 Y88.003 E5.11101
G1 X139.415 Y88.622 E5.17712
G1 X139.669 Y89.274 E5.24325
G1 X139.846 Y89.951 E5.30937
G1 X139.945 Y90.643 E5.37543
G1 X139.967 Y91.162 E5.42452
G1 X139.966 Y120.519 E8.19876
G1 X139.926 Y121.218 E8.26492
G1 X139.807 Y121.907 E8.331
G1 X139.609 Y122.579 E8.3972
G1 X139.337 Y123.223 E8.46326
G1 X138.993 Y123.832 E8.52936
G1 X138.581 Y124.398 E8.59552
G1 X138.108 Y124.913 E8.6616
G1 X137.579 Y125.371 E8.72772
G1 X137.001 Y125.766 E8.79388
G1 X136.382 Y126.092 E8.85999
G1 X135.73 Y126.346 E8.92611
G1 X135.053 Y126.523 E8.99224
G1 X134.36 Y126.622 E9.05839
G1 X133.842 Y126.644 E9.10739
G1 X127.301 Y126.645 E9.72551
G1 X127.309 Y126.83 E9.74301
G1 X127.303 Y133.307 E10.35509
G1 X127.262 Y134.005 E10.42116
G1 X127.142 Y134.695 E10.48735
G1 X126.945 Y135.366 E10.55343
G1 X126.671 Y136.01 E10.61957
G1 X126.327 Y136.619 E10.68567
G1 X125.915 Y137.184 E10.75175
G1 X125.441 Y137.699 E10.81789
G1 X124.911 Y138.157 E10.88409
G1 X124.333 Y138.551 E10.95019
G1 X123.714 Y138.876 E11.01626
G1 X123.061 Y139.129 E11.08244
G1 X122.384 Y139.306 E11.14856
G1 X121.692 Y139.404 E11.21461
G1 X121.178 Y139.426 E11.26323
G1 X117.271 Y139.426 E11.63244
G1 X116.572 Y139.386 E11.6986
G1 X115.883 Y139.267 E11.76468
G1 X115.212 Y139.069 E11.83079
G1 X114.567 Y138.797 E11.89694
G1 X113.958 Y138.453 E11.96304
G1 X113.392 Y138.041 E12.02919
G1 X112.877 Y137.568 E12.09527
G1 X112.419 Y137.039 E12.1614
G1 X112.024 Y136.461 E12.22755
G1 X111.698 Y135.842 E12.29367
G1 X111.444 Y135.19 E12.35979
G1 X111.267 Y134.513 E12.42592
G1 X111.168 Y133.82 E12.49207
G1 X111.146 Y133.31 E12.54031
G1 X111.136 Y126.833 E13.15239
G1 X111.146 Y126.647 E13.16999
G1 X90.778 Y126.65 E15.09477
G1 X90.079 Y126.61 E15.16093
G1 X89.39 Y126.491 E15.22701
G1 X88.718 Y126.294 E15.29318
G1 X88.074 Y126.021 E15.35928
G1 X87.465 Y125.677 E15.42538
G1 X86.899 Y125.266 E15.49148
G1 X86.383 Y124.792 E15.55769
G1 X85.925 Y124.264 E15.62375
G1 X85.531 Y123.686 E15.68985
G1 X85.204 Y123.067 E15.75601
G1 X84.951 Y122.415 E15.8221
G1 X84.773 Y121.738 E15.88825
G1 X84.674 Y121.045 E15.9544
G1 X84.652 Y120.526 E16.00349
G1 X84.649 Y91.158 E18.77877
G1 X84.689 Y90.459 E18.84493
G1 X84.808 Y89.77 E18.911
G1 X85.005 Y89.098 E18.97718
G1 X85.278 Y88.454 E19.04328
G1 X85.622 Y87.845 E19.10938
G1 X86.033 Y87.279 E19.17548
G1 X86.507 Y86.763 E19.24169
G0 F4800 X86.851 Y86.919
G1 F1800 X87.376 Y86.488 E19.30588
G1 X87.947 Y86.121 E19.37002
G1 X88.558 Y85.824 E19.43422
G1 X89.2 Y85.601 E19.49845
G1 X89.864 Y85.454 E19.56272
G1 X90.775 Y85.382 E19.64907
G1 X133.843 Y85.387 E23.719
G1 X134.521 Y85.427 E23.78318
G1 X135.19 Y85.546 E23.8474
G1 X135.84 Y85.744 E23.91161
G1 X136.462 Y86.016 E23.97576
G1 X137.049 Y86.359 E24.04001
G1 X137.591 Y86.769 E24.10423
G1 X138.081 Y87.24 E24.16846
G1 X138.512 Y87.765 E24.23265
G1 X138.879 Y88.337 E24.29687
G1 X139.176 Y88.948 E24.36107
G1 X139.399 Y89.589 E24.42521
G1 X139.545 Y90.253 E24.48945
G1 X139.617 Y91.162 E24.57562
G1 X139.616 Y120.519 E27.34986
G1 X139.576 Y121.197 E27.41404
G1 X139.457 Y121.866 E27.47825
G1 X139.26 Y122.516 E27.54244
G1 X138.987 Y123.139 E27.60672
G1 X138.644 Y123.725 E27.67088
G1 X138.234 Y124.267 E27.73511
G1 X137.764 Y124.757 E27.79927
G1 X137.239 Y125.189 E27.86352
G1 X136.667 Y125.555 E27.92769
G1 X136.056 Y125.852 E27.99189
G1 X135.414 Y126.076 E28.05615
G1 X134.751 Y126.222 E28.1203
G1 X133.842 Y126.294 E28.20647
G1 X126.917 Y126.295 E28.86088
G1 X126.959 Y126.829 E28.9115
G1 X126.953 Y133.306 E29.52358
G1 X126.912 Y133.985 E29.58786
G1 X126.792 Y134.653 E29.652
G1 X126.595 Y135.303 E29.71618
G1 X126.322 Y135.926 E29.78046
G1 X125.978 Y136.512 E29.84467
G1 X125.568 Y137.053 E29.90882
G1 X125.097 Y137.543 E29.97305
G1 X124.572 Y137.974 E30.03724
G1 X123.999 Y138.34 E30.10149
G1 X123.388 Y138.636 E30.16565
G1 X122.746 Y138.859 E30.22987
G1 X122.083 Y139.005 E30.29403
G1 X121.178 Y139.076 E30.37981
G1 X117.271 Y139.076 E30.74902
G1 X116.593 Y139.036 E30.81321
G1 X115.924 Y138.917 E30.87742
G1 X115.274 Y138.72 E30.9416
G1 X114.651 Y138.448 E31.00584
G1 X114.065 Y138.104 E31.07006
G1 X113.523 Y137.694 E31.13428
G1 X113.033 Y137.224 E31.19844
G1 X112.602 Y136.699 E31.26263
G1 X112.235 Y136.127 E31.32685
G1 X111.938 Y135.516 E31.39105
G1 X111.714 Y134.874 E31.45531
G1 X111.568 Y134.211 E31.51946
G1 X111.496 Y133.31 E31.60488
G1 X111.486 Y126.833 E32.21696
G1 X111.517 Y126.297 E32.26769
G1 X90.778 Y126.3 E34.22753
G1 X90.1 Y126.26 E34.29171
G1 X89.431 Y126.141 E34.35593
G1 X88.78 Y125.944 E34.4202
G1 X88.158 Y125.672 E34.48435
G1 X87.572 Y125.329 E34.54852
G1 X87.03 Y124.919 E34.61274
G1 X86.539 Y124.448 E34.67704
G1 X86.108 Y123.924 E34.74115
G1 X85.741 Y123.352 E34.80538
G1 X85.444 Y122.741 E34.86958
G1 X85.221 Y122.099 E34.9338
G1 X85.074 Y121.436 E34.99798
G1 X85.002 Y120.526 E35.08424
G1 X84.999 Y91.158 E37.85952
G1 X85.039 Y90.479 E37.92379
G1 X85.158 Y89.81 E37.98801
G1 X85.355 Y89.16 E38.05219
G1 X85.627 Y88.538 E38.11634
G1 X85.97 Y87.951 E38.18059
G1 X86.38 Y87.409 E38.24481
G1 X86.851 Y86.919 E38.30904
G0 F4800 X87.194 Y87.081
G1 F1800 X87.714 Y86.677 E38.37127
G1 X88.279 Y86.34 E38.43344
G1 X88.881 Y86.073 E38.49567
G1 X89.511 Y85.881 E38.55791
G1 X90.16 Y85.767 E38.62018
G1 X90.775 Y85.732 E38.67839
G1 X133.843 Y85.737 E42.74832
G1 X134.5 Y85.777 E42.81052
G1 X135.147 Y85.896 E42.87269
G1 X135.776 Y86.093 E42.93497
G1 X136.376 Y86.365 E42.99723
G1 X136.938 Y86.707 E43.0594
G1 X137.455 Y87.115 E43.12164
G1 X137.919 Y87.583 E43.18391
G1 X138.322 Y88.103 E43.24608
G1 X138.66 Y88.668 E43.3083
G1 X138.927 Y89.271 E43.37062
G1 X139.118 Y89.9 E43.43274
G1 X139.232 Y90.549 E43.49501
G1 X139.267 Y91.162 E43.55303
G1 X139.266 Y120.519 E46.32727
G1 X139.226 Y121.176 E46.38947
G1 X139.107 Y121.824 E46.45173
G1 X138.91 Y122.452 E46.51393
G1 X138.638 Y123.052 E46.57618
G1 X138.296 Y123.615 E46.63843
G1 X137.888 Y124.132 E46.70067
G1 X137.421 Y124.595 E46.76282
G1 X136.9 Y124.999 E46.82512
G1 X136.335 Y125.337 E46.88734
G1 X135.733 Y125.603 E46.94953
G1 X135.103 Y125.795 E47.01177
G1 X134.454 Y125.909 E47.07404
G1 X133.842 Y125.944 E47.13197
G1 X126.527 Y125.945 E47.82324
G1 X126.574 Y126.21 E47.84867
G1 X126.609 Y126.829 E47.90726
G1 X126.603 Y133.306 E48.51933
G1 X126.562 Y133.963 E48.58154
G1 X126.443 Y134.611 E48.6438
G1 X126.245 Y135.239 E48.70603
G1 X125.973 Y135.839 E48.76828
G1 X125.63 Y136.401 E48.8305
G1 X125.222 Y136.917 E48.89266
G1 X124.754 Y137.381 E48.95494
G1 X124.233 Y137.784 E49.01719
G1 X123.668 Y138.121 E49.07936
G1 X123.065 Y138.387 E49.14164
G1 X122.435 Y138.578 E49.20385
G1 X121.787 Y138.692 E49.26602
G1 X121.178 Y138.726 E49.32366
G1 X117.271 Y138.726 E49.69288
G1 X116.614 Y138.686 E49.75508
G1 X115.966 Y138.567 E49.81734
G1 X115.338 Y138.37 E49.87953
G1 X114.738 Y138.098 E49.94179
G1 X114.175 Y137.756 E50.00404
G1 X113.658 Y137.348 E50.06628
G1 X113.195 Y136.881 E50.12842
G1 X112.791 Y136.36 E50.19072
G1 X112.453 Y135.795 E50.25294
G1 X112.187 Y135.193 E50.31514
G1 X111.995 Y134.563 E50.37738
G1 X111.881 Y133.915 E50.43955
G1 X111.846 Y133.309 E50.49691
G1 X111.836 Y126.832 E51.10899
G1 X111.875 Y126.175 E51.17119
G1 X111.917 Y125.947 E51.1931
G1 X90.778 Y125.95 E53.19073
G1 X90.12 Y125.91 E53.25303
G1 X89.473 Y125.791 E53.31519
G1 X88.844 Y125.594 E53.37748
G1 X88.245 Y125.323 E53.43961
G1 X87.682 Y124.98 E53.50191
G1 X87.165 Y124.573 E53.56409
G1 X86.701 Y124.105 E53.62637
G1 X86.297 Y123.585 E53.6886
G1 X85.96 Y123.02 E53.75076
G1 X85.693 Y122.418 E53.813
G1 X85.501 Y121.788 E53.87524
G1 X85.387 Y121.139 E53.93751
G1 X85.352 Y120.526 E53.99553
G1 X85.349 Y91.158 E56.7708
G1 X85.389 Y90.5 E56.8331
G1 X85.508 Y89.853 E56.89527
G1 X85.705 Y89.224 E56.95755
G1 X85.976 Y88.624 E57.01977
G1 X86.319 Y88.062 E57.08199
G1 X86.726 Y87.545 E57.14417
G1 X87.194 Y87.081 E57.20645
G0 F4800 X87.536 Y87.249
G1 F1800 X88.051 Y86.874 E57.26665
G1 X88.609 Y86.567 E57.32683
G1 X89.201 Y86.332 E57.38702
G1 X89.818 Y86.173 E57.44724
G1 X90.449 Y86.092 E57.50735
G1 X90.775 Y86.082 E57.53818
G1 X133.843 Y86.087 E61.6081
G1 X134.478 Y86.127 E61.66823
G1 X135.104 Y86.246 E61.72844
G1 X135.71 Y86.443 E61.78866
G1 X136.286 Y86.714 E61.84882
G1 X136.824 Y87.055 E61.90901
G1 X137.315 Y87.461 E61.96922
G1 X137.751 Y87.925 E62.02939
G1 X138.125 Y88.44 E62.08953
G1 X138.432 Y88.998 E62.14972
G1 X138.667 Y89.59 E62.20991
G1 X138.826 Y90.207 E62.27012
G1 X138.907 Y90.838 E62.33024
G1 X138.917 Y91.162 E62.36087
G1 X138.916 Y120.519 E65.13511
G1 X138.876 Y121.155 E65.19533
G1 X138.757 Y121.78 E65.25545
G1 X138.56 Y122.386 E65.31567
G1 X138.289 Y122.962 E65.37583
G1 X137.948 Y123.5 E65.43602
G1 X137.542 Y123.991 E65.49623
G1 X137.078 Y124.427 E65.55639
G1 X136.563 Y124.802 E65.6166
G1 X136.005 Y125.109 E65.67678
G1 X135.413 Y125.344 E65.73697
G1 X134.797 Y125.503 E65.79709
G1 X134.165 Y125.584 E65.8573
G1 X133.842 Y125.594 E65.88784
G1 X126.098 Y125.595 E66.61965
G1 X126.168 Y125.868 E66.64628
G1 X126.249 Y126.5 E66.7065
G1 X126.259 Y126.829 E66.7376
G1 X126.253 Y133.306 E67.34968
G1 X126.212 Y133.941 E67.40981
G1 X126.093 Y134.567 E67.47003
G1 X125.895 Y135.172 E67.53018
G1 X125.624 Y135.748 E67.59034
G1 X125.282 Y136.286 E67.65058
G1 X124.876 Y136.777 E67.71079
G1 X124.412 Y137.212 E67.77089
G1 X123.896 Y137.587 E67.83117
G1 X123.338 Y137.893 E67.89131
G1 X122.746 Y138.128 E67.9515
G1 X122.129 Y138.286 E68.01169
G1 X121.497 Y138.366 E68.07189
G1 X121.178 Y138.376 E68.10205
G1 X117.271 Y138.376 E68.47126
G1 X116.635 Y138.336 E68.53148
G1 X116.01 Y138.217 E68.59161
G1 X115.404 Y138.02 E68.65182
G1 X114.828 Y137.749 E68.71198
G1 X114.29 Y137.408 E68.77217
G1 X113.799 Y137.002 E68.83238
G1 X113.363 Y136.538 E68.89255
G1 X112.988 Y136.023 E68.95275
G1 X112.681 Y135.466 E69.01285
G1 X112.446 Y134.874 E69.07304
G1 X112.287 Y134.257 E69.13326
G1 X112.196 Y133.309 E69.22325
G1 X112.186 Y126.832 E69.83533
G1 X112.225 Y126.196 E69.89555
G1 X112.338 Y125.597 E69.95315
G1 X90.778 Y125.6 E71.99057
G1 X90.142 Y125.56 E72.05079
G1 X89.516 Y125.441 E72.11101
G1 X88.911 Y125.244 E72.17113
G1 X88.334 Y124.973 E72.23138
G1 X87.796 Y124.633 E72.29152
G1 X87.305 Y124.227 E72.35173
G1 X86.869 Y123.763 E72.41189
G1 X86.494 Y123.248 E72.4721
G1 X86.187 Y122.69 E72.53228
G1 X85.952 Y122.098 E72.59247
G1 X85.793 Y121.482 E72.65259
G1 X85.712 Y120.85 E72.7128
G1 X85.702 Y120.526 E72.74344
G1 X85.699 Y91.158 E75.51871
G1 X85.739 Y90.522 E75.57893
G1 X85.858 Y89.896 E75.63915
G1 X86.055 Y89.291 E75.69928
G1 X86.326 Y88.714 E75.75952
G1 X86.667 Y88.176 E75.81971
G1 X87.072 Y87.685 E75.87986
G1 X87.536 Y87.249 E75.94003
G0 F4800 X87.877 Y87.424
G1 F1800 X88.386 Y87.08 E75.99808
G1 X88.936 Y86.804 E76.05623
G1 X89.516 Y86.603 E76.11424
G1 X90.118 Y86.478 E76.17235
G1 X90.775 Y86.432 E76.23458
G1 X133.843 Y86.437 E80.30451
G1 X134.456 Y86.477 E80.36256
G1 X135.059 Y86.596 E80.42064
G1 X135.641 Y86.793 E80.47871
G1 X136.193 Y87.063 E80.53678
G1 X136.705 Y87.403 E80.59486
G1 X137.168 Y87.806 E80.65286
G1 X137.576 Y88.266 E80.71097
G1 X137.92 Y88.775 E80.76903
G1 X138.195 Y89.325 E80.82714
G1 X138.397 Y89.905 E80.88517
G1 X138.521 Y90.507 E80.94326
G1 X138.567 Y91.162 E81.00531
G1 X138.566 Y120.519 E83.77954
G1 X138.526 Y121.132 E83.8376
G1 X138.407 Y121.735 E83.89568
G1 X138.21 Y122.317 E83.95374
G1 X137.94 Y122.869 E84.01181
G1 X137.6 Y123.381 E84.06989
G1 X137.197 Y123.845 E84.12797
G1 X136.737 Y124.252 E84.18601
G1 X136.228 Y124.597 E84.24412
G1 X135.679 Y124.872 E84.30215
G1 X135.098 Y125.074 E84.36027
G1 X134.497 Y125.198 E84.41827
G1 X133.842 Y125.244 E84.48032
G1 X125.627 Y125.245 E85.25663
G1 X125.739 Y125.567 E85.28885
G1 X125.863 Y126.168 E85.34684
G1 X125.909 Y126.828 E85.40936
G1 X125.903 Y133.305 E86.02144
G1 X125.862 Y133.919 E86.07959
G1 X125.743 Y134.521 E86.13758
G1 X125.546 Y135.103 E86.19565
G1 X125.275 Y135.655 E86.25376
G1 X124.935 Y136.167 E86.31184
G1 X124.531 Y136.63 E86.36991
G1 X124.071 Y137.037 E86.42795
G1 X123.561 Y137.381 E86.48608
G1 X123.012 Y137.656 E86.54411
G1 X122.431 Y137.857 E86.6022
G1 X121.829 Y137.981 E86.66029
G1 X121.178 Y138.026 E86.72195
G1 X117.271 Y138.026 E87.09117
G1 X116.658 Y137.986 E87.14922
G1 X116.055 Y137.867 E87.2073
G1 X115.473 Y137.67 E87.26536
G1 X114.921 Y137.4 E87.32343
G1 X114.409 Y137.06 E87.38151
G1 X113.945 Y136.657 E87.43959
G1 X113.538 Y136.197 E87.49763
G1 X113.193 Y135.688 E87.55574
G1 X112.918 Y135.139 E87.61377
G1 X112.716 Y134.558 E87.6719
G1 X112.592 Y133.957 E87.72989
G1 X112.546 Y133.308 E87.79137
G1 X112.536 Y126.831 E88.40345
G1 X112.575 Y126.218 E88.46149
G1 X112.693 Y125.615 E88.51956
G1 X112.817 Y125.247 E88.55626
G1 X90.778 Y125.25 E90.63894
G1 X90.164 Y125.21 E90.69709
G1 X89.562 Y125.091 E90.75508
G1 X88.979 Y124.895 E90.8132
G1 X88.427 Y124.624 E90.87131
G1 X87.915 Y124.285 E90.92934
G1 X87.452 Y123.882 E90.98735
G1 X87.044 Y123.422 E91.04545
G1 X86.7 Y122.913 E91.10351
G1 X86.424 Y122.363 E91.16166
G1 X86.223 Y121.783 E91.21967
G1 X86.098 Y121.181 E91.27777
G1 X86.052 Y120.525 E91.33991
G1 X86.049 Y91.157 E94.11519
G1 X86.089 Y90.544 E94.17324
G1 X86.208 Y89.941 E94.23132
G1 X86.404 Y89.359 E94.28936
G1 X86.675 Y88.807 E94.34747
G1 X87.014 Y88.295 E94.4055
G1 X87.417 Y87.831 E94.46358
G1 X87.877 Y87.424 E94.52162
G0 F4800 X88.217 Y87.607
G1 F1800 X88.719 Y87.295 E94.57747
G1 X89.259 Y87.053 E94.63339
G1 X89.826 Y86.886 E94.68925
G1 X90.411 Y86.797 E94.74517
G1 X90.775 Y86.782 E94.7796
G1 X133.843 Y86.787 E98.84952
G1 X134.432 Y86.827 E98.90531
G1 X135.012 Y86.946 E98.96126
G1 X135.569 Y87.142 E99.01706
G1 X136.096 Y87.412 E99.07302
G1 X136.581 Y87.75 E99.12888
G1 X137.016 Y88.151 E99.18479
G1 X137.393 Y88.606 E99.24063
G1 X137.705 Y89.108 E99.29649
G1 X137.947 Y89.648 E99.35241
G1 X138.113 Y90.215 E99.40824
G1 X138.202 Y90.8 E99.46416
G1 X138.217 Y91.162 E99.4984
G1 X138.216 Y120.519 E102.27263
G1 X138.176 Y121.109 E102.32851
G1 X138.057 Y121.688 E102.38437
G1 X137.861 Y122.246 E102.44026
G1 X137.591 Y122.772 E102.49614
G1 X137.253 Y123.257 E102.552
G1 X136.853 Y123.692 E102.60785
G1 X136.397 Y124.069 E102.66376
G1 X135.895 Y124.382 E102.71966
G1 X135.356 Y124.623 E102.77546
G1 X134.788 Y124.79 E102.83141
G1 X134.204 Y124.879 E102.88723
G1 X133.842 Y124.894 E102.92147
G1 X125.103 Y124.895 E103.7473
G1 X125.288 Y125.309 E103.79016
G1 X125.455 Y125.877 E103.8461
G1 X125.544 Y126.461 E103.90193
G1 X125.559 Y126.828 E103.93664
G1 X125.553 Y133.305 E104.54872
G1 X125.512 Y133.895 E104.60461
G1 X125.393 Y134.474 E104.66047
G1 X125.196 Y135.032 E104.71639
G1 X124.926 Y135.558 E104.77226
G1 X124.588 Y136.042 E104.82805
G1 X124.187 Y136.477 E104.88396
G1 X123.731 Y136.854 E104.93987
G1 X123.229 Y137.166 E104.99572
G1 X122.689 Y137.407 E105.0516
G1 X122.122 Y137.573 E105.10743
G1 X121.537 Y137.661 E105.16334
G1 X121.178 Y137.676 E105.19729
G1 X117.271 Y137.676 E105.56651
G1 X116.681 Y137.636 E105.62239
G1 X116.102 Y137.517 E105.67825
G1 X115.544 Y137.321 E105.73414
G1 X115.018 Y137.051 E105.79001
G1 X114.533 Y136.713 E105.84587
G1 X114.098 Y136.313 E105.90172
G1 X113.721 Y135.857 E105.95763
G1 X113.408 Y135.355 E106.01354
G1 X113.167 Y134.816 E106.06933
G1 X113 Y134.248 E106.12528
G1 X112.911 Y133.664 E106.1811
G1 X112.896 Y133.308 E106.21478
G1 X112.886 Y126.831 E106.82685
G1 X112.925 Y126.241 E106.88273
G1 X113.043 Y125.661 E106.93866
G1 X113.239 Y125.103 E106.99455
G1 X113.344 Y124.897 E107.0164
G1 X90.778 Y124.9 E109.14889
G1 X90.188 Y124.86 E109.20477
G1 X89.609 Y124.741 E109.26063
